Sources/Resources/LUT/gfx-eterna-55-3d-lut-v100/33Grid/F-Log2C/FLog2C_to_ETERNA_33grid_V.1.00.cube
#title:FLog2C_to_ETERNA
#model:GFX ETERNA 55
#FUJIFILM Corporation
#Gamma:F-Log2C to ETERNA
#Gamut:F-GamutC to ITU-R BT.709
#Version:1.00
LUT_3D_SIZE 9
0.005859 0.005859 0.005859
0.144074 0.013396 0.024292
0.506299 0.065860 0.071918
0.937054 0.225434 0.133554
0.943984 0.328397 0.270514
0.943984 0.328397 0.270514
0.943984 0.328397 0.270514
0.943984 0.328397 0.270514
0.943984 0.328397 0.270514
0.005016 0.080555 0.000374
0.045535 0.019964 0.009062
0.304961 0.029088 0.044061
0.821388 0.141403 0.107207
0.943984 0.328397 0.270514
0.943984 0.328397 0.270514
0.943984 0.328397 0.270514
0.943984 0.328397 0.270514
0.943984 0.328397 0.270514
0.006027 0.273203 0.000000
0.005502 0.200214 0.000000
0.184620 0.161186 0.005032
0.605335 0.171317 0.065832
0.940127 0.283631 0.177053
0.943984 0.328397 0.270514
0.943984 0.328397 0.270514
0.943984 0.328397 0.270514
0.943984 0.328397 0.270514
0.007850 0.664835 0.000000
0.006598 0.525862 0.000000
0.006696 0.409191 0.000000
0.434315 0.356249 0.007594
0.919502 0.418925 0.074184
0.936869 0.436021 0.189027
0.939053 0.388908 0.228862
0.943381 0.352106 0.252816
0.943984 0.328397 0.270514
0.021450 1.000000 0.000199
0.013888 0.926035 0.001023
0.008499 0.824156 0.000066
0.235565 0.726725 0.000426
0.764059 0.679163 0.024219
0.925971 0.634807 0.059238
0.927398 0.563098 0.064945
0.929985 0.502980 0.102160
0.936668 0.444707 0.179090
0.022818 0.999838 0.000199
0.022818 0.999838 0.000199
0.022818 0.999838 0.000199
0.022818 0.999838 0.000199
0.543692 0.952483 0.000074
0.928103 0.892772 0.053133
0.926438 0.777799 0.058429
0.926104 0.710478 0.054730
0.926746 0.642454 0.060661
0.022818 0.999838 0.000199
0.022818 0.999838 0.000199
0.022818 0.999838 0.000199
0.022818 0.999838 0.000199
0.022818 0.999838 0.000199
0.737399 1.000000 0.009117
0.933318 0.965649 0.058254
0.928475 0.913762 0.055445
0.927548 0.854448 0.054899
0.022818 0.999838 0.000199
0.022818 0.999838 0.000199
0.022818 0.999838 0.000199
0.022818 0.999838 0.000199
0.022818 0.999838 0.000199
0.307675 0.999445 0.000366
0.856848 0.999377 0.050887
0.932505 0.999629 0.082445
0.933873 0.999604 0.078984
0.022818 0.999838 0.000199
0.022818 0.999838 0.000199
0.022818 0.999838 0.000199
0.022818 0.999838 0.000199
0.022818 0.999838 0.000199
0.022818 0.999838 0.000199
0.674447 0.999219 0.000000
0.932505 0.999629 0.082445
0.932505 0.999629 0.082445
0.005075 0.006183 0.023387
0.125893 0.013141 0.021896
0.465839 0.055776 0.067207
0.935505 0.212492 0.118598
0.943984 0.328397 0.270514
0.943984 0.328397 0.270514
0.943984 0.328397 0.270514
0.943984 0.328397 0.270514
0.943984 0.328397 0.270514
0.010865 0.082958 0.084019
0.030273 0.030273 0.030273
0.279159 0.024337 0.041972
0.779951 0.130006 0.103250
0.943984 0.328397 0.270514
0.943984 0.328397 0.270514
0.943984 0.328397 0.270514
0.943984 0.328397 0.270514
0.943984 0.328397 0.270514
0.014011 0.293887 0.086155
0.008030 0.213460 0.019133
0.168189 0.170563 0.000000
0.568186 0.174826 0.059528
0.939161 0.279389 0.132903
0.943984 0.328397 0.270514
0.943984 0.328397 0.270514
0.943984 0.328397 0.270514
0.943984 0.328397 0.270514
0.015049 0.706007 0.000172
0.008522 0.562817 0.000758
0.006091 0.429538 0.000000
0.402240 0.370311 0.002180
0.888999 0.425283 0.070056
0.936276 0.447053 0.176606
0.939828 0.398236 0.221632
0.941811 0.360145 0.249801
0.943984 0.328397 0.270514
0.022818 0.999838 0.000199
0.016414 0.943315 0.000000
0.011610 0.844085 0.000648
0.193906 0.744661 0.000203
0.733354 0.693199 0.015344
0.926344 0.656131 0.059820
0.926603 0.579121 0.061620
0.929783 0.515028 0.074918
0.934313 0.458112 0.167645
0.022818 0.999838 0.000199
0.022818 0.999838 0.000199
0.022818 0.999838 0.000199
0.022818 0.999838 0.000199
0.486006 0.965446 0.000000
0.930046 0.906057 0.056730
0.927405 0.791452 0.054128
0.925309 0.725493 0.056597
0.925951 0.658142 0.059066
0.022818 0.999838 0.000199
0.022818 0.999838 0.000199
0.022818 0.999838 0.000199
0.022818 0.999838 0.000199
0.022818 0.999838 0.000199
0.690284 0.999194 0.000414
0.930570 0.979719 0.052977
0.931203 0.924369 0.053629
0.928515 0.867092 0.055789
0.042551 0.999591 0.086773
0.022818 0.999838 0.000199
0.022818 0.999838 0.000199
0.022818 0.999838 0.000199
0.022818 0.999838 0.000199
0.261143 0.999823 0.000539
0.823223 0.999489 0.035708
0.932505 0.999629 0.082445
0.932505 0.999965 0.080715
0.065375 0.997240 0.407371
0.046256 0.999078 0.148232
0.022818 0.999838 0.000199
0.022818 0.999838 0.000199
0.022818 0.999838 0.000199
0.022818 0.999838 0.000199
0.640037 0.999989 0.000000
0.932505 0.999629 0.082445
0.932505 0.999629 0.082445
0.013854 0.002443 0.156684
0.120608 0.003451 0.111348
0.432999 0.045146 0.088145
0.935715 0.194827 0.114778
0.943984 0.328397 0.270514
0.943984 0.328397 0.270514
0.943984 0.328397 0.270514
0.943984 0.328397 0.270514
0.943984 0.328397 0.270514
0.018667 0.075889 0.228454
0.025764 0.019157 0.167871
0.272896 0.007622 0.161598
0.748089 0.112287 0.166696
0.946531 0.322679 0.267585
0.943984 0.328397 0.270514
0.943984 0.328397 0.270514
0.943984 0.328397 0.270514
0.943984 0.328397 0.270514
0.025490 0.317945 0.309094
0.018934 0.228577 0.212517
0.172852 0.172852 0.172852
0.556046 0.172562 0.188695
0.942281 0.272191 0.213172
0.943984 0.328397 0.270514
0.943984 0.328397 0.270514
0.943984 0.328397 0.270514
0.943984 0.328397 0.270514
0.037451 0.729913 0.375133
0.028780 0.603634 0.251433
0.020893 0.467285 0.160390
0.398678 0.392148 0.156070
0.874904 0.426778 0.167852
0.938007 0.462208 0.265355
0.937865 0.408958 0.214403
0.941610 0.367825 0.245055
0.943200 0.333090 0.265547
0.050545 0.991133 0.263555
0.041020 0.944160 0.170625
0.024094 0.864029 0.070808
0.158692 0.772451 0.000871
0.711247 0.711700 0.012329
0.929647 0.671647 0.108324
0.930682 0.592874 0.159999
0.929573 0.529668 0.094313
0.934696 0.470794 0.152738
0.032594 0.999953 0.000000
0.022818 0.999838 0.000199
0.022818 0.999838 0.000199
0.022818 0.999838 0.000199
0.423045 0.973855 0.000863
0.923391 0.914877 0.054468
0.926418 0.801470 0.056527
0.927646 0.737440 0.057489
0.926526 0.672795 0.059204
0.056788 0.999592 0.306422
0.034155 0.999882 0.021632
0.022818 0.999838 0.000199
0.022818 0.999838 0.000199
0.022818 0.999838 0.000199
0.643752 0.999571 0.000586
0.932513 0.991323 0.065227
0.931587 0.933354 0.057758
0.928505 0.879432 0.052242
0.076500 0.990754 0.557219
0.061277 0.997075 0.359003
0.042551 0.999255 0.088504
0.022818 0.999838 0.000199
0.022818 0.999838 0.000199
0.212266 0.999921 0.000000
0.795265 1.000000 0.026919
0.932505 0.999629 0.082445
0.934850 0.999909 0.083422
0.090555 0.983836 0.727301
0.079037 0.988972 0.594004
0.065375 0.996904 0.409101
0.047232 1.000000 0.149208
0.022818 0.999838 0.000199
0.022818 0.999838 0.000199
0.604651 0.999784 0.000000
0.932505 0.999629 0.082445
0.932505 0.999629 0.082445
0.023016 0.002645 0.320066
0.122541 0.001853 0.251566
0.432414 0.009898 0.254047
0.936883 0.168201 0.283078
0.945153 0.329666 0.295187
0.943984 0.328397 0.270514
0.943984 0.328397 0.270514
0.943984 0.328397 0.270514
0.943984 0.328397 0.270514
0.030577 0.050259 0.457679
0.025946 0.002215 0.340301
0.285391 0.000102 0.313175
0.740859 0.071501 0.344266
0.949642 0.322108 0.373727
0.946712 0.330940 0.310230
0.943984 0.328397 0.270514
0.943984 0.328397 0.270514
0.943984 0.328397 0.270514
0.043604 0.341058 0.613722
0.034328 0.239161 0.468864
0.182789 0.173645 0.373997
0.565016 0.163735 0.373374
0.953608 0.249962 0.409296
0.947852 0.355783 0.393480
0.946904 0.332912 0.325273
0.943984 0.328397 0.270514
0.943984 0.328397 0.270514
0.057335 0.736971 0.689253
0.046882 0.632029 0.588854
0.038604 0.504076 0.464181
0.415039 0.415039 0.415039
0.869198 0.421501 0.424148
0.948128 0.484706 0.439926
0.944662 0.432889 0.373176
0.944128 0.382992 0.314548
0.944368 0.339735 0.262532
0.079640 0.959214 0.642851
0.070690 0.920509 0.582937
0.056675 0.863618 0.501453
0.132811 0.781724 0.406485
0.713917 0.716024 0.402813
0.945626 0.676816 0.408156
0.942169 0.605265 0.383023
0.940275 0.545071 0.321019
0.937989 0.485207 0.266914
0.069081 0.994037 0.482673
0.066160 0.995908 0.395035
0.058348 1.000000 0.324926
0.053082 0.999769 0.246695
0.369840 0.964378 0.214910
0.903226 0.911711 0.235019
0.940453 0.801420 0.311230
0.936405 0.744264 0.256372
0.934119 0.683055 0.209188
0.086064 0.986690 0.672988
0.075332 0.991502 0.522165
0.056788 0.999592 0.306422
0.034155 0.999882 0.021632
0.022818 0.999838 0.000199
0.581385 0.999973 0.000000
0.932313 0.997321 0.069133
0.930801 0.937039 0.057980
0.928303 0.885430 0.056148
0.097583 0.979874 0.814937
0.087625 0.985275 0.701875
0.077476 0.991393 0.559926
0.061277 0.997075 0.359003
0.044113 0.999857 0.107009
0.209920 0.999306 0.000488
0.766725 0.999460 0.012714
0.932505 0.999629 0.082445
0.932505 0.999629 0.082445
0.099725 0.979766 0.852699
0.099142 0.980476 0.833441
0.090555 0.983500 0.729032
0.080014 0.989949 0.594981
0.065375 0.996232 0.412562
0.048985 0.999603 0.198328
0.569264 0.999578 0.000000
0.932505 0.999629 0.082445
0.932505 0.999629 0.082445
0.037825 0.007554 0.590036
0.130716 0.002665 0.465801
0.449207 0.000000 0.436242
0.928094 0.118075 0.487138
0.951375 0.343647 0.429598
0.948456 0.340813 0.366187
0.945153 0.329666 0.295187
0.943984 0.328397 0.270514
0.943984 0.328397 0.270514
0.047956 0.018048 0.766423
0.038993 0.008149 0.618168
0.313701 0.000000 0.549067
0.746747 0.000014 0.568422
0.955915 0.278089 0.506836
0.950005 0.341656 0.443441
0.949624 0.343761 0.382207
0.946712 0.330940 0.310230
0.943984 0.328397 0.270514
0.059600 0.329613 0.879118
0.051292 0.233638 0.769757
0.208361 0.163272 0.668722
0.595489 0.141969 0.636815
0.966111 0.211954 0.657867
0.955271 0.341409 0.525132
0.952745 0.337572 0.457285
0.951184 0.344700 0.398981
0.946904 0.332912 0.325273
0.071209 0.706668 0.894563
0.061310 0.631313 0.837391
0.055942 0.522903 0.750083
0.435115 0.430455 0.711323
0.872682 0.409320 0.700458
0.953172 0.498668 0.603222
0.952829 0.455113 0.537140
0.950723 0.413930 0.472036
0.949795 0.367723 0.404000
0.089617 0.913338 0.844340
0.084372 0.881177 0.809544
0.074443 0.838471 0.764227
0.089361 0.779564 0.702890
0.714844 0.714844 0.714844
0.959268 0.677094 0.670758
0.954243 0.622322 0.597618
0.950978 0.564842 0.525230
0.946347 0.508732 0.449383
0.094068 0.982023 0.770254
0.087625 0.985275 0.701875
0.087434 0.985656 0.674720
0.080214 0.975548 0.634336
0.327568 0.937032 0.612215
0.891057 0.893365 0.626960
0.959180 0.796215 0.597305
0.953369 0.744119 0.529579
0.946974 0.689370 0.459898
0.099725 0.979766 0.852699
0.095630 0.981953 0.792220
0.086064 0.986018 0.676449
0.075332 0.991166 0.523894
0.066160 0.995908 0.395035
0.562350 0.999375 0.437829
0.955529 0.992288 0.393945
0.952064 0.928035 0.391222
0.946053 0.878577 0.344708
0.099725 0.979766 0.852699
0.099725 0.979766 0.852699
0.098559 0.980850 0.815913
0.087625 0.984939 0.703605
0.078846 0.990024 0.563387
0.264788 0.996049 0.438723
0.752994 0.999668 0.287516
0.932505 0.999629 0.082445
0.932505 0.999629 0.082445
0.099725 0.979766 0.852699
0.099725 0.979766 0.852699
0.099725 0.979766 0.852699
0.099142 0.980139 0.835172
0.091532 0.984477 0.730009
0.080014 0.989277 0.598442
0.601825 0.996289 0.564340
0.949076 1.000000 0.360090
0.932505 0.999629 0.082445
0.054570 0.033717 0.882550
0.138088 0.014700 0.761418
0.495105 0.000097 0.714024
0.929893 0.019633 0.740882
0.959400 0.307581 0.568567
0.954113 0.329482 0.495355
0.951375 0.343311 0.431327
0.948456 0.340813 0.366187
0.944759 0.331340 0.296163
0.062936 0.058344 0.999348
0.055346 0.037667 0.903009
0.354113 0.012730 0.838875
0.778572 0.000549 0.833421
0.968849 0.199805 0.713242
0.959791 0.302210 0.586625
0.955875 0.324086 0.509953
0.950005 0.341656 0.443441
0.949624 0.343761 0.382207
0.064179 0.209993 0.994769
0.063836 0.152658 0.999637
0.239659 0.088128 0.947859
0.635195 0.067637 0.915422
0.978443 0.147633 0.896758
0.963687 0.299636 0.683890
0.960184 0.297175 0.602953
0.957245 0.320028 0.527259
0.952745 0.337572 0.457285
0.067008 0.580034 0.932293
0.067037 0.544024 0.937743
0.065324 0.486380 0.947801
0.454062 0.403645 0.953864
0.872480 0.370957 0.932785
0.963943 0.445844 0.761314
0.960458 0.419713 0.682277
0.956784 0.387577 0.608964
0.955061 0.356722 0.541067
0.081470 0.829131 0.879550
0.080514 0.803812 0.883937
0.078187 0.779189 0.888325
0.073334 0.737625 0.892352
0.692153 0.689358 0.922723
0.970210 0.644199 0.871407
0.962045 0.614916 0.743780
0.958379 0.568761 0.682668
0.954129 0.520292 0.617871
0.099725 0.979766 0.852699
0.100119 0.978092 0.851723
0.097008 0.956818 0.858063
0.092145 0.931289 0.839508
0.279275 0.897772 0.829673
0.860352 0.860352 0.860352
0.970879 0.795308 0.794012
0.965844 0.748842 0.738090
0.959248 0.699085 0.677507
0.099725 0.979766 0.852699
0.099725 0.979766 0.852699
0.099725 0.979766 0.852699
0.095630 0.981953 0.792220
0.088017 0.984946 0.693976
0.496621 0.989064 0.723269
0.974256 0.975656 0.738855
0.971576 0.913098 0.708223
0.963803 0.867353 0.655762
0.099725 0.979766 0.852699
0.099725 0.979766 0.852699
0.099725 0.979766 0.852699
0.099725 0.979766 0.852699
0.098559 0.980850 0.815913
0.144515 0.985648 0.713507
0.761724 0.996122 0.719753
0.966836 1.000000 0.555289
0.960987 0.999726 0.461262
0.099725 0.979766 0.852699
0.099725 0.979766 0.852699
0.099725 0.979766 0.852699
0.099725 0.979766 0.852699
0.099725 0.979766 0.852699
0.099142 0.980139 0.835172
0.545095 0.986849 0.804565
0.953115 1.000000 0.771340
0.968981 0.999333 0.596512
0.062535 0.071686 1.000000
0.117292 0.055457 1.000000
0.540601 0.017328 0.977122
0.941604 0.000001 0.974016
0.968419 0.243443 0.738102
0.964099 0.280677 0.651939
0.959400 0.307245 0.570297
0.954507 0.327472 0.496110
0.951375 0.343311 0.431327
0.062535 0.071686 1.000000
0.062535 0.071686 1.000000
0.370866 0.052767 0.999961
0.798878 0.000000 0.999734
0.979698 0.040872 0.937777
0.970571 0.235029 0.758644
0.964886 0.273296 0.670750
0.959791 0.302210 0.586625
0.955875 0.323750 0.511684
0.078763 0.069988 1.000000
0.065273 0.070291 1.000000
0.211904 0.070333 1.000000
0.651232 0.044811 0.999461
0.988326 0.000000 0.999270
0.975848 0.220090 0.855997
0.970773 0.224661 0.777235
0.965277 0.267925 0.688808
0.960184 0.297175 0.602953
0.065766 0.424353 0.957636
0.098501 0.316915 0.979535
0.072717 0.288158 0.981079
0.427179 0.278506 1.000000
0.862390 0.266744 0.999008
0.975528 0.349628 0.943663
0.971241 0.354884 0.842183
0.966578 0.333103 0.769539
0.963869 0.313611 0.697117
0.083423 0.831756 0.878043
0.073726 0.734942 0.896567
0.066175 0.644407 0.919974
0.184866 0.617049 0.937995
0.637274 0.604805 0.996622
0.979441 0.569453 1.000000
0.969303 0.559872 0.879683
0.966412 0.520356 0.825183
0.962545 0.481543 0.761056
0.099725 0.979766 0.852699
0.099725 0.979766 0.852699
0.092145 0.926920 0.862003
0.083213 0.850429 0.876671
0.304935 0.824404 0.908864
0.807980 0.805993 0.986352
0.975187 0.763357 0.912970
0.973273 0.724481 0.861175
0.967061 0.682701 0.809914
0.099725 0.979766 0.852699
0.099725 0.979766 0.852699
0.099725 0.979766 0.852699
0.099725 0.979766 0.852699
0.099725 0.979766 0.852699
0.393381 0.969775 0.896352
0.941406 0.941406 0.941406
0.982118 0.896903 0.892456
0.976489 0.857101 0.846609
0.099725 0.979766 0.852699
0.099725 0.979766 0.852699
0.099725 0.979766 0.852699
0.099725 0.979766 0.852699
0.099725 0.979766 0.852699
0.099725 0.979766 0.852699
0.712627 0.989257 0.909574
0.986338 1.000000 0.854897
0.982049 0.999074 0.786297
0.099725 0.979766 0.852699
0.099725 0.979766 0.852699
0.099725 0.979766 0.852699
0.099725 0.979766 0.852699
0.099725 0.979766 0.852699
0.099725 0.979766 0.852699
0.447917 0.982207 0.903461
0.931190 0.997605 0.961520
0.987898 0.999797 0.878593
0.062535 0.071686 1.000000
0.062927 0.070012 0.999261
0.524333 0.061327 0.998828
0.938079 0.000039 1.000000
0.980607 0.126879 0.920848
0.975091 0.194149 0.828789
0.969395 0.244419 0.739078
0.964099 0.280677 0.651939
0.959400 0.307245 0.570297
0.062535 0.071686 1.000000
0.062535 0.071686 1.000000
0.290892 0.066895 0.999910
0.766976 0.040546 1.000000
0.990672 0.000000 1.000000
0.981402 0.107495 0.941476
0.977054 0.181074 0.848133
0.970571 0.235029 0.758644
0.964886 0.273296 0.670750
0.070357 0.069511 0.999485
0.062927 0.070012 0.999261
0.139761 0.070620 1.000000
0.538799 0.061999 1.000000
0.959001 0.000000 0.999134
0.985549 0.047643 0.998926
0.980626 0.096151 0.959090
0.977647 0.168361 0.869206
0.970773 0.224661 0.777235
0.064951 0.464383 0.950680
0.121011 0.283729 0.988583
0.110426 0.082279 0.999982
0.334685 0.067913 0.999737
0.773430 0.039068 0.999785
0.988380 0.167582 0.999267
0.981094 0.231079 0.999814
0.976604 0.234603 0.942039
0.973683 0.233786 0.868247
0.084190 0.852078 0.874188
0.077421 0.758532 0.893910
0.066175 0.644407 0.919974
0.202945 0.502932 0.964195
0.544367 0.418547 1.000000
0.924220 0.443025 0.999946
0.977979 0.449154 0.998711
0.974092 0.425274 0.977673
0.969430 0.401476 0.915411
0.099725 0.979766 0.852699
0.099725 0.979766 0.852699
0.096433 0.942165 0.857926
0.087110 0.867684 0.871840
0.300867 0.778146 0.917860
0.733378 0.706322 0.992797
0.980521 0.680432 1.000000
0.979173 0.658130 0.998895
0.974126 0.622995 0.944618
0.099725 0.979766 0.852699
0.099725 0.979766 0.852699
0.099725 0.979766 0.852699
0.099725 0.979766 0.852699
0.099725 0.979766 0.852699
0.402975 0.952218 0.901630
0.890605 0.894468 0.990820
0.987806 0.854939 0.999387
0.982558 0.822442 0.966321
0.099725 0.979766 0.852699
0.099725 0.979766 0.852699
0.099725 0.979766 0.852699
0.099725 0.979766 0.852699
0.099725 0.979766 0.852699
0.099725 0.979766 0.852699
0.659250 0.987408 0.939164
1.000000 1.000000 1.000000
0.993174 0.985193 0.974215
0.099725 0.979766 0.852699
0.099725 0.979766 0.852699
0.099725 0.979766 0.852699
0.099725 0.979766 0.852699
0.099725 0.979766 0.852699
0.099725 0.979766 0.852699
0.397086 0.981023 0.897243
0.900495 0.994933 0.978689
1.000000 1.000000 1.000000
0.062535 0.071686 1.000000
0.062535 0.071686 1.000000
0.392754 0.064943 0.999788
0.858880 0.022151 0.999835
0.988326 0.000000 0.999270
0.984611 0.000000 1.000000
0.979238 0.127576 0.920848
0.975091 0.194149 0.828789
0.969395 0.244083 0.740809
0.062535 0.071686 1.000000
0.062535 0.071686 1.000000
0.208188 0.070751 0.999944
0.634411 0.054854 1.000000
0.990672 0.000195 0.998515
0.988326 0.000000 0.999270
0.983241 0.000360 1.000000
0.981402 0.107495 0.941476
0.977054 0.181074 0.848133
0.078763 0.069988 1.000000
0.062927 0.070012 0.999261
0.096945 0.070914 0.999621
0.410936 0.065871 0.998727
0.849690 0.025359 0.998859
0.990672 0.000195 0.998515
0.988326 0.000000 0.999270
0.984611 0.000000 0.998293
0.982006 0.083114 0.962636
0.065506 0.503716 0.943723
0.105337 0.325095 0.979449
0.130119 0.145504 0.999688
0.293237 0.067511 0.999156
0.661391 0.054583 0.999597
0.990672 0.000195 0.998515
0.990672 0.000195 0.998515
0.990672 0.000000 1.000000
0.988469 0.062577 1.000000
0.087693 0.870334 0.873793
0.078770 0.782176 0.888546
0.069084 0.673023 0.910617
0.165575 0.537456 0.952973
0.510742 0.415634 1.000000
0.859442 0.286477 0.999368
0.987155 0.231276 1.000000
0.987155 0.231276 1.000000
0.984407 0.244338 0.999950
0.099725 0.979766 0.852699
0.099725 0.979766 0.852699
0.097008 0.956818 0.858063
0.089637 0.885634 0.867008
0.250410 0.799632 0.905301
0.709318 0.723206 0.986097
0.981517 0.658409 0.999871
0.978302 0.528815 0.998864
0.979117 0.489793 1.000000
0.099725 0.979766 0.852699
0.099725 0.979766 0.852699
0.099725 0.979766 0.852699
0.099725 0.979766 0.852699
0.099725 0.979766 0.852699
0.328477 0.965908 0.889465
0.867330 0.908004 0.982168
0.987231 0.840285 0.999251
0.982215 0.759731 0.998875
0.099725 0.979766 0.852699
0.099725 0.979766 0.852699
0.099725 0.979766 0.852699
0.099725 0.979766 0.852699
0.099725 0.979766 0.852699
0.099725 0.979766 0.852699
0.618194 0.986676 0.930684
1.000000 1.000000 1.000000
0.996104 0.983755 0.999640
0.099725 0.979766 0.852699
0.099725 0.979766 0.852699
0.099725 0.979766 0.852699
0.099725 0.979766 0.852699
0.099725 0.979766 0.852699
0.099725 0.979766 0.852699
0.347233 0.981489 0.888539
0.872538 0.994899 0.975090
1.000000 1.000000 1.000000
