Sources/Resources/LUT/gfx-eterna-55-3d-lut-v100/33Grid/F-Log2C/FLog2C_to_PROVIA_33grid_V.1.00.cube
#title:FLog2C_to_PROVIA
#model:GFX ETERNA 55
#FUJIFILM Corporation
#Gamma:F-Log2C to PROVIA
#Gamut:F-GamutC to ITU-R BT.709
#Version:1.00
LUT_3D_SIZE 5
0.000000 0.000000 0.000000
0.612498 0.017792 0.083722
1.000000 0.257130 0.480656
1.000000 0.257130 0.480656
1.000000 0.257130 0.480656
0.000360 0.270997 0.000000
0.153963 0.116214 0.000047
0.999211 0.186574 0.427612
1.000000 0.257130 0.480656
1.000000 0.257130 0.480656
0.000000 1.000000 0.000285
0.000000 0.911685 0.000441
0.846159 0.700360 0.000000
0.998554 0.550313 0.184004
0.999237 0.404029 0.352941
0.000000 1.000000 0.000285
0.000000 1.000000 0.000285
0.000000 1.000000 0.000285
0.999229 0.948261 0.000617
0.999117 0.850263 0.000106
0.000000 1.000000 0.000285
0.000000 1.000000 0.000285
0.000000 1.000000 0.000285
0.345407 1.000000 0.000000
0.980817 0.986317 0.015710
0.008388 0.000000 0.123891
0.521005 0.010842 0.085352
1.000000 0.257130 0.480656
1.000000 0.257130 0.480656
1.000000 0.257130 0.480656
0.000000 0.320157 0.331144
0.129883 0.129883 0.129883
1.000000 0.167825 0.460577
1.000000 0.257130 0.480656
1.000000 0.257130 0.480656
0.000000 1.000000 0.000285
0.000000 0.960364 0.000000
0.764201 0.746864 0.000761
0.998516 0.582867 0.256341
1.000000 0.434725 0.320866
0.000000 1.000000 0.000285
0.000000 1.000000 0.000285
0.000000 1.000000 0.000285
0.994318 0.975019 0.012782
0.999489 0.871587 0.000688
0.000000 1.000000 0.805035
0.000000 1.000000 0.205422
0.000000 1.000000 0.000285
0.046084 0.999649 0.000114
0.980817 0.986317 0.015710
0.087468 0.000000 0.732345
0.545189 0.000000 0.509691
0.999888 0.272918 0.623718
0.999335 0.258119 0.504352
1.000000 0.257130 0.480656
0.108315 0.266328 1.000000
0.243987 0.076531 0.842027
1.000000 0.065177 0.869141
0.999305 0.264890 0.649452
0.999717 0.263071 0.529246
0.000018 0.948770 0.999687
0.000000 0.903249 0.908933
0.724609 0.724609 0.724609
0.999213 0.602859 0.674117
1.000000 0.471319 0.577574
0.002135 0.990721 1.000000
0.000000 0.999226 0.714691
0.000000 0.999727 0.200984
0.988591 1.000000 0.232567
0.999612 0.907507 0.260856
0.002135 0.990721 1.000000
0.002135 0.990721 1.000000
0.000000 0.999415 0.808496
0.081403 0.999860 0.420375
0.985499 0.996527 0.027961
0.383229 0.000000 1.000000
0.686266 0.000357 0.999410
1.000000 0.117040 0.952442
0.999323 0.219711 0.762104
0.999888 0.272918 0.623718
0.422330 0.000000 0.999910
0.494473 0.000000 0.998899
1.000000 0.000000 0.999715
1.000000 0.081981 0.997383
1.000000 0.201963 0.799509
0.000471 0.876757 1.000000
0.000857 0.648745 1.000000
0.739164 0.567179 1.000000
0.999827 0.507663 0.999926
0.999521 0.424497 0.897847
0.002135 0.990721 1.000000
0.002135 0.990721 1.000000
0.002135 0.991058 0.999120
0.949219 0.949219 0.949219
0.999553 0.860895 0.860812
0.002135 0.990721 1.000000
0.002135 0.990721 1.000000
0.002135 0.990721 1.000000
0.002527 0.989049 0.999875
0.989076 1.000000 0.847976
0.385573 0.000437 0.999550
0.641103 0.000037 0.999583
1.000000 0.000000 0.999715
1.000000 0.000000 0.999715
1.000000 0.116704 0.954172
0.422330 0.000000 0.999910
0.433474 0.000000 0.999379
1.000000 0.000000 0.999715
1.000000 0.000000 0.999715
1.000000 0.000000 0.999715
0.000249 0.907098 0.999500
0.000436 0.685758 0.999403
0.670549 0.324382 0.999797
1.000000 0.000000 0.999715
1.000000 0.042960 0.999148
0.002135 0.990721 1.000000
0.002135 0.990721 1.000000
0.002135 0.991058 0.999120
0.869867 0.909919 0.999918
1.000000 0.730317 0.999269
0.002135 0.990721 1.000000
0.002135 0.990721 1.000000
0.002135 0.990721 1.000000
0.003503 0.990025 1.000000
1.000000 1.000000 1.000000
