Sources/Resources/LUT/gfx-eterna-55-3d-lut-v100/33Grid/F-Log2C/FLog2C_to_ASTIA_33grid_V.1.00.cube
#title:FLog2C_to_ASTIA
#model:GFX ETERNA 55
#FUJIFILM Corporation
#Gamma:F-Log2C to ASTIA
#Gamut:F-GamutC to ITU-R BT.709
#Version:1.00
LUT_3D_SIZE 9
0.000000 0.000000 0.000000
0.094622 0.002873 0.002586
0.601183 0.000125 0.033043
0.998964 0.000000 0.499098
0.999461 0.099723 0.540077
0.999461 0.099723 0.540077
0.999461 0.099723 0.540077
0.999461 0.099723 0.540077
0.999461 0.099723 0.540077
0.000162 0.039999 0.000000
0.020909 0.010863 0.000582
0.339985 0.003695 0.005855
0.948959 0.000000 0.229968
0.999461 0.099723 0.540077
0.999461 0.099723 0.540077
0.999461 0.099723 0.540077
0.999461 0.099723 0.540077
0.999461 0.099723 0.540077
0.000350 0.282664 0.000000
0.000054 0.168002 0.000000
0.152211 0.107254 0.000000
0.717854 0.061894 0.000058
1.000000 0.014762 0.494043
0.999461 0.099723 0.540077
0.999461 0.099723 0.540077
0.999461 0.099723 0.540077
0.999461 0.099723 0.540077
0.000000 0.762021 0.000805
0.000651 0.623327 0.001082
0.000000 0.479694 0.000000
0.498807 0.388148 0.000000
0.999736 0.331484 0.057000
0.999314 0.300273 0.407273
1.000000 0.215160 0.466403
0.999040 0.142112 0.511379
0.999461 0.099723 0.540077
0.000000 1.000000 0.000285
0.000000 1.000000 0.000285
0.000000 0.911685 0.000441
0.169998 0.811867 0.000000
0.828361 0.709426 0.000000
0.998909 0.626226 0.023480
1.000000 0.511215 0.217363
0.999628 0.409748 0.313894
0.999496 0.319289 0.394544
0.000000 1.000000 0.000285
0.000000 1.000000 0.000285
0.000000 1.000000 0.000285
0.000000 1.000000 0.000285
0.555774 0.999546 0.000176
0.994788 0.882360 0.000379
0.999175 0.780259 0.000621
0.999998 0.730242 0.000000
0.999876 0.632821 0.055520
0.000000 1.000000 0.000285
0.000000 1.000000 0.000285
0.000000 1.000000 0.000285
0.000000 1.000000 0.000285
0.000000 1.000000 0.000285
0.768486 0.999441 0.000000
0.988075 0.960847 0.000000
0.992814 0.903404 0.000000
0.999901 0.846578 0.000000
0.000000 1.000000 0.000285
0.000000 1.000000 0.000285
0.000000 1.000000 0.000285
0.000000 1.000000 0.000285
0.000000 1.000000 0.000285
0.241592 0.999930 0.000000
0.907687 0.999983 0.000085
0.983737 1.000000 0.022016
0.982761 0.999266 0.021040
0.000000 1.000000 0.000285
0.000000 1.000000 0.000285
0.000000 1.000000 0.000285
0.000000 1.000000 0.000285
0.000000 1.000000 0.000285
0.000000 1.000000 0.000285
0.698689 1.000000 0.000000
0.983737 1.000000 0.022016
0.983737 1.000000 0.022016
0.000000 0.000000 0.011359
0.077418 0.003259 0.002895
0.551329 0.000591 0.024340
0.999166 0.000000 0.465774
0.999461 0.099723 0.540077
0.999461 0.099723 0.540077
0.999461 0.099723 0.540077
0.999461 0.099723 0.540077
0.999461 0.099723 0.540077
0.000000 0.038939 0.039457
0.013672 0.013672 0.013672
0.299513 0.004269 0.006250
0.905367 0.000394 0.184703
0.999461 0.099723 0.540077
0.999461 0.099723 0.540077
0.999461 0.099723 0.540077
0.999461 0.099723 0.540077
0.999461 0.099723 0.540077
0.000319 0.317665 0.000000
0.000000 0.186339 0.000356
0.128543 0.120784 0.000356
0.676005 0.075169 0.000000
0.999549 0.007825 0.473364
0.999461 0.099723 0.540077
0.999461 0.099723 0.540077
0.999461 0.099723 0.540077
0.999461 0.099723 0.540077
0.000000 0.799033 0.000000
0.000000 0.661036 0.000070
0.000000 0.504701 0.000000
0.455388 0.408455 0.000465
0.999918 0.359238 0.000000
1.000000 0.321611 0.388598
1.000000 0.234512 0.451941
0.999030 0.155124 0.504372
0.999461 0.099723 0.540077
0.000000 1.000000 0.000285
0.000000 1.000000 0.000285
0.000000 0.932033 0.000046
0.101360 0.830072 0.000168
0.793154 0.725548 0.000317
0.998889 0.654266 0.000000
0.998958 0.535628 0.190035
1.000000 0.433095 0.294465
0.999678 0.338978 0.378352
0.000000 1.000000 0.000285
0.000000 1.000000 0.000285
0.000000 1.000000 0.000285
0.000000 1.000000 0.000285
0.489692 1.000000 0.000000
0.993599 0.899721 0.000000
0.998771 0.793936 0.000000
0.999203 0.745594 0.000000
0.999081 0.655566 0.017586
0.000000 1.000000 0.000285
0.000000 1.000000 0.000285
0.000000 1.000000 0.000285
0.000000 1.000000 0.000285
0.000000 1.000000 0.000285
0.718241 0.999899 0.000552
0.986304 0.974549 0.001954
0.992413 0.917082 0.000000
0.999498 0.859920 0.000773
0.000000 1.000000 0.000285
0.000000 1.000000 0.000285
0.000000 1.000000 0.000285
0.000000 1.000000 0.000285
0.000000 1.000000 0.000285
0.159675 0.999765 0.001414
0.862526 0.999664 0.000257
0.983737 1.000000 0.022016
0.983737 1.000000 0.022016
0.000000 1.000000 0.308855
0.000000 1.000000 0.000285
0.000000 1.000000 0.000285
0.000000 1.000000 0.000285
0.000000 1.000000 0.000285
0.000000 1.000000 0.000285
0.657242 0.999604 0.000000
0.983737 1.000000 0.022016
0.983737 1.000000 0.022016
0.000000 0.000146 0.119230
0.067049 0.000398 0.061953
0.507143 0.000000 0.035870
1.000000 0.000248 0.407999
0.999461 0.099723 0.540077
0.999461 0.099723 0.540077
0.999461 0.099723 0.540077
0.999461 0.099723 0.540077
0.999461 0.099723 0.540077
0.002680 0.022903 0.234828
0.003303 0.000000 0.131567
0.279954 0.000000 0.092019
0.868220 0.000000 0.199165
0.999662 0.092717 0.541363
0.999461 0.099723 0.540077
0.999461 0.099723 0.540077
0.999461 0.099723 0.540077
0.999461 0.099723 0.540077
0.000835 0.331748 0.362652
0.000000 0.200028 0.195023
0.117188 0.117188 0.117188
0.658005 0.067380 0.120215
0.999155 0.000089 0.522792
0.999461 0.099723 0.540077
0.999461 0.099723 0.540077
0.999461 0.099723 0.540077
0.999461 0.099723 0.540077
0.000000 0.783142 0.356371
0.000000 0.676749 0.174726
0.000000 0.539292 0.033056
0.434650 0.425922 0.000000
0.971931 0.355557 0.194426
0.999467 0.342865 0.453121
0.999153 0.253553 0.442672
1.000000 0.173107 0.493371
0.999844 0.110726 0.533824
0.000000 1.000000 0.000285
0.000000 1.000000 0.000285
0.000175 0.956343 0.000852
0.027435 0.856065 0.000254
0.764191 0.758867 0.000000
0.998658 0.655609 0.206925
0.999321 0.549799 0.287438
0.999792 0.453443 0.294070
0.999467 0.361012 0.359677
0.000000 1.000000 0.000285
0.000000 1.000000 0.000285
0.000000 1.000000 0.000285
0.000000 1.000000 0.000285
0.400344 1.000000 0.000999
0.991637 0.909099 0.000000
0.999720 0.829914 0.000501
0.998610 0.754274 0.000000
0.999846 0.672192 0.032766
0.000000 1.000000 0.094089
0.000000 1.000000 0.000285
0.000000 1.000000 0.000285
0.000000 1.000000 0.000285
0.000000 1.000000 0.000285
0.664671 0.999103 0.000000
0.986485 0.989196 0.011719
0.993188 0.924730 0.000566
0.997536 0.869634 0.000000
0.000824 0.999720 0.598167
0.000000 0.999360 0.208882
0.000000 1.000000 0.000285
0.000000 1.000000 0.000285
0.000000 1.000000 0.000285
0.082840 0.999157 0.000472
0.833200 0.999655 0.000121
0.983737 1.000000 0.022016
0.983737 1.000000 0.022016
0.000000 0.997640 0.877628
0.000000 0.999321 0.654212
0.000000 0.999879 0.310586
0.000000 1.000000 0.000285
0.000000 1.000000 0.000285
0.000000 1.000000 0.000285
0.618141 0.999480 0.000000
0.983737 1.000000 0.022016
0.983737 1.000000 0.022016
0.003455 0.000639 0.390261
0.059590 0.000000 0.246632
0.496361 0.000206 0.204754
0.999751 0.000000 0.479840
0.999652 0.100351 0.562044
0.999461 0.099723 0.540077
0.999461 0.099723 0.540077
0.999461 0.099723 0.540077
0.999461 0.099723 0.540077
0.008893 0.000000 0.620071
0.003254 0.000253 0.427048
0.283628 0.000000 0.329727
0.850784 0.000000 0.415969
1.000000 0.081880 0.637961
0.999451 0.104333 0.576332
0.999461 0.099723 0.540077
0.999461 0.099723 0.540077
0.999461 0.099723 0.540077
0.000000 0.324011 0.841614
0.000521 0.185304 0.646383
0.105611 0.097554 0.471367
0.653484 0.034660 0.429042
1.000000 0.000114 0.699043
0.999996 0.141554 0.640238
1.000000 0.104631 0.590398
0.999461 0.099723 0.540077
0.999461 0.099723 0.540077
0.000000 0.763661 0.867012
0.000302 0.663520 0.728765
0.000000 0.542790 0.574141
0.422852 0.422852 0.422852
0.948244 0.337307 0.479027
0.999025 0.373636 0.604219
0.999295 0.291008 0.574957
0.999766 0.201037 0.548712
1.000000 0.120052 0.526595
0.000000 0.999510 0.748016
0.000000 0.987646 0.663926
0.000510 0.917803 0.549649
0.000000 0.829721 0.406879
0.742457 0.742233 0.287231
1.000000 0.652140 0.476758
0.999866 0.559799 0.491513
0.999943 0.471502 0.466242
0.999045 0.381220 0.445187
0.000259 1.000000 0.459678
0.000290 1.000000 0.279970
0.000510 0.999804 0.127415
0.000000 1.000000 0.000285
0.284409 0.999634 0.000454
0.970668 0.956812 0.057192
0.998905 0.809116 0.306758
0.999940 0.745130 0.282293
1.000000 0.670473 0.271980
0.000402 0.999428 0.789239
0.000000 0.999511 0.533250
0.000000 0.999544 0.097550
0.000000 1.000000 0.000285
0.000000 1.000000 0.000285
0.594875 0.999669 0.000000
0.985106 0.999208 0.023745
0.989645 0.953479 0.000000
0.996138 0.905333 0.000000
0.000000 0.983435 1.000000
0.000000 0.999371 0.833923
0.000000 1.000000 0.599898
0.000691 0.999664 0.213321
0.000000 1.000000 0.000285
0.065635 0.999542 0.000781
0.801528 0.999367 0.000000
0.983737 1.000000 0.022016
0.983737 1.000000 0.022016
0.000000 0.973779 1.000000
0.000000 0.978776 0.999961
0.000000 0.997640 0.877628
0.000814 0.999625 0.658648
0.000088 0.999512 0.318485
0.000000 1.000000 0.000285
0.577670 1.000000 0.000090
0.983737 1.000000 0.022016
0.983737 1.000000 0.022016
0.009840 0.000000 0.807681
0.052101 0.000000 0.609292
0.507064 0.000000 0.514524
1.000000 0.000000 0.675348
1.000000 0.122493 0.678395
0.999431 0.118930 0.621152
0.999652 0.100351 0.562044
0.999461 0.099723 0.540077
0.999461 0.099723 0.540077
0.012367 0.000000 0.892832
0.010614 0.000430 0.843711
0.299989 0.000160 0.702906
0.845066 0.000598 0.701598
0.999700 0.000678 0.775320
1.000000 0.118467 0.689532
1.000000 0.123889 0.636417
0.999451 0.104333 0.576332
0.999461 0.099723 0.540077
0.000000 0.260101 1.000000
0.000511 0.128413 0.999312
0.097377 0.039711 0.910734
0.668506 0.000058 0.807672
1.000000 0.000000 0.890113
1.000000 0.112367 0.755734
0.999229 0.109805 0.702929
1.000000 0.126197 0.649731
1.000000 0.104631 0.590398
0.000215 0.715762 0.999676
0.000867 0.637078 1.000000
0.000000 0.523456 0.989246
0.404227 0.401277 0.839773
0.935912 0.296102 0.783504
0.999580 0.386756 0.732238
1.000000 0.319789 0.697922
0.999899 0.252177 0.670528
1.000000 0.167203 0.643749
0.001005 0.938080 1.000000
0.000240 0.918429 1.000000
0.000671 0.875464 0.972824
0.000739 0.809588 0.892093
0.719727 0.719727 0.719727
0.999960 0.637778 0.715082
1.000000 0.575175 0.667898
0.999311 0.493916 0.635177
1.000000 0.408277 0.602230
0.000000 0.990538 0.939396
0.000000 0.999371 0.833923
0.000402 1.000000 0.784047
0.000019 1.000000 0.733194
0.132002 1.000000 0.646551
0.923898 0.915085 0.548919
0.999459 0.790981 0.595710
0.999126 0.731053 0.553942
0.999576 0.666432 0.517141
0.000000 0.973779 1.000000
0.000000 0.986829 0.977687
0.000402 0.999428 0.789239
0.000835 0.999816 0.537688
0.000000 0.999879 0.310586
0.528362 1.000000 0.249107
0.988972 0.999709 0.285148
0.995848 0.954835 0.318285
0.999027 0.897127 0.298704
0.000000 0.973779 1.000000
0.000000 0.973779 1.000000
0.000000 0.983435 1.000000
0.000000 0.999371 0.833923
0.000432 0.999714 0.607796
0.069684 0.999903 0.348090
0.761057 0.999941 0.000000
0.985298 0.999500 0.047441
0.984714 0.999875 0.029914
0.000000 0.973779 1.000000
0.000000 0.973779 1.000000
0.000000 0.973779 1.000000
0.000000 0.978776 0.999961
0.000000 0.997640 0.877628
0.000030 0.998941 0.681368
0.565279 0.999615 0.454601
0.988006 0.999500 0.220231
0.983929 1.000000 0.047441
0.015296 0.000221 0.909604
0.020773 0.000456 0.894030
0.541215 0.000000 0.903192
0.999681 0.000000 0.899742
1.000000 0.049281 0.805816
1.000000 0.090718 0.737625
1.000000 0.122493 0.678395
0.999431 0.118930 0.621152
0.999260 0.102025 0.563021
0.016857 0.000000 0.933300
0.013927 0.000246 0.913067
0.309716 0.000806 0.999586
0.851471 0.000000 0.998055
1.000000 0.000367 0.953300
0.999662 0.037937 0.823430
1.000000 0.083034 0.752001
1.000000 0.116120 0.692016
1.000000 0.123889 0.636417
0.008957 0.082220 1.000000
0.013113 0.029857 0.959753
0.077462 0.000105 0.944179
0.680205 0.000161 0.999188
1.000000 0.000000 0.999715
1.000000 0.027779 0.906938
0.999863 0.027570 0.842020
1.000000 0.075349 0.766375
0.999229 0.109805 0.702929
0.001126 0.560404 1.000000
0.000773 0.515745 1.000000
0.000000 0.456433 0.999614
0.377679 0.322287 0.999185
0.928723 0.201254 0.999488
0.999830 0.288478 0.903539
0.999285 0.251593 0.837902
0.999535 0.194652 0.796355
1.000000 0.140025 0.758493
0.000000 0.839104 0.999262
0.000000 0.812783 0.999211
0.001133 0.786742 1.000000
0.000000 0.745767 0.999950
0.681007 0.675153 0.999395
1.000000 0.580411 0.940883
1.000000 0.553952 0.811973
0.999291 0.490702 0.771712
0.999551 0.421085 0.735441
0.000000 0.973779 1.000000
0.000000 0.973779 1.000000
0.000000 0.969118 0.999293
0.000210 0.953431 1.000000
0.000422 0.935093 1.000000
0.863281 0.863281 0.863281
0.999832 0.773321 0.797028
0.999880 0.723050 0.755926
1.000000 0.666109 0.714378
0.000000 0.973779 1.000000
0.000000 0.973779 1.000000
0.000000 0.973779 1.000000
0.000382 0.985459 0.981150
0.000200 0.999377 0.824293
0.393774 0.999355 0.734442
0.991844 0.998706 0.668264
0.998364 0.917239 0.659461
0.999391 0.867273 0.622797
0.000000 0.973779 1.000000
0.000000 0.973779 1.000000
0.000000 0.973779 1.000000
0.000000 0.973779 1.000000
0.000382 0.981762 1.000000
0.000000 0.999998 0.855887
0.736123 0.999488 0.641078
0.989337 0.999429 0.456961
0.988571 0.999944 0.353528
0.000000 0.973779 1.000000
0.000000 0.973779 1.000000
0.000000 0.973779 1.000000
0.000000 0.973779 1.000000
0.000000 0.973779 1.000000
0.000192 0.977101 0.998984
0.434618 0.999941 0.838456
0.966032 1.000000 0.693777
0.989719 1.000000 0.502622
0.015679 0.004838 0.936230
0.014512 0.000544 0.927134
0.553125 0.000012 0.999172
1.000000 0.000000 0.999715
1.000000 0.000019 0.974288
1.000000 0.000159 0.888384
1.000000 0.049281 0.805816
0.999633 0.089742 0.736649
1.000000 0.122493 0.678395
0.015679 0.004838 0.936230
0.015679 0.004838 0.936230
0.247349 0.000872 1.000000
0.852448 0.000293 1.000000
1.000000 0.000000 0.999715
1.000000 0.000000 0.999715
1.000000 0.000000 0.905911
0.999662 0.037937 0.823430
1.000000 0.083034 0.752001
0.015679 0.004838 0.936230
0.015679 0.004838 0.936230
0.015679 0.004838 0.936230
0.671799 0.000000 0.999719
1.000000 0.000000 0.999715
1.000000 0.000000 0.999715
1.000000 0.000000 0.999715
0.999873 0.000107 0.923438
0.999863 0.027570 0.842020
0.000306 0.372753 1.000000
0.001007 0.236069 1.000000
0.000654 0.191411 1.000000
0.324469 0.127809 1.000000
0.922244 0.000063 0.998773
0.999603 0.073662 0.999423
0.999966 0.106654 0.999917
0.999996 0.077364 0.970758
0.999833 0.048457 0.914442
0.000499 0.842091 0.999484
0.000980 0.735076 1.000000
0.000000 0.631105 1.000000
0.000312 0.599089 1.000000
0.607785 0.564462 0.999004
1.000000 0.440982 0.998933
0.999482 0.454697 0.982296
0.999924 0.404097 0.933298
0.999198 0.346852 0.887312
0.000000 0.973779 1.000000
0.000000 0.973779 1.000000
0.000000 0.940787 0.999997
0.000000 0.862103 1.000000
0.017714 0.830038 0.999262
0.788641 0.785074 0.999168
0.999067 0.723759 0.951434
1.000000 0.681143 0.902126
0.999547 0.635900 0.854325
0.000000 0.973779 1.000000
0.000000 0.973779 1.000000
0.000000 0.973779 1.000000
0.000000 0.973779 1.000000
0.000000 0.973779 1.000000
0.123536 1.000000 1.000000
0.943359 0.943359 0.943359
0.999724 0.884184 0.886066
0.999964 0.839918 0.839241
0.000000 0.973779 1.000000
0.000000 0.973779 1.000000
0.000000 0.973779 1.000000
0.000000 0.973779 1.000000
0.000000 0.973779 1.000000
0.000977 0.973081 1.000000
0.645356 1.000000 0.943070
0.993777 0.999461 0.796371
0.992227 0.999627 0.713925
0.000000 0.973779 1.000000
0.000000 0.973779 1.000000
0.000000 0.973779 1.000000
0.000000 0.973779 1.000000
0.000000 0.973779 1.000000
0.000977 0.973081 1.000000
0.218946 1.000000 1.000000
0.911246 0.999721 0.960097
0.993576 1.000000 0.827965
0.015679 0.004838 0.936230
0.015679 0.004838 0.936230
0.490758 0.000077 0.999652
1.000000 0.000000 0.999715
1.000000 0.000000 0.999715
1.000000 0.000000 0.999715
1.000000 0.000019 0.974288
1.000000 0.000159 0.888384
1.000000 0.049281 0.805816
0.015679 0.004838 0.936230
0.015679 0.004838 0.936230
0.091144 0.000093 0.968320
0.808654 0.000000 0.999203
1.000000 0.000000 0.999715
1.000000 0.000000 0.999715
1.000000 0.000000 0.999715
1.000000 0.000000 0.999715
0.999289 0.000146 0.907640
0.015679 0.004838 0.936230
0.015679 0.004838 0.936230
0.015679 0.004838 0.936230
0.515392 0.000000 0.999566
1.000000 0.000000 0.999715
1.000000 0.000000 0.999715
1.000000 0.000000 0.999715
1.000000 0.000000 0.999715
1.000000 0.000000 0.999715
0.000268 0.419422 1.000000
0.000270 0.181753 0.999414
0.015679 0.004838 0.936230
0.163086 0.000428 1.000000
0.818429 0.000000 0.998671
1.000000 0.000000 0.999715
1.000000 0.000000 0.999715
1.000000 0.000000 0.999715
1.000000 0.000000 0.999715
0.000480 0.865425 0.999313
0.000568 0.760421 1.000000
0.000000 0.631105 1.000000
0.000000 0.463104 1.000000
0.495779 0.306970 0.999594
0.976182 0.260189 0.999863
1.000000 0.226311 0.999280
1.000000 0.204987 0.998699
0.999909 0.176656 0.999403
0.000000 0.973779 1.000000
0.000000 0.973779 1.000000
0.000000 0.955441 1.000000
0.000270 0.883428 1.000000
0.018931 0.777676 1.000000
0.709358 0.673849 1.000000
0.999556 0.596004 0.999769
0.999576 0.572669 0.999942
0.999998 0.535994 0.999222
0.000000 0.973779 1.000000
0.000000 0.973779 1.000000
0.000000 0.973779 1.000000
0.000000 0.973779 1.000000
0.000000 0.973779 1.000000
0.150335 0.983396 1.000000
0.873612 0.874835 0.999422
1.000000 0.816647 0.999867
0.999008 0.784353 0.999371
0.000000 0.973779 1.000000
0.000000 0.973779 1.000000
0.000000 0.973779 1.000000
0.000000 0.973779 1.000000
0.000000 0.973779 1.000000
0.000977 0.973081 1.000000
0.562453 0.999817 1.000000
1.000000 1.000000 1.000000
0.995912 0.984135 0.972483
0.000000 0.973779 1.000000
0.000000 0.973779 1.000000
0.000000 0.973779 1.000000
0.000000 0.973779 1.000000
0.000000 0.973779 1.000000
0.000977 0.973081 1.000000
0.121192 1.000000 1.000000
0.869598 0.998260 0.999762
1.000000 1.000000 1.000000
0.015679 0.004838 0.936230
0.015679 0.004838 0.936230
0.271985 0.000000 0.999982
0.916183 0.000000 0.998551
1.000000 0.000000 0.999715
1.000000 0.000000 0.999715
1.000000 0.000000 0.999715
1.000000 0.000000 0.999715
1.000000 0.000000 0.976019
0.015679 0.004838 0.936230
0.015679 0.004838 0.936230
0.015679 0.004838 0.936230
0.652248 0.000000 0.999050
1.000000 0.000000 0.999715
1.000000 0.000000 0.999715
1.000000 0.000000 0.999715
1.000000 0.000000 0.999715
1.000000 0.000000 0.999715
0.015679 0.004838 0.936230
0.015679 0.004838 0.936230
0.015679 0.004838 0.936230
0.301311 0.000000 1.000000
0.904062 0.000000 0.999835
1.000000 0.000000 0.999715
1.000000 0.000000 0.999715
1.000000 0.000000 0.999715
1.000000 0.000000 0.999715
0.000228 0.466090 1.000000
0.000414 0.244750 1.000000
0.013132 0.009885 0.942621
0.095835 0.000651 0.970273
0.683919 0.000000 1.000000
1.000000 0.000000 0.999715
1.000000 0.000000 0.999715
1.000000 0.000000 0.999715
1.000000 0.000000 0.999715
0.000000 0.887448 0.999895
0.001133 0.786742 1.000000
0.000062 0.664097 1.000000
0.000000 0.502766 1.000000
0.437127 0.306953 0.999321
0.907768 0.010722 0.998996
1.000000 0.000000 0.999715
1.000000 0.000000 0.999715
1.000000 0.000000 0.999715
0.000000 0.973779 1.000000
0.000000 0.973779 1.000000
0.000785 0.968084 1.000000
0.000059 0.902101 1.000000
0.000338 0.802093 1.000000
0.679427 0.694188 0.999753
0.999778 0.565998 0.999496
1.000000 0.347645 0.999621
1.000000 0.277641 1.000000
0.000000 0.973779 1.000000
0.000000 0.973779 1.000000
0.000000 0.973779 1.000000
0.000000 0.973779 1.000000
0.000000 0.973779 1.000000
0.016794 0.996728 1.000000
0.843682 0.894839 1.000000
0.999582 0.799007 0.999507
0.999862 0.698998 0.999749
0.000000 0.973779 1.000000
0.000000 0.973779 1.000000
0.000000 0.973779 1.000000
0.000000 0.973779 1.000000
0.000000 0.973779 1.000000
0.000977 0.973081 1.000000
0.506147 1.000000 0.999629
1.000000 1.000000 1.000000
0.995912 0.978757 1.000000
0.000000 0.973779 1.000000
0.000000 0.973779 1.000000
0.000000 0.973779 1.000000
0.000000 0.973779 1.000000
0.000000 0.973779 1.000000
0.000000 0.973779 1.000000
0.029497 1.000000 1.000000
0.839294 0.996939 1.000000
1.000000 1.000000 1.000000
