Sources/Resources/LUT/gfx-eterna-55-3d-lut-v100/33Grid/F-Log2C/FLog2C_to_Velvia_33grid_V.1.00.cube
#title:FLog2C_to_Velvia
#model:GFX ETERNA 55
#FUJIFILM Corporation
#Gamma:F-Log2C to Velvia
#Gamut:F-GamutC to ITU-R BT.709
#Version:1.00
LUT_3D_SIZE 5
0.000000 0.000000 0.000000
0.657881 0.000206 0.020981
0.999899 0.286792 0.492290
0.999899 0.286792 0.492290
0.999899 0.286792 0.492290
0.000000 0.265023 0.000000
0.099649 0.072433 0.000000
0.999575 0.215870 0.447144
0.999899 0.286792 0.492290
0.999899 0.286792 0.492290
0.000000 1.000000 0.000285
0.000367 0.961340 0.000321
0.870804 0.687807 0.000000
0.998938 0.576774 0.098149
0.999993 0.440724 0.324773
0.000000 1.000000 0.000285
0.000000 1.000000 0.000285
0.000000 1.000000 0.000285
0.999219 0.959928 0.000532
0.998915 0.856933 0.000552
0.000000 1.000000 0.000285
0.000000 1.000000 0.000285
0.000000 1.000000 0.000285
0.203860 0.999108 0.000266
0.998626 0.968945 0.000000
0.000000 0.000571 0.066649
0.554067 0.000000 0.024340
0.999899 0.286792 0.492290
0.999899 0.286792 0.492290
0.999899 0.286792 0.492290
0.000000 0.328463 0.348364
0.082031 0.082031 0.082031
0.999976 0.194463 0.487785
0.999899 0.286792 0.492290
0.999899 0.286792 0.492290
0.000000 1.000000 0.000285
0.000000 1.000000 0.000285
0.761674 0.729921 0.000403
0.999099 0.598289 0.192535
1.000000 0.470786 0.280364
0.000000 1.000000 0.000285
0.000000 1.000000 0.000285
0.000000 1.000000 0.000285
0.998626 0.968609 0.000223
0.999479 0.883254 0.000601
0.000000 1.000000 0.768250
0.000000 0.999633 0.046700
0.000000 1.000000 0.000285
0.000000 1.000000 0.000285
0.998626 0.968945 0.000000
0.058908 0.000035 0.830449
0.604800 0.000099 0.631902
0.999477 0.293557 0.647019
1.000000 0.286075 0.521175
0.999899 0.286792 0.492290
0.114081 0.151864 1.000000
0.259279 0.000301 0.980277
1.000000 0.006321 0.982634
1.000000 0.282150 0.676969
0.999496 0.289043 0.550285
0.000210 0.953431 1.000000
0.000068 0.902197 0.939550
0.705078 0.705078 0.705078
0.999615 0.594223 0.649000
1.000000 0.485674 0.563644
0.000573 0.986758 0.999653
0.000623 1.000000 0.631493
0.000000 0.999633 0.046700
0.998787 0.999197 0.047887
0.999400 0.954411 0.114125
0.000573 0.986758 0.999653
0.000573 0.986758 0.999653
0.000000 1.000000 0.769981
0.000000 0.999556 0.293059
0.999602 0.969921 0.000000
0.492126 0.000000 0.999652
0.738857 0.000177 0.999461
0.999421 0.057334 0.998308
1.000000 0.217277 0.815441
0.999477 0.292885 0.650480
0.526144 0.000282 1.000000
0.588512 0.000217 0.999532
1.000000 0.000000 0.999715
1.000000 0.006644 1.000000
1.000000 0.193187 0.860297
0.000300 0.848762 0.999930
0.001701 0.575058 1.000000
0.744527 0.466391 0.999708
0.999664 0.468001 0.998984
1.000000 0.412746 0.939158
0.000573 0.986758 0.999653
0.000573 0.986758 0.999653
0.000573 0.986758 0.999653
0.968750 0.968750 0.968750
0.998960 0.868567 0.865695
0.000573 0.986758 0.999653
0.000573 0.986758 0.999653
0.000573 0.986758 0.999653
0.000573 0.986758 0.999653
0.999445 0.999315 0.807953
0.494473 0.000000 0.998899
0.709532 0.000169 0.999325
1.000000 0.000000 0.999715
1.000000 0.000000 0.999715
0.999421 0.056998 1.000000
0.527513 0.000000 1.000000
0.533574 0.000000 1.000000
1.000000 0.000000 0.999715
1.000000 0.000000 0.999715
1.000000 0.000000 0.999715
0.000259 0.895431 0.999586
0.000877 0.625410 1.000000
0.712152 0.138445 1.000000
1.000000 0.000000 0.999715
1.000000 0.000000 0.999715
0.000573 0.986758 0.999653
0.000573 0.986758 0.999653
0.000573 0.986758 0.999653
0.874750 0.915810 0.999609
1.000000 0.653642 0.999340
0.000573 0.986758 0.999653
0.000573 0.986758 0.999653
0.000573 0.986758 0.999653
0.000573 0.986422 1.000000
1.000000 1.000000 1.000000
