Sources/Resources/LUT/gfx-eterna-55-3d-lut-v100/33Grid/F-Log2C/FLog2C_to_ETERNA-BB_33grid_V.1.00.cube
#title:FLog2C_to_ETERNA-BB
#model:GFX ETERNA 55
#FUJIFILM Corporation
#Gamma:F-Log2C to ETERNA BLEACH BYPASS
#Gamut:F-GamutC to ITU-R BT.709
#Version:1.00
LUT_3D_SIZE 9
0.000000 0.000000 0.000000
0.071347 0.012040 0.016428
0.353416 0.058272 0.083657
0.676614 0.230412 0.259899
0.753503 0.376840 0.375047
0.753503 0.376840 0.375047
0.753503 0.376840 0.375047
0.753503 0.376840 0.375047
0.753503 0.376840 0.375047
0.008367 0.045464 0.009507
0.020518 0.012201 0.003290
0.180419 0.034216 0.044493
0.577597 0.121114 0.165788
0.753503 0.376840 0.375047
0.753503 0.376840 0.375047
0.753503 0.376840 0.375047
0.753503 0.376840 0.375047
0.753503 0.376840 0.375047
0.036015 0.174795 0.042023
0.023943 0.118753 0.028164
0.110955 0.103783 0.039797
0.440954 0.115955 0.096727
0.712515 0.305864 0.308331
0.753503 0.376840 0.375047
0.753503 0.376840 0.375047
0.753503 0.376840 0.375047
0.753503 0.376840 0.375047
0.173083 0.591825 0.190745
0.109283 0.448688 0.127117
0.105676 0.327824 0.090746
0.350474 0.296277 0.125113
0.767125 0.465651 0.301764
0.824542 0.518177 0.420395
0.796050 0.459173 0.404891
0.769701 0.407792 0.387348
0.753503 0.376840 0.375047
0.257525 0.829461 0.279027
0.244266 0.790445 0.266281
0.224965 0.729914 0.243102
0.355990 0.683939 0.264672
0.799912 0.752458 0.383706
0.899629 0.738851 0.406391
0.884436 0.665474 0.438585
0.862598 0.595971 0.433996
0.831568 0.530345 0.424968
0.259872 0.829741 0.280004
0.259872 0.829741 0.280004
0.259872 0.829741 0.280004
0.259872 0.829741 0.280004
0.681694 0.911143 0.364960
0.941504 0.926564 0.417934
0.929634 0.861499 0.415742
0.918337 0.810752 0.415419
0.904311 0.747045 0.429024
0.259872 0.829741 0.280004
0.259872 0.829741 0.280004
0.259872 0.829741 0.280004
0.259872 0.829741 0.280004
0.347630 0.856074 0.299722
0.840207 0.959206 0.395609
0.942261 0.957881 0.417454
0.940911 0.935580 0.415895
0.939369 0.908619 0.413136
0.259872 0.829741 0.280004
0.259872 0.829741 0.280004
0.259872 0.829741 0.280004
0.259872 0.829741 0.280004
0.259872 0.829741 0.280004
0.533121 0.902186 0.338183
0.905303 0.966389 0.410618
0.938536 0.969630 0.418121
0.939904 0.968934 0.418121
0.263183 0.835271 0.319941
0.259872 0.829741 0.280004
0.259872 0.829741 0.280004
0.259872 0.829741 0.280004
0.259872 0.829741 0.280004
0.361310 0.859759 0.304829
0.797591 0.954174 0.387660
0.938536 0.969630 0.418121
0.938536 0.969630 0.418121
0.000977 0.000000 0.006169
0.062942 0.011900 0.013499
0.322338 0.050649 0.075930
0.668418 0.213951 0.246227
0.753503 0.376840 0.375047
0.753503 0.376840 0.375047
0.753503 0.376840 0.375047
0.753503 0.376840 0.375047
0.753503 0.376840 0.375047
0.013049 0.050633 0.047716
0.017578 0.017578 0.017578
0.157354 0.028741 0.038940
0.553758 0.109337 0.151894
0.753503 0.376840 0.375047
0.753503 0.376840 0.375047
0.753503 0.376840 0.375047
0.753503 0.376840 0.375047
0.753503 0.376840 0.375047
0.049275 0.204065 0.104952
0.030186 0.130237 0.055457
0.104109 0.107270 0.039797
0.412412 0.114615 0.084253
0.708811 0.296968 0.295327
0.753503 0.376840 0.375047
0.753503 0.376840 0.375047
0.753503 0.376840 0.375047
0.753503 0.376840 0.375047
0.196884 0.638844 0.263133
0.130557 0.485485 0.164535
0.096666 0.346687 0.094344
0.325435 0.309831 0.129551
0.754028 0.465626 0.293422
0.831176 0.532356 0.424215
0.802099 0.471038 0.405028
0.777705 0.420937 0.392898
0.753503 0.376840 0.375047
0.259872 0.829741 0.280004
0.248756 0.797674 0.268680
0.227885 0.744174 0.247675
0.336822 0.694375 0.261211
0.782899 0.758512 0.380024
0.906455 0.758027 0.409679
0.889700 0.681022 0.438945
0.868256 0.609844 0.433379
0.834096 0.546617 0.428789
0.259872 0.829741 0.280004
0.259872 0.829741 0.280004
0.259872 0.829741 0.280004
0.259872 0.829741 0.280004
0.642011 0.909042 0.359942
0.936611 0.933012 0.414695
0.930992 0.872805 0.413926
0.922434 0.820328 0.415332
0.906647 0.761007 0.419530
0.259872 0.829741 0.280004
0.259872 0.829741 0.280004
0.259872 0.829741 0.280004
0.259872 0.829741 0.280004
0.327304 0.848533 0.297633
0.809320 0.956578 0.387351
0.940106 0.961927 0.419407
0.941102 0.940240 0.417093
0.937799 0.915650 0.415313
0.269024 0.846652 0.417343
0.259872 0.829741 0.280004
0.259872 0.829741 0.280004
0.259872 0.829741 0.280004
0.259872 0.829741 0.280004
0.500675 0.894587 0.333919
0.888490 0.965435 0.408218
0.938536 0.969630 0.418121
0.939904 0.968934 0.418121
0.282857 0.866715 0.603273
0.271752 0.849867 0.453598
0.263183 0.835271 0.319941
0.259872 0.829741 0.280004
0.259872 0.829741 0.280004
0.347630 0.856074 0.299722
0.771397 0.951769 0.383087
0.938536 0.969630 0.418121
0.938536 0.969630 0.418121
0.010934 0.005993 0.060394
0.059418 0.009922 0.050063
0.291059 0.047342 0.080761
0.651041 0.189702 0.228202
0.753503 0.376840 0.375047
0.753503 0.376840 0.375047
0.753503 0.376840 0.375047
0.753503 0.376840 0.375047
0.753503 0.376840 0.375047
0.029268 0.049175 0.106911
0.022461 0.013723 0.067454
0.145817 0.022932 0.081980
0.531871 0.096824 0.153796
0.752335 0.371204 0.372871
0.753503 0.376840 0.375047
0.753503 0.376840 0.375047
0.753503 0.376840 0.375047
0.753503 0.376840 0.375047
0.073076 0.239658 0.236175
0.043646 0.148804 0.138707
0.118164 0.118164 0.118164
0.407701 0.124285 0.149618
0.707834 0.292966 0.309926
0.754479 0.377816 0.376023
0.753503 0.376840 0.375047
0.753503 0.376840 0.375047
0.753503 0.376840 0.375047
0.237862 0.691578 0.483773
0.179547 0.550115 0.337168
0.132769 0.401019 0.216743
0.342400 0.345982 0.215867
0.757723 0.474427 0.366905
0.844053 0.556338 0.463980
0.807759 0.483568 0.411333
0.783756 0.432128 0.396497
0.758969 0.384710 0.380152
0.276625 0.854991 0.517231
0.264936 0.820704 0.441742
0.245443 0.767947 0.353335
0.347344 0.723695 0.331061
0.776427 0.775595 0.420407
0.922262 0.778889 0.483523
0.903364 0.701656 0.476758
0.875082 0.628011 0.441859
0.841123 0.559121 0.431633
0.265128 0.840488 0.365070
0.262791 0.835599 0.327839
0.259872 0.829741 0.280004
0.259872 0.829741 0.280004
0.603502 0.902254 0.350262
0.928790 0.935522 0.413718
0.935675 0.877301 0.455594
0.925937 0.832533 0.446086
0.915234 0.775458 0.433957
0.276615 0.861281 0.544833
0.266294 0.842765 0.384551
0.259872 0.829741 0.280004
0.259872 0.829741 0.280004
0.308930 0.843954 0.292305
0.775111 0.951686 0.382331
0.940297 0.966923 0.418875
0.940318 0.944261 0.415586
0.939359 0.919950 0.414782
0.290067 0.878408 0.695486
0.279345 0.865840 0.574164
0.269024 0.846316 0.419074
0.259872 0.829741 0.280004
0.259872 0.829741 0.280004
0.469596 0.886627 0.327922
0.874417 0.963424 0.404091
0.938536 0.969630 0.418121
0.938536 0.969630 0.418121
0.308812 0.890197 0.774074
0.292604 0.880323 0.713234
0.282465 0.868053 0.605980
0.272729 0.850844 0.454575
0.263183 0.834598 0.323402
0.347630 0.856074 0.299722
0.745594 0.947691 0.377535
0.938536 0.969630 0.418121
0.938536 0.969630 0.418121
0.031833 0.012056 0.145684
0.068398 0.014298 0.106773
0.282652 0.036113 0.134939
0.639323 0.170926 0.252825
0.757599 0.383056 0.392265
0.753503 0.376840 0.375047
0.753503 0.376840 0.375047
0.753503 0.376840 0.375047
0.753503 0.376840 0.375047
0.066790 0.037752 0.264347
0.041801 0.013807 0.161926
0.161834 0.026466 0.150275
0.526012 0.079203 0.208504
0.763458 0.381857 0.434465
0.761114 0.387627 0.402340
0.753503 0.376840 0.375047
0.753503 0.376840 0.375047
0.753503 0.376840 0.375047
0.155309 0.285108 0.471773
0.093059 0.172725 0.331386
0.139447 0.127164 0.238731
0.416862 0.136586 0.250703
0.721315 0.286519 0.402001
0.791175 0.428173 0.474504
0.763650 0.390887 0.413168
0.753503 0.376840 0.375047
0.753503 0.376840 0.375047
0.293324 0.726018 0.683512
0.239671 0.612386 0.578401
0.202087 0.463779 0.439919
0.393555 0.393555 0.393555
0.776066 0.488803 0.501762
0.882321 0.594957 0.584512
0.843871 0.529592 0.516512
0.801516 0.460322 0.444605
0.763067 0.393613 0.383527
0.293197 0.868618 0.729118
0.285012 0.845866 0.687843
0.278215 0.804125 0.620785
0.379532 0.764615 0.558489
0.789282 0.796361 0.596706
0.944713 0.790501 0.621839
0.930506 0.719539 0.587608
0.898701 0.654670 0.533897
0.863383 0.583211 0.480495
0.285777 0.872575 0.651109
0.280512 0.867444 0.597105
0.279938 0.860856 0.555437
0.275257 0.857704 0.506849
0.584114 0.908415 0.523582
0.925246 0.936041 0.557398
0.949920 0.883110 0.585345
0.941946 0.842021 0.543711
0.930849 0.790652 0.511793
0.296308 0.884514 0.750465
0.289291 0.874458 0.675027
0.276615 0.861281 0.544833
0.266294 0.842765 0.384551
0.345859 0.860031 0.352528
0.738557 0.945508 0.381528
0.942834 0.969847 0.431435
0.944415 0.945433 0.458761
0.942089 0.922828 0.452766
0.332652 0.897941 0.808734
0.302560 0.887356 0.762270
0.289090 0.877431 0.694509
0.279345 0.865840 0.574164
0.308700 0.857396 0.437851
0.487576 0.891200 0.342879
0.861318 0.962390 0.400937
0.939904 0.968934 0.418121
0.939904 0.968934 0.418121
0.345942 0.901284 0.825200
0.336952 0.899501 0.815125
0.308812 0.890197 0.774074
0.292604 0.880323 0.713234
0.283442 0.869030 0.606957
0.420489 0.890421 0.522848
0.734832 0.946839 0.435839
0.939904 0.968934 0.418121
0.938536 0.969630 0.418121
0.081055 0.027956 0.354469
0.096518 0.025762 0.256672
0.307661 0.035378 0.244454
0.642252 0.155035 0.352661
0.787662 0.418559 0.490387
0.778490 0.406835 0.446320
0.757599 0.383056 0.392265
0.753503 0.376840 0.375047
0.753503 0.376840 0.375047
0.118174 0.034914 0.486840
0.089652 0.029059 0.377634
0.207349 0.038174 0.321828
0.530713 0.043224 0.338598
0.753130 0.333336 0.488676
0.788639 0.418192 0.498285
0.781611 0.413080 0.457371
0.761114 0.387627 0.402340
0.753503 0.376840 0.375047
0.211022 0.267314 0.605739
0.155587 0.172329 0.537773
0.182617 0.129854 0.454300
0.458473 0.141699 0.432195
0.733818 0.270356 0.538090
0.798596 0.424552 0.550781
0.787662 0.415870 0.504230
0.783756 0.418014 0.469175
0.763650 0.390887 0.413168
0.354514 0.715851 0.763832
0.316275 0.629461 0.709316
0.266540 0.504371 0.627236
0.459176 0.435751 0.603812
0.792649 0.497820 0.677394
0.898510 0.618419 0.695364
0.869434 0.565839 0.631184
0.840942 0.515908 0.568958
0.802886 0.449878 0.494790
0.336397 0.863865 0.803048
0.327033 0.842439 0.783738
0.312596 0.812477 0.753157
0.423467 0.791998 0.747707
0.807617 0.807617 0.807617
0.964818 0.795111 0.793789
0.950209 0.742868 0.732762
0.926025 0.684176 0.670089
0.895982 0.619623 0.601558
0.318387 0.893622 0.791292
0.295524 0.886183 0.761070
0.293963 0.884236 0.749489
0.292210 0.878972 0.729785
0.584457 0.916011 0.774825
0.932829 0.939148 0.804204
0.965918 0.888133 0.765945
0.962635 0.850626 0.710692
0.954278 0.802232 0.656277
0.345942 0.901284 0.825200
0.326400 0.894427 0.800390
0.296308 0.884514 0.750465
0.288898 0.876132 0.676003
0.378437 0.890202 0.625700
0.745536 0.955856 0.695425
0.962336 0.978338 0.687782
0.958842 0.952112 0.669227
0.953394 0.927965 0.627953
0.345942 0.901284 0.825200
0.345942 0.901284 0.825200
0.334022 0.897243 0.808734
0.302560 0.887020 0.763999
0.333850 0.888404 0.709069
0.552986 0.927872 0.676359
0.864018 0.967000 0.609980
0.947123 0.971647 0.496575
0.944002 0.970443 0.459566
0.345942 0.901284 0.825200
0.345942 0.901284 0.825200
0.345942 0.901284 0.825200
0.336952 0.899165 0.816856
0.307835 0.888884 0.774828
0.427668 0.909894 0.754968
0.781879 0.963569 0.783114
0.957060 0.978153 0.668301
0.946147 0.970335 0.497328
0.132631 0.035828 0.547012
0.136356 0.036850 0.480586
0.364120 0.047461 0.445340
0.639734 0.101892 0.478710
0.781621 0.382929 0.552632
0.786888 0.404863 0.520114
0.789616 0.420513 0.492341
0.778490 0.406835 0.446320
0.760528 0.385985 0.395194
0.177783 0.037397 0.600400
0.142013 0.035600 0.557840
0.278083 0.044589 0.531591
0.569766 0.066397 0.519474
0.737141 0.266570 0.566001
0.782406 0.377901 0.559332
0.785326 0.399220 0.527566
0.788639 0.418192 0.498285
0.781611 0.413080 0.457371
0.239478 0.134310 0.624879
0.201594 0.084176 0.614035
0.223922 0.041718 0.585629
0.485492 0.068210 0.568407
0.732277 0.223231 0.639160
0.791387 0.381941 0.617773
0.778893 0.369968 0.566562
0.784743 0.394889 0.534265
0.787662 0.415870 0.504230
0.370083 0.572548 0.732738
0.342952 0.525187 0.713688
0.307823 0.453684 0.685711
0.502001 0.405305 0.699655
0.788570 0.447436 0.767637
0.886811 0.567906 0.763418
0.866121 0.538463 0.703727
0.836844 0.493563 0.634801
0.811282 0.447571 0.570313
0.396055 0.827505 0.816669
0.387668 0.805374 0.806988
0.375174 0.785337 0.797309
0.457887 0.767125 0.811204
0.800781 0.783305 0.890765
0.957590 0.768778 0.896950
0.947068 0.739792 0.825368
0.931866 0.694213 0.774414
0.912171 0.642749 0.714140
0.345942 0.901284 0.825200
0.353955 0.903434 0.827376
0.340283 0.888754 0.818894
0.347139 0.875616 0.808598
0.583279 0.904230 0.864278
0.927734 0.927734 0.927734
0.975282 0.889058 0.890812
0.969451 0.854919 0.850602
0.964215 0.814115 0.800316
0.345942 0.901284 0.825200
0.345942 0.901284 0.825200
0.345942 0.901284 0.825200
0.326008 0.896438 0.799638
0.389151 0.906707 0.786735
0.729862 0.962272 0.866262
0.978526 0.983652 0.892078
0.976209 0.954420 0.860211
0.971738 0.931923 0.816453
0.345942 0.901284 0.825200
0.345942 0.901284 0.825200
0.345942 0.901284 0.825200
0.345942 0.901284 0.825200
0.360801 0.902299 0.815263
0.547089 0.936756 0.834550
0.888009 0.980031 0.882570
0.970330 0.984666 0.788422
0.967018 0.982498 0.731180
0.345942 0.901284 0.825200
0.345942 0.901284 0.825200
0.345942 0.901284 0.825200
0.345942 0.901284 0.825200
0.345942 0.901284 0.825200
0.438984 0.919494 0.847180
0.770906 0.968958 0.904075
0.973431 0.992402 0.911782
0.973845 0.986213 0.814071
0.190880 0.037088 0.610473
0.191273 0.037430 0.599114
0.428208 0.063128 0.590628
0.651060 0.095120 0.595234
0.764465 0.313889 0.610477
0.775580 0.353348 0.583730
0.781621 0.382929 0.552632
0.783958 0.401933 0.517184
0.789616 0.420513 0.492341
0.198894 0.039910 0.609189
0.196941 0.037285 0.610696
0.342968 0.055995 0.619636
0.599254 0.086239 0.622649
0.694029 0.143466 0.610515
0.758997 0.304339 0.614024
0.773436 0.345055 0.589231
0.782406 0.377901 0.559332
0.785326 0.399220 0.527566
0.215707 0.041198 0.609856
0.211016 0.039967 0.611363
0.266729 0.047377 0.615542
0.525944 0.077192 0.638789
0.687013 0.110557 0.652750
0.764667 0.296800 0.663676
0.758222 0.295347 0.619523
0.772267 0.337737 0.595707
0.778893 0.369968 0.566562
0.334480 0.376106 0.672605
0.288459 0.240180 0.645144
0.270306 0.206604 0.634351
0.453864 0.228772 0.664110
0.717742 0.285071 0.735774
0.840961 0.450901 0.783707
0.839783 0.463652 0.746835
0.822416 0.433785 0.697749
0.803096 0.403311 0.639789
0.399377 0.829096 0.816890
0.408243 0.750597 0.795218
0.401295 0.650804 0.761913
0.472471 0.635185 0.775585
0.755516 0.676680 0.873207
0.943776 0.683035 0.929232
0.939285 0.685888 0.874918
0.923489 0.646973 0.834040
0.902416 0.605857 0.784064
0.345942 0.901284 0.825200
0.350633 0.902178 0.825423
0.374894 0.879967 0.824753
0.400927 0.843718 0.823195
0.606575 0.865678 0.881754
0.902737 0.889915 0.956742
0.968838 0.870131 0.936646
0.964177 0.839612 0.908993
0.961669 0.804711 0.881118
0.345942 0.901284 0.825200
0.345942 0.901284 0.825200
0.345942 0.901284 0.825200
0.345942 0.901284 0.825200
0.405168 0.912594 0.842914
0.707764 0.957007 0.925628
0.970703 0.970703 0.970703
0.984605 0.949760 0.947848
0.980326 0.928226 0.924324
0.345942 0.901284 0.825200
0.345942 0.901284 0.825200
0.345942 0.901284 0.825200
0.345942 0.901284 0.825200
0.361969 0.905583 0.829551
0.538671 0.938537 0.881720
0.874701 0.982884 0.954187
0.991996 0.995257 0.951188
0.988483 0.994381 0.922079
0.345942 0.901284 0.825200
0.345942 0.901284 0.825200
0.345942 0.901284 0.825200
0.345942 0.901284 0.825200
0.345942 0.901284 0.825200
0.429208 0.919043 0.849442
0.745487 0.967142 0.937262
0.972245 0.995312 0.985574
0.991604 0.995922 0.957355
0.190880 0.037088 0.610473
0.203585 0.040468 0.611142
0.456740 0.070421 0.632433
0.663162 0.106751 0.657806
0.725834 0.212704 0.641731
0.748467 0.269546 0.632340
0.764465 0.313889 0.610477
0.775580 0.353348 0.583730
0.781621 0.382929 0.552632
0.197917 0.038597 0.609941
0.195573 0.037982 0.610696
0.314428 0.051630 0.622739
0.593968 0.088985 0.648074
0.688966 0.112173 0.656434
0.721544 0.197796 0.644078
0.744762 0.256952 0.638370
0.758997 0.304339 0.614024
0.773436 0.345055 0.589231
0.214337 0.041559 0.611585
0.207300 0.040722 0.608655
0.233496 0.043463 0.611500
0.463193 0.069281 0.629949
0.673129 0.110182 0.665394
0.691300 0.127145 0.641749
0.715102 0.187942 0.643188
0.738711 0.245088 0.638234
0.758222 0.295011 0.621254
0.348707 0.427430 0.687973
0.280475 0.204036 0.638036
0.224697 0.044661 0.611278
0.343944 0.055962 0.625804
0.597291 0.090576 0.648296
0.741651 0.220891 0.720851
0.773645 0.300167 0.725579
0.774622 0.305177 0.705790
0.770716 0.306312 0.675926
0.397998 0.840789 0.820266
0.410178 0.774540 0.803922
0.404616 0.652395 0.762137
0.423137 0.490368 0.725491
0.601690 0.420986 0.751500
0.852036 0.517874 0.855254
0.898921 0.559131 0.871067
0.886629 0.535782 0.843637
0.871990 0.513501 0.808309
0.345942 0.901284 0.825200
0.345942 0.901284 0.825200
0.369610 0.887081 0.827683
0.388605 0.850331 0.821465
0.590577 0.828057 0.869008
0.844555 0.800264 0.928493
0.964598 0.793189 0.958457
0.962855 0.775252 0.944031
0.956824 0.744758 0.919840
0.345942 0.901284 0.825200
0.345942 0.901284 0.825200
0.345942 0.901284 0.825200
0.345942 0.901284 0.825200
0.396762 0.912453 0.839984
0.706987 0.949024 0.925937
0.949802 0.947165 0.975399
0.982662 0.929418 0.980591
0.977990 0.908887 0.961503
0.345942 0.901284 0.825200
0.345942 0.901284 0.825200
0.345942 0.901284 0.825200
0.345942 0.901284 0.825200
0.359039 0.902317 0.828352
0.515215 0.935073 0.875414
0.855151 0.980973 0.963902
1.000000 1.000000 1.000000
0.995511 0.994452 0.988949
0.345942 0.901284 0.825200
0.345942 0.901284 0.825200
0.345942 0.901284 0.825200
0.345942 0.901284 0.825200
0.345942 0.901284 0.825200
0.417480 0.916976 0.848020
0.715968 0.963818 0.929004
0.961492 0.993884 0.986859
1.000000 1.000000 1.000000
0.193226 0.037702 0.609719
0.194596 0.037005 0.609719
0.377178 0.060549 0.626387
0.635406 0.099710 0.655492
0.688774 0.108857 0.648313
0.681938 0.105382 0.624171
0.725834 0.212704 0.641731
0.748467 0.269546 0.632340
0.764465 0.313889 0.610477
0.198894 0.039574 0.610918
0.195573 0.037982 0.610696
0.264383 0.046763 0.616297
0.521253 0.076298 0.638567
0.691502 0.114761 0.670723
0.687013 0.110893 0.651021
0.682915 0.105686 0.628611
0.721544 0.197796 0.644078
0.744762 0.256952 0.638370
0.215707 0.041198 0.609856
0.209646 0.040329 0.613095
0.220398 0.041756 0.611809
0.387930 0.061640 0.626832
0.632084 0.098118 0.655270
0.691502 0.114761 0.670723
0.688966 0.112173 0.656434
0.684868 0.106967 0.634024
0.711396 0.177365 0.638836
0.360588 0.478138 0.704095
0.294902 0.250371 0.644305
0.236224 0.053400 0.613144
0.315798 0.050932 0.622739
0.536696 0.078283 0.639235
0.691502 0.114761 0.670723
0.691502 0.114761 0.670723
0.687596 0.112535 0.658164
0.695398 0.135375 0.648585
0.391535 0.853597 0.822664
0.405859 0.793963 0.809473
0.406934 0.685324 0.774969
0.422514 0.532034 0.735308
0.572373 0.411663 0.739336
0.727307 0.301844 0.744254
0.766628 0.271963 0.743587
0.769166 0.276902 0.745761
0.780481 0.303306 0.751449
0.345942 0.901284 0.825200
0.345942 0.901284 0.825200
0.362956 0.895565 0.827153
0.389964 0.860629 0.824839
0.565348 0.838632 0.863595
0.833984 0.815500 0.929160
0.963248 0.771225 0.955167
0.929550 0.631711 0.913863
0.915313 0.592054 0.898411
0.345942 0.901284 0.825200
0.345942 0.901284 0.825200
0.345942 0.901284 0.825200
0.345942 0.901284 0.825200
0.387380 0.910664 0.839539
0.668863 0.951557 0.918656
0.941194 0.953359 0.974644
0.980911 0.920795 0.978192
0.970208 0.863384 0.967794
0.345942 0.901284 0.825200
0.345942 0.901284 0.825200
0.345942 0.901284 0.825200
0.345942 0.901284 0.825200
0.352978 0.902121 0.828129
0.494496 0.930215 0.869110
0.832670 0.978822 0.956844
1.000000 1.000000 1.000000
0.996487 0.994083 0.996848
0.345942 0.901284 0.825200
0.345942 0.901284 0.825200
0.345942 0.901284 0.825200
0.345942 0.901284 0.825200
0.345942 0.901284 0.825200
0.406144 0.913570 0.843890
0.687819 0.959459 0.922477
0.951717 0.993770 0.987390
1.000000 1.000000 1.000000
