Sources/Resources/LUT/gfx-eterna-55-3d-lut-v100/33Grid/F-Log2C/FLog2C_to_PRO-Neg.Std_33grid_V.1.00.cube
#title:FLog2C_to_PRO-Neg.Std
#model:GFX ETERNA 55
#FUJIFILM Corporation
#Gamma:F-Log2C to PRO Neg.Std
#Gamut:F-GamutC to ITU-R BT.709
#Version:1.00
LUT_3D_SIZE 33
0.000000 0.000000 0.000000
0.000000 0.000000 0.000000
0.015050 0.003324 0.003375
0.046522 0.008601 0.013587
0.087767 0.013994 0.023264
0.143481 0.018380 0.043020
0.218935 0.027655 0.062911
0.325670 0.037885 0.090082
0.471506 0.045884 0.128973
0.638262 0.050728 0.180644
0.789756 0.066552 0.250067
0.918760 0.084836 0.348684
0.948440 0.112027 0.439215
0.956777 0.189469 0.464040
0.966102 0.257228 0.484735
0.966102 0.257228 0.484735
0.966102 0.257228 0.484735
0.966102 0.257228 0.484735
0.966102 0.257228 0.484735
0.966102 0.257228 0.484735
0.966102 0.257228 0.484735
0.966102 0.257228 0.484735
0.966102 0.257228 0.484735
0.966102 0.257228 0.484735
0.966102 0.257228 0.484735
0.966102 0.257228 0.484735
0.966102 0.257228 0.484735
0.966102 0.257228 0.484735
0.966102 0.257228 0.484735
0.966102 0.257228 0.484735
0.966102 0.257228 0.484735
0.966102 0.257228 0.484735
0.966102 0.257228 0.484735
0.000000 0.000000 0.000000
0.000000 0.000000 0.000000
0.003323 0.001592 0.000222
0.032446 0.006926 0.007727
0.067049 0.008800 0.018691
0.115917 0.018688 0.028062
0.183750 0.022796 0.051723
0.280709 0.033246 0.077696
0.407386 0.040351 0.111481
0.564950 0.049410 0.156984
0.726423 0.060023 0.218508
0.863641 0.076475 0.305012
0.944352 0.097170 0.406508
0.954854 0.154530 0.451961
0.965920 0.241238 0.481891
0.966102 0.257228 0.484735
0.966102 0.257228 0.484735
0.966102 0.257228 0.484735
0.966102 0.257228 0.484735
0.966102 0.257228 0.484735
0.966102 0.257228 0.484735
0.966102 0.257228 0.484735
0.966102 0.257228 0.484735
0.966102 0.257228 0.484735
0.966102 0.257228 0.484735
0.966102 0.257228 0.484735
0.966102 0.257228 0.484735
0.966102 0.257228 0.484735
0.966102 0.257228 0.484735
0.966102 0.257228 0.484735
0.966102 0.257228 0.484735
0.966102 0.257228 0.484735
0.966102 0.257228 0.484735
0.000000 0.000000 0.000000
0.000000 0.000000 0.000000
0.000000 0.000000 0.000000
0.018767 0.002906 0.004352
0.050236 0.008183 0.014563
0.095198 0.013158 0.025218
0.152472 0.022515 0.040981
0.236725 0.029920 0.064555
0.347567 0.037385 0.095187
0.493010 0.047396 0.133324
0.666411 0.055086 0.187173
0.808521 0.067105 0.266530
0.937133 0.087063 0.366126
0.951168 0.121964 0.440859
0.958720 0.202753 0.467637
0.966102 0.257228 0.484735
0.966102 0.257228 0.484735
0.966102 0.257228 0.484735
0.966102 0.257228 0.484735
0.966102 0.257228 0.484735
0.966102 0.257228 0.484735
0.966102 0.257228 0.484735
0.966102 0.257228 0.484735
0.966102 0.257228 0.484735
0.966102 0.257228 0.484735
0.966102 0.257228 0.484735
0.966102 0.257228 0.484735
0.966102 0.257228 0.484735
0.966102 0.257228 0.484735
0.966102 0.257228 0.484735
0.966102 0.257228 0.484735
0.966102 0.257228 0.484735
0.966102 0.257228 0.484735
0.003111 0.019929 0.000582
0.002337 0.012283 0.000000
0.000000 0.003684 0.000222
0.008014 0.002486 0.000445
0.037139 0.008158 0.006220
0.072324 0.012680 0.019137
0.123929 0.019494 0.037160
0.198408 0.027457 0.057804
0.298499 0.035175 0.081071
0.429867 0.042165 0.120270
0.593493 0.051423 0.165996
0.751640 0.060108 0.229027
0.883384 0.079013 0.317261
0.944150 0.100480 0.424257
0.957774 0.168792 0.456535
0.966887 0.252872 0.487972
0.966102 0.257228 0.484735
0.966102 0.257228 0.484735
0.966102 0.257228 0.484735
0.966102 0.257228 0.484735
0.966102 0.257228 0.484735
0.966102 0.257228 0.484735
0.966102 0.257228 0.484735
0.966102 0.257228 0.484735
0.966102 0.257228 0.484735
0.966102 0.257228 0.484735
0.966102 0.257228 0.484735
0.966102 0.257228 0.484735
0.966102 0.257228 0.484735
0.966102 0.257228 0.484735
0.966102 0.257228 0.484735
0.966102 0.257228 0.484735
0.966102 0.257228 0.484735
0.006021 0.046866 0.000000
0.004663 0.035896 0.000000
0.004280 0.026239 0.000000
0.003111 0.019929 0.000582
0.026186 0.014409 0.002757
0.059227 0.012654 0.010793
0.099889 0.013717 0.027171
0.161854 0.023631 0.044887
0.250215 0.028608 0.070190
0.368678 0.040234 0.102246
0.518229 0.047816 0.142113
0.689868 0.057205 0.200399
0.829241 0.070284 0.281488
0.942408 0.088256 0.380414
0.950373 0.136307 0.446187
0.961641 0.217014 0.472211
0.966102 0.257228 0.484735
0.966102 0.257228 0.484735
0.966102 0.257228 0.484735
0.966102 0.257228 0.484735
0.966102 0.257228 0.484735
0.966102 0.257228 0.484735
0.966102 0.257228 0.484735
0.966102 0.257228 0.484735
0.966102 0.257228 0.484735
0.966102 0.257228 0.484735
0.966102 0.257228 0.484735
0.966102 0.257228 0.484735
0.966102 0.257228 0.484735
0.966102 0.257228 0.484735
0.966102 0.257228 0.484735
0.966102 0.257228 0.484735
0.966102 0.257228 0.484735
0.012254 0.075395 0.000000
0.010502 0.066098 0.000460
0.007774 0.055825 0.000547
0.006021 0.046866 0.000000
0.009937 0.039777 0.000411
0.047087 0.037275 0.001524
0.082473 0.035800 0.010535
0.137018 0.034212 0.029844
0.214043 0.034439 0.057941
0.319025 0.034365 0.091368
0.452740 0.043315 0.122891
0.617735 0.051538 0.170347
0.774705 0.064237 0.241500
0.903709 0.083529 0.334926
0.946295 0.105413 0.436063
0.957764 0.179451 0.461641
0.966102 0.257228 0.484735
0.966102 0.257228 0.484735
0.966102 0.257228 0.484735
0.966102 0.257228 0.484735
0.966102 0.257228 0.484735
0.966102 0.257228 0.484735
0.966102 0.257228 0.484735
0.966102 0.257228 0.484735
0.966102 0.257228 0.484735
0.966102 0.257228 0.484735
0.966102 0.257228 0.484735
0.966102 0.257228 0.484735
0.966102 0.257228 0.484735
0.966102 0.257228 0.484735
0.966102 0.257228 0.484735
0.966102 0.257228 0.484735
0.966102 0.257228 0.484735
0.016131 0.114974 0.000000
0.015748 0.104980 0.000649
0.013805 0.091024 0.000511
0.012254 0.075395 0.000000
0.010502 0.066098 0.000460
0.031230 0.060634 0.000000
0.072677 0.060364 0.003973
0.118817 0.060653 0.009970
0.186066 0.062109 0.031675
0.282644 0.061558 0.063902
0.400723 0.063526 0.095289
0.551260 0.058400 0.146600
0.712347 0.058684 0.210917
0.848591 0.075168 0.291254
0.942791 0.094888 0.396658
0.953101 0.146244 0.447831
0.963192 0.231637 0.478516
0.966102 0.257228 0.484735
0.966102 0.257228 0.484735
0.966102 0.257228 0.484735
0.966102 0.257228 0.484735
0.966102 0.257228 0.484735
0.966102 0.257228 0.484735
0.966102 0.257228 0.484735
0.966102 0.257228 0.484735
0.966102 0.257228 0.484735
0.966102 0.257228 0.484735
0.966102 0.257228 0.484735
0.966102 0.257228 0.484735
0.966102 0.257228 0.484735
0.966102 0.257228 0.484735
0.966102 0.257228 0.484735
0.966102 0.257228 0.484735
0.020975 0.167197 0.000663
0.020400 0.152544 0.000527
0.016896 0.134624 0.000000
0.016322 0.119634 0.000785
0.015748 0.104980 0.000649
0.013412 0.093035 0.000000
0.056037 0.088079 0.000000
0.102568 0.087030 0.002429
0.165520 0.088270 0.010824
0.248605 0.090375 0.030491
0.360625 0.091809 0.063387
0.501578 0.093583 0.104316
0.659344 0.093955 0.159758
0.799703 0.096342 0.241911
0.929109 0.100277 0.344829
0.948630 0.117025 0.438684
0.959315 0.194745 0.464484
0.966102 0.257228 0.484735
0.966102 0.257228 0.484735
0.966102 0.257228 0.484735
0.966102 0.257228 0.484735
0.966102 0.257228 0.484735
0.966102 0.257228 0.484735
0.966102 0.257228 0.484735
0.966102 0.257228 0.484735
0.966102 0.257228 0.484735
0.966102 0.257228 0.484735
0.966102 0.257228 0.484735
0.966102 0.257228 0.484735
0.966102 0.257228 0.484735
0.966102 0.257228 0.484735
0.966102 0.257228 0.484735
0.966102 0.257228 0.484735
0.022477 0.241501 0.000000
0.022888 0.216156 0.000543
0.022123 0.196505 0.000938
0.021750 0.175181 0.000356
0.019615 0.156228 0.000749
0.018457 0.138587 0.000391
0.033911 0.129242 0.000000
0.084549 0.126772 0.000000
0.143010 0.121793 0.000047
0.222189 0.121672 0.007156
0.324434 0.126016 0.025008
0.452290 0.127091 0.061054
0.608292 0.131515 0.108820
0.751975 0.137175 0.182543
0.882750 0.143436 0.269887
0.949195 0.154772 0.379899
0.956586 0.190523 0.433421
0.966102 0.259580 0.472621
0.965709 0.259239 0.483981
0.966102 0.257228 0.484735
0.966102 0.257228 0.484735
0.966102 0.257228 0.484735
0.966102 0.257228 0.484735
0.966102 0.257228 0.484735
0.966102 0.257228 0.484735
0.966102 0.257228 0.484735
0.966102 0.257228 0.484735
0.966102 0.257228 0.484735
0.966102 0.257228 0.484735
0.966102 0.257228 0.484735
0.966102 0.257228 0.484735
0.966102 0.257228 0.484735
0.966102 0.257228 0.484735
0.023767 0.333805 0.000660
0.023203 0.307484 0.000609
0.023816 0.275804 0.000000
0.023645 0.247474 0.000062
0.024641 0.225115 0.001211
0.022315 0.201502 0.000405
0.020180 0.182885 0.000000
0.062221 0.174607 0.000000
0.123420 0.168232 0.000765
0.196932 0.167585 0.000000
0.293316 0.168422 0.000000
0.413551 0.169704 0.011762
0.558410 0.175384 0.056598
0.707175 0.181608 0.122644
0.836583 0.190248 0.201336
0.948581 0.201238 0.305007
0.955791 0.214275 0.390298
0.963756 0.266360 0.435305
0.967250 0.291577 0.459051
0.966867 0.279568 0.470496
0.969223 0.267172 0.476750
0.965316 0.261921 0.479765
0.966102 0.257228 0.484735
0.966102 0.257228 0.484735
0.966102 0.257228 0.484735
0.966102 0.257228 0.484735
0.966102 0.257228 0.484735
0.966102 0.257228 0.484735
0.966102 0.257228 0.484735
0.966102 0.257228 0.484735
0.966102 0.257228 0.484735
0.966102 0.257228 0.484735
0.966102 0.257228 0.484735
0.014870 0.451674 0.000000
0.017638 0.415277 0.000000
0.019429 0.377569 0.000847
0.021804 0.343183 0.000351
0.023002 0.314490 0.000000
0.023222 0.284149 0.000782
0.024611 0.260117 0.000952
0.026585 0.239408 0.000000
0.095212 0.232533 0.000645
0.171663 0.223820 0.000000
0.267073 0.223345 0.000000
0.377340 0.222205 0.000000
0.512042 0.226514 0.000605
0.657092 0.235508 0.053563
0.791582 0.245048 0.122848
0.916096 0.255767 0.220798
0.957715 0.262656 0.333157
0.961792 0.285147 0.386542
0.970745 0.325869 0.436074
0.968015 0.313916 0.444812
0.968610 0.303554 0.453774
0.966857 0.293251 0.460028
0.967451 0.283227 0.467257
0.967069 0.271889 0.475243
0.966293 0.262898 0.480742
0.966102 0.257228 0.484735
0.966102 0.257228 0.484735
0.966102 0.257228 0.484735
0.966102 0.257228 0.484735
0.966102 0.257228 0.484735
0.966102 0.257228 0.484735
0.966102 0.257228 0.484735
0.966102 0.257228 0.484735
0.013989 0.571695 0.000673
0.014018 0.536693 0.000929
0.014441 0.500017 0.000211
0.016230 0.462644 0.000000
0.015284 0.426330 0.000504
0.020789 0.388875 0.000000
0.022187 0.352840 0.001020
0.022599 0.327832 0.000215
0.056828 0.310397 0.000215
0.136018 0.299952 0.000489
0.235342 0.292725 0.000000
0.344241 0.291946 0.001000
0.473667 0.292710 0.000262
0.609345 0.298667 0.000000
0.747166 0.303509 0.041121
0.873049 0.315547 0.128688
0.958854 0.321443 0.241629
0.964311 0.326193 0.322790
0.969557 0.352977 0.385273
0.970331 0.355246 0.414382
0.970342 0.341899 0.423121
0.970352 0.328215 0.433590
0.967624 0.316599 0.440597
0.969193 0.306878 0.452264
0.967833 0.294564 0.459273
0.967451 0.283227 0.467257
0.967069 0.272561 0.471782
0.965900 0.264907 0.479988
0.966102 0.257228 0.484735
0.966102 0.257228 0.484735
0.966102 0.257228 0.484735
0.966102 0.257228 0.484735
0.966102 0.257228 0.484735
0.011345 0.694422 0.001012
0.012743 0.658723 0.001269
0.013556 0.620373 0.000000
0.012610 0.584059 0.000585
0.015770 0.545988 0.000000
0.016583 0.507303 0.000000
0.015244 0.472999 0.000160
0.016250 0.439309 0.000000
0.018031 0.413268 0.000591
0.090385 0.394643 0.000949
0.191278 0.380048 0.000000
0.305071 0.373493 0.000793
0.433328 0.368284 0.000000
0.569791 0.370221 0.000070
0.702540 0.372577 0.000000
0.830194 0.380994 0.032586
0.946694 0.387545 0.138742
0.963296 0.386672 0.245328
0.969145 0.391091 0.318590
0.973233 0.401580 0.373792
0.970896 0.386608 0.388477
0.972277 0.371891 0.400676
0.971308 0.357231 0.410169
0.969950 0.343908 0.422368
0.969567 0.332572 0.430351
0.968207 0.319921 0.439090
0.968217 0.306238 0.449559
0.970180 0.295515 0.456789
0.968035 0.286549 0.465749
0.967652 0.275212 0.473735
0.965900 0.264907 0.479988
0.966102 0.257228 0.484735
0.966102 0.257228 0.484735
0.006554 0.810200 0.000000
0.006776 0.780195 0.000000
0.008567 0.742486 0.000669
0.008988 0.705810 0.000000
0.012541 0.665729 0.000000
0.012569 0.630728 0.000241
0.013385 0.592043 0.000278
0.012046 0.557738 0.000536
0.015397 0.524664 0.000000
0.014441 0.500017 0.000211
0.135670 0.481631 0.000000
0.259830 0.466511 0.000278
0.390242 0.456584 0.000602
0.526907 0.451851 0.000618
0.664155 0.450440 0.000000
0.788688 0.456644 0.000339
0.906767 0.461300 0.017883
0.965400 0.460790 0.140848
0.969307 0.447894 0.231278
0.971049 0.452725 0.313191
0.973012 0.437297 0.344648
0.972438 0.419955 0.358356
0.972840 0.403590 0.373040
0.971873 0.387921 0.387722
0.971490 0.376584 0.395708
0.970917 0.359578 0.407683
0.970927 0.345557 0.419884
0.969173 0.334581 0.429598
0.969183 0.320897 0.440066
0.968800 0.309224 0.449781
0.969787 0.297862 0.454306
0.967642 0.289231 0.461536
0.966284 0.276581 0.470274
0.000000 0.908698 0.000219
0.000043 0.881680 0.000168
0.001633 0.850978 0.000000
0.004593 0.819577 0.000000
0.007944 0.786167 0.000101
0.009342 0.750468 0.000359
0.010741 0.714770 0.000618
0.012140 0.679071 0.000874
0.012168 0.644069 0.001132
0.012388 0.614064 0.000860
0.057963 0.589375 0.000000
0.199137 0.568874 0.000738
0.336786 0.553785 0.000086
0.479321 0.544589 0.000000
0.618723 0.538461 0.000000
0.750887 0.537493 0.000132
0.866430 0.540235 0.000000
0.961838 0.539087 0.004020
0.966721 0.522462 0.119653
0.971210 0.510535 0.220688
0.973365 0.493046 0.287952
0.972791 0.474696 0.306851
0.973586 0.455984 0.324020
0.972620 0.439980 0.340435
0.973021 0.423614 0.355117
0.972055 0.408282 0.368071
0.971088 0.392613 0.382754
0.971490 0.376584 0.395708
0.971500 0.362900 0.406176
0.969165 0.348601 0.417397
0.970150 0.335894 0.428844
0.968792 0.322907 0.439313
0.968409 0.311571 0.447297
0.000000 0.985372 0.000148
0.000559 0.966001 0.001520
0.000000 0.941689 0.000715
0.000000 0.915368 0.000664
0.001211 0.887653 0.000613
0.001432 0.857647 0.000339
0.002630 0.828956 0.000000
0.005588 0.797220 0.000771
0.006986 0.761857 0.000000
0.008577 0.730819 0.000754
0.008405 0.702823 0.000000
0.106178 0.679629 0.000000
0.266509 0.661030 0.000546
0.421366 0.645557 0.000000
0.571328 0.635523 0.000577
0.707802 0.626130 0.000000
0.826868 0.623792 0.000000
0.930491 0.619133 0.000000
0.965494 0.609680 0.000000
0.969802 0.582098 0.095749
0.974304 0.555480 0.212445
0.973729 0.535113 0.241727
0.972177 0.515113 0.263109
0.973949 0.496705 0.284715
0.972982 0.480365 0.302860
0.974170 0.459642 0.320781
0.971441 0.446010 0.338172
0.973606 0.426600 0.355339
0.971662 0.410291 0.367316
0.970696 0.394287 0.383731
0.972075 0.379570 0.395930
0.972085 0.366558 0.402938
0.969748 0.351587 0.417621
0.000000 1.000000 0.000285
0.000000 1.000000 0.000285
0.000000 1.000000 0.000285
0.000000 0.990369 0.000000
0.000000 0.971696 0.000989
0.000000 0.948361 0.001160
0.000206 0.921678 0.000000
0.000034 0.893346 0.000083
0.002207 0.865631 0.000032
0.003405 0.836939 0.000000
0.006554 0.810200 0.000000
0.007359 0.783181 0.000000
0.166322 0.765616 0.000000
0.343466 0.748305 0.000355
0.509075 0.733923 0.000000
0.658846 0.719230 0.000000
0.785937 0.707711 0.000000
0.894251 0.703945 0.000590
0.960141 0.698802 0.000000
0.965053 0.669692 0.000000
0.969764 0.632800 0.074640
0.972905 0.602268 0.155081
0.972724 0.579555 0.186848
0.974887 0.558802 0.210937
0.974314 0.538771 0.238488
0.975107 0.519052 0.260848
0.972187 0.500085 0.280500
0.972982 0.481037 0.299399
0.973385 0.463662 0.319273
0.971441 0.446682 0.334711
0.973213 0.429619 0.349395
0.972246 0.413614 0.365808
0.971280 0.397946 0.380492
0.000000 1.000000 0.000285
0.000000 1.000000 0.000285
0.000000 1.000000 0.000285
0.000000 1.000000 0.000285
0.000000 1.000000 0.000285
0.000000 1.000000 0.000285
0.000000 0.998016 0.001040
0.000000 0.975715 0.000000
0.000569 0.954670 0.000000
0.000000 0.927036 0.000577
0.000000 0.902028 0.000000
0.000436 0.879670 0.000922
0.014338 0.854358 0.000563
0.235860 0.841387 0.000321
0.426102 0.826120 0.000000
0.594448 0.810343 0.000000
0.734836 0.793525 0.000281
0.851960 0.777231 0.000000
0.953438 0.765621 0.000000
0.959901 0.752141 0.000000
0.963837 0.722053 0.000000
0.970127 0.670833 0.049180
0.971899 0.649401 0.086359
0.972110 0.625349 0.115417
0.973489 0.606264 0.150114
0.973307 0.583551 0.181878
0.974102 0.562486 0.211161
0.973920 0.542125 0.230812
0.972954 0.524777 0.254148
0.972772 0.503743 0.277261
0.973567 0.484359 0.297891
0.972992 0.466681 0.313329
0.971049 0.449364 0.330496
0.000000 1.000000 0.000285
0.000000 1.000000 0.000285
0.000000 1.000000 0.000285
0.000000 1.000000 0.000285
0.000000 1.000000 0.000285
0.000000 1.000000 0.000285
0.000000 1.000000 0.000285
0.000000 1.000000 0.000285
0.000000 1.000000 0.000285
0.000000 1.000000 0.000285
0.000000 0.981688 0.000000
0.000000 0.963014 0.001298
0.000000 0.940016 0.000000
0.076064 0.920974 0.001074
0.310490 0.905049 0.000000
0.508948 0.885261 0.000454
0.674756 0.864208 0.000000
0.805762 0.845601 0.000125
0.912716 0.831202 0.000000
0.959258 0.819157 0.000000
0.961432 0.791442 0.000000
0.964783 0.758032 0.000000
0.967552 0.721636 0.000000
0.967571 0.697629 0.003571
0.969342 0.676197 0.040749
0.970137 0.653116 0.080413
0.972301 0.630682 0.113157
0.973097 0.608945 0.145898
0.973892 0.587881 0.175180
0.973708 0.566176 0.201753
0.974503 0.545112 0.231035
0.972560 0.527458 0.249934
0.973355 0.508075 0.270562
0.000000 1.000000 0.000285
0.000000 1.000000 0.000285
0.000000 1.000000 0.000285
0.000000 1.000000 0.000285
0.000000 1.000000 0.000285
0.000000 1.000000 0.000285
0.000000 1.000000 0.000285
0.000000 1.000000 0.000285
0.000000 1.000000 0.000285
0.000000 1.000000 0.000285
0.000000 1.000000 0.000285
0.000000 1.000000 0.000285
0.000000 1.000000 0.000285
0.000000 0.990369 0.000000
0.139558 0.973550 0.000695
0.394715 0.951826 0.000145
0.593172 0.932373 0.000000
0.748229 0.909894 0.000000
0.867698 0.893879 0.000277
0.957840 0.878191 0.000000
0.959229 0.854160 0.000000
0.959651 0.817148 0.000005
0.961240 0.786445 0.000000
0.966335 0.773662 0.000793
0.966353 0.750664 0.000000
0.967743 0.726631 0.000000
0.967762 0.703297 0.000000
0.969926 0.680191 0.035780
0.968376 0.657168 0.072738
0.971909 0.633701 0.107210
0.972310 0.613974 0.139198
0.973499 0.590900 0.169234
0.974294 0.569835 0.198517
0.000000 1.000000 0.000285
0.000000 1.000000 0.000285
0.000000 1.000000 0.000285
0.000000 1.000000 0.000285
0.000000 1.000000 0.000285
0.000000 1.000000 0.000285
0.000000 1.000000 0.000285
0.000000 1.000000 0.000285
0.000000 1.000000 0.000285
0.000000 1.000000 0.000285
0.000000 1.000000 0.000285
0.000000 1.000000 0.000285
0.000000 1.000000 0.000285
0.000000 1.000000 0.000285
0.000000 1.000000 0.000285
0.219696 0.999421 0.000000
0.477964 0.997626 0.000000
0.674275 0.970887 0.000000
0.812712 0.952115 0.000000
0.920845 0.931686 0.000294
0.957620 0.908196 0.000000
0.959210 0.877157 0.000552
0.960024 0.838808 0.000000
0.959258 0.819157 0.000000
0.960446 0.801797 0.000000
0.960849 0.788455 0.000000
0.965550 0.777682 0.000000
0.965568 0.754348 0.000000
0.966565 0.732326 0.000000
0.969323 0.707597 0.000000
0.969142 0.685220 0.029082
0.969935 0.662139 0.068745
0.969754 0.639426 0.100512
0.000000 1.000000 0.000285
0.000000 1.000000 0.000285
0.000000 1.000000 0.000285
0.000000 1.000000 0.000285
0.000000 1.000000 0.000285
0.000000 1.000000 0.000285
0.000000 1.000000 0.000285
0.000000 1.000000 0.000285
0.000000 1.000000 0.000285
0.000000 1.000000 0.000285
0.000000 1.000000 0.000285
0.000000 1.000000 0.000285
0.000000 1.000000 0.000285
0.000000 1.000000 0.000285
0.000000 1.000000 0.000285
0.000000 1.000000 0.000285
0.295553 0.999052 0.000000
0.552059 0.999964 0.000000
0.734077 1.000000 0.000243
0.857461 0.977444 0.000000
0.955818 0.957236 0.000000
0.955255 0.930915 0.000000
0.956260 0.897226 0.000000
0.956481 0.867222 0.000000
0.958252 0.852846 0.000000
0.959047 0.837495 0.000000
0.959842 0.822144 0.000000
0.961031 0.804783 0.000090
0.960456 0.790130 0.000000
0.963787 0.780054 0.000263
0.965760 0.759345 0.000000
0.966757 0.736987 0.000074
0.969514 0.712258 0.000246
0.000000 1.000000 0.000285
0.000000 1.000000 0.000285
0.000000 1.000000 0.000285
0.000000 1.000000 0.000285
0.000000 1.000000 0.000285
0.000000 1.000000 0.000285
0.000000 1.000000 0.000285
0.000000 1.000000 0.000285
0.000000 1.000000 0.000285
0.000000 1.000000 0.000285
0.000000 1.000000 0.000285
0.000000 1.000000 0.000285
0.000000 1.000000 0.000285
0.000000 1.000000 0.000285
0.000000 1.000000 0.000285
0.000000 1.000000 0.000285
0.075411 0.999657 0.000250
0.382163 0.999774 0.000332
0.614427 0.999563 0.000450
0.778262 0.999555 0.000000
0.895567 0.999589 0.000000
0.955608 0.975574 0.000085
0.955828 0.945569 0.000000
0.956835 0.911880 0.000000
0.956260 0.897226 0.000000
0.956662 0.883550 0.000019
0.958434 0.869511 0.000000
0.958837 0.855834 0.000000
0.958655 0.839505 0.000000
0.959057 0.825828 0.000000
0.962590 0.809082 0.000000
0.961041 0.793116 0.000176
0.964372 0.783040 0.000484
0.000000 1.000000 0.000285
0.000000 1.000000 0.000285
0.000000 1.000000 0.000285
0.000000 1.000000 0.000285
0.000000 1.000000 0.000285
0.000000 1.000000 0.000285
0.000000 1.000000 0.000285
0.000000 1.000000 0.000285
0.000000 1.000000 0.000285
0.000000 1.000000 0.000285
0.000000 1.000000 0.000285
0.000000 1.000000 0.000285
0.000000 1.000000 0.000285
0.000000 1.000000 0.000285
0.000000 1.000000 0.000285
0.000000 1.000000 0.000285
0.000000 1.000000 0.000285
0.181571 1.000000 0.001329
0.461734 0.999323 0.000000
0.671709 1.000000 0.000723
0.819709 0.999958 0.000000
0.928607 0.999516 0.000000
0.954813 0.990926 0.000223
0.955033 0.960920 0.000000
0.955054 0.937586 0.000121
0.957802 0.924524 0.000208
0.956442 0.913554 0.000294
0.956845 0.900212 0.000000
0.958615 0.885839 0.000243
0.959018 0.872497 0.000000
0.957075 0.858540 0.000000
0.959239 0.842492 0.000000
0.958665 0.827838 0.000000
0.000000 1.000000 0.000285
0.000000 1.000000 0.000285
0.000000 1.000000 0.000285
0.000000 1.000000 0.000285
0.000000 1.000000 0.000285
0.000000 1.000000 0.000285
0.000000 1.000000 0.000285
0.000000 1.000000 0.000285
0.000000 1.000000 0.000285
0.000000 1.000000 0.000285
0.000000 1.000000 0.000285
0.000000 1.000000 0.000285
0.000000 1.000000 0.000285
0.000000 1.000000 0.000285
0.000000 1.000000 0.000285
0.000000 1.000000 0.000285
0.000000 1.000000 0.000285
0.000000 1.000000 0.000285
0.270919 0.999938 0.000008
0.526449 0.999537 0.000039
0.721955 0.999817 0.000000
0.854120 0.999187 0.000000
0.950505 0.999688 0.000668
0.952850 1.000000 0.000000
0.955608 0.975574 0.000085
0.954249 0.964605 0.000172
0.955628 0.952240 0.000257
0.954269 0.941270 0.000345
0.955647 0.928906 0.000430
0.957027 0.916541 0.000515
0.956058 0.903897 0.000000
0.957830 0.889523 0.000465
0.958233 0.876180 0.000000
0.000000 1.000000 0.000285
0.000000 1.000000 0.000285
0.000000 1.000000 0.000285
0.000000 1.000000 0.000285
0.000000 1.000000 0.000285
0.000000 1.000000 0.000285
0.000000 1.000000 0.000285
0.000000 1.000000 0.000285
0.000000 1.000000 0.000285
0.000000 1.000000 0.000285
0.000000 1.000000 0.000285
0.000000 1.000000 0.000285
0.000000 1.000000 0.000285
0.000000 1.000000 0.000285
0.000000 1.000000 0.000285
0.000000 1.000000 0.000285
0.000000 1.000000 0.000285
0.000000 1.000000 0.000285
0.052145 0.999846 0.000335
0.349121 0.999848 0.000950
0.586469 0.998857 0.000312
0.759687 1.000000 0.001133
0.884424 1.000000 0.000172
0.950505 0.999688 0.000668
0.951874 0.999327 0.000000
0.954219 0.999606 0.000000
0.953836 0.989949 0.000000
0.953846 0.978281 0.000000
0.953856 0.966614 0.000000
0.955235 0.954249 0.000000
0.955245 0.942582 0.000000
0.955255 0.930915 0.000000
0.955657 0.917574 0.000000
0.000000 1.000000 0.000285
0.000000 1.000000 0.000285
0.000000 1.000000 0.000285
0.000000 1.000000 0.000285
0.000000 1.000000 0.000285
0.000000 1.000000 0.000285
0.000000 1.000000 0.000285
0.000000 1.000000 0.000285
0.000000 1.000000 0.000285
0.000000 1.000000 0.000285
0.000000 1.000000 0.000285
0.000000 1.000000 0.000285
0.000000 1.000000 0.000285
0.000000 1.000000 0.000285
0.000000 1.000000 0.000285
0.000000 1.000000 0.000285
0.000000 1.000000 0.000285
0.000000 1.000000 0.000285
0.000000 1.000000 0.000285
0.159675 1.000000 0.000000
0.424978 0.999815 0.000000
0.642384 1.000000 0.000586
0.797813 0.999448 0.000000
0.911402 0.999901 0.000000
