Sources/Resources/LUT/gfx-eterna-55-3d-lut-v100/33Grid/F-Log2C/FLog2C_to_FLog2C-709_33grid_V.1.00.cube
#title:FLog2C_to_FLog2C-709
#FUJIFILM Corporation
#Gamma:F-Log2C to F-Log2C
#Gamut:F-GamutC to ITU-R BT.709
#Version:1.00
LUT_3D_SIZE 5
0.000000 0.000000 0.000000
0.392161 0.000000 0.000000
0.742771 0.000000 0.000000
1.000000 0.000000 0.000000
1.000000 0.000000 0.000000
0.000000 0.302749 0.000000
0.259785 0.270567 0.000000
0.682662 0.178220 0.000000
1.000000 0.000000 0.000000
1.000000 0.000000 0.000000
0.000000 0.591117 0.000000
0.000000 0.575079 0.000000
0.514749 0.536013 0.000000
0.959381 0.463121 0.000000
1.000000 0.332606 0.000000
0.000000 0.879432 0.000000
0.000000 0.869044 0.000000
0.000000 0.844443 0.000000
0.769703 0.801433 0.000000
1.000000 0.735308 0.000000
0.000000 1.000000 0.000000
0.000000 1.000000 0.000000
0.000000 1.000000 0.000000
0.330325 1.000000 0.000000
1.000000 1.000000 0.000000
0.000000 0.000000 0.276216
0.387517 0.000000 0.274154
0.740376 0.000000 0.269322
1.000000 0.000000 0.261060
1.000000 0.000000 0.248852
0.000000 0.283293 0.253859
0.250015 0.250015 0.250015
0.680039 0.146291 0.246415
1.000000 0.000000 0.237460
1.000000 0.000000 0.224151
0.000000 0.581280 0.193724
0.000000 0.564951 0.190924
0.511220 0.525104 0.184308
0.957572 0.450418 0.172796
1.000000 0.314862 0.155254
0.000000 0.873041 0.033052
0.000000 0.862569 0.028020
0.000000 0.837759 0.016366
0.767399 0.794354 0.000000
1.000000 0.727531 0.000000
0.000000 1.000000 0.000000
0.000000 1.000000 0.000000
0.000000 1.000000 0.000000
0.324841 1.000000 0.000000
1.000000 1.000000 0.000000
0.000000 0.000000 0.543963
0.376548 0.000000 0.542897
0.734797 0.000000 0.540420
1.000000 0.000000 0.536249
1.000000 0.000000 0.530239
0.000000 0.232799 0.532682
0.236390 0.190930 0.531593
0.673923 0.044629 0.529061
1.000000 0.000000 0.524797
1.000000 0.000000 0.518650
0.000000 0.557805 0.505473
0.000000 0.540739 0.504323
0.500031 0.500031 0.500031
0.953367 0.419526 0.497146
1.000000 0.269707 0.490644
0.000000 0.858040 0.456189
0.000000 0.847364 0.454913
0.000000 0.822052 0.451945
0.762033 0.777691 0.446934
1.000000 0.709166 0.439684
0.000000 1.000000 0.374239
0.000000 1.000000 0.372687
0.000000 1.000000 0.369070
0.311794 1.000000 0.362940
1.000000 1.000000 0.354015
0.000000 0.000000 0.811708
0.357476 0.000000 0.811012
0.725362 0.000000 0.809397
1.000000 0.000000 0.806687
1.000000 0.000000 0.802802
0.000000 0.116003 0.804378
0.206246 0.038694 0.803675
0.663559 0.000000 0.802044
1.000000 0.000000 0.799307
1.000000 0.000000 0.795383
0.000000 0.516065 0.787062
0.000000 0.497527 0.786342
0.488794 0.451623 0.784671
0.946288 0.362114 0.781868
1.000000 0.173440 0.777848
0.000000 0.832284 0.757084
0.000000 0.821242 0.756333
0.000000 0.795020 0.754591
0.750046 0.750046 0.750046
1.000000 0.677252 0.747470
0.000000 1.000000 0.711639
0.000000 1.000000 0.710836
0.000000 1.000000 0.708973
0.288759 1.000000 0.705844
1.000000 1.000000 0.701353
0.000000 0.000000 1.000000
0.328467 0.000000 1.000000
0.711676 0.000000 1.000000
1.000000 0.000000 1.000000
1.000000 0.000000 1.000000
0.000000 0.000000 1.000000
0.155590 0.000000 1.000000
0.648477 0.000000 1.000000
1.000000 0.000000 1.000000
1.000000 0.000000 1.000000
0.000000 0.449742 1.000000
0.000000 0.428312 1.000000
0.467862 0.374056 1.000000
0.936091 0.260549 1.000000
1.000000 0.000000 1.000000
0.000000 0.793981 1.000000
0.000000 0.782349 1.000000
0.000000 0.754657 1.000000
0.739830 0.705699 1.000000
1.000000 0.628762 1.000000
0.000000 1.000000 1.000000
0.000000 1.000000 1.000000
0.000000 1.000000 1.000000
0.252687 1.000000 1.000000
1.000000 1.000000 1.000000
