Sources/Resources/LUT/gfx-eterna-55-3d-lut-v100/33Grid/F-Log2C/FLog2C_to_CLASSIC-Neg._33grid_V.1.00.cube
#title:FLog2C_to_CLASSIC-Neg.
#model:GFX ETERNA 55
#FUJIFILM Corporation
#Gamma:F-Log2C to CLASSIC Neg.
#Gamut:F-GamutC to ITU-R BT.709
#Version:1.00
LUT_3D_SIZE 5
0.000000 0.000000 0.000000
0.554813 0.046885 0.000000
0.951060 0.281893 0.277250
0.951060 0.281893 0.277250
0.951060 0.281893 0.277250
0.005110 0.195838 0.031863
0.103536 0.100009 0.001590
0.945843 0.223469 0.197718
0.951060 0.281893 0.277250
0.951060 0.281893 0.277250
0.030076 0.940424 0.158598
0.024717 0.807911 0.135401
0.844980 0.705381 0.002492
0.956314 0.557532 0.223359
0.952715 0.411223 0.258023
0.030267 0.945420 0.158066
0.030267 0.945420 0.158066
0.029291 0.944444 0.157090
0.943094 0.970469 0.033497
0.956260 0.891849 0.026868
0.034547 0.945446 0.292339
0.030267 0.945420 0.158066
0.030267 0.945420 0.158066
0.363014 0.964022 0.114715
0.933883 0.995666 0.039270
0.014255 0.005232 0.072731
0.428134 0.033396 0.000000
0.951060 0.281893 0.277250
0.951060 0.281893 0.277250
0.951060 0.281893 0.277250
0.019661 0.273387 0.322528
0.107997 0.121739 0.109290
0.946045 0.213773 0.212848
0.951060 0.281893 0.277250
0.951060 0.281893 0.277250
0.048763 0.943576 0.641602
0.035008 0.850003 0.354261
0.801713 0.746099 0.163305
0.960170 0.604988 0.302976
0.953863 0.441875 0.251374
0.050907 0.943131 0.681093
0.030852 0.946390 0.168671
0.030267 0.945420 0.158066
0.939168 0.988552 0.036340
0.954872 0.911512 0.049191
0.063564 0.943011 0.999738
0.053042 0.943264 0.777606
0.035523 0.945077 0.300238
0.161646 0.951834 0.140246
0.933883 0.995666 0.039270
0.148639 0.069175 0.521774
0.501799 0.037365 0.239020
0.958633 0.316833 0.420140
0.951836 0.285844 0.297707
0.951060 0.281893 0.277250
0.340855 0.420245 0.916891
0.274243 0.176853 0.631595
0.959295 0.201612 0.549104
0.958633 0.313472 0.437445
0.952803 0.293448 0.324555
0.065346 0.916969 1.000000
0.061085 0.867733 0.999808
0.843215 0.793853 0.785121
0.976665 0.682378 0.666458
0.966663 0.518866 0.498109
0.067279 0.942593 1.000000
0.062194 0.943708 0.999738
0.053436 0.941927 0.774898
0.967420 0.988648 0.629922
0.978442 0.916858 0.550923
0.067279 0.942593 1.000000
0.067279 0.942593 1.000000
0.063564 0.943011 0.999738
0.331033 0.958604 0.834707
0.951231 0.994088 0.370249
0.652014 0.293582 0.924309
0.792308 0.180637 0.795263
0.964712 0.251686 0.636844
0.960394 0.294633 0.521262
0.958633 0.316833 0.420140
0.681339 0.294599 0.919253
0.729240 0.294533 0.913890
0.968467 0.167631 0.828517
0.964914 0.239975 0.662355
0.962156 0.287221 0.546242
0.169782 0.873624 1.000000
0.458250 0.763485 1.000000
0.893069 0.759108 0.970332
0.982724 0.647624 0.846649
0.975019 0.530964 0.739414
0.067279 0.942593 1.000000
0.067279 0.942593 1.000000
0.067279 0.942593 1.000000
0.976764 0.971236 0.969195
0.991682 0.913339 0.902668
0.067279 0.942593 1.000000
0.067279 0.942593 1.000000
0.067279 0.942593 1.000000
0.412529 0.963180 1.000000
0.991019 0.995960 0.941559
0.654752 0.292187 0.924309
0.818981 0.294203 0.902941
0.968878 0.143967 0.820789
0.965729 0.186502 0.738531
0.964712 0.251350 0.638574
0.680363 0.293623 0.918277
0.686424 0.293820 0.918501
0.960164 0.267074 0.877926
0.968477 0.155292 0.832063
0.966916 0.165780 0.756452
0.067128 0.891264 0.999859
0.423628 0.782930 0.999566
0.850982 0.591751 0.948766
0.978440 0.385974 0.894508
0.975339 0.358410 0.873246
0.067279 0.942593 1.000000
0.067279 0.942593 1.000000
0.067279 0.942593 1.000000
0.957223 0.954298 0.996301
0.992697 0.854204 0.973208
0.067279 0.942593 1.000000
0.067279 0.942593 1.000000
0.067279 0.942593 1.000000
0.283305 0.955747 1.000000
1.000000 1.000000 1.000000
