Sources/Resources/LUT/gfx-eterna-55-3d-lut-v100/33Grid/F-Log2C/FLog2C_to_PRO-Neg.Std_33grid_V.1.00.cube
#title:FLog2C_to_PRO-Neg.Std
#model:GFX ETERNA 55
#FUJIFILM Corporation
#Gamma:F-Log2C to PRO Neg.Std
#Gamut:F-GamutC to ITU-R BT.709
#Version:1.00
LUT_3D_SIZE 9
0.000000 0.000000 0.000000
0.087767 0.013994 0.023264
0.471506 0.045884 0.128973
0.948440 0.112027 0.439215
0.966102 0.257228 0.484735
0.966102 0.257228 0.484735
0.966102 0.257228 0.484735
0.966102 0.257228 0.484735
0.966102 0.257228 0.484735
0.006021 0.046866 0.000000
0.026186 0.014409 0.002757
0.250215 0.028608 0.070190
0.829241 0.070284 0.281488
0.966102 0.257228 0.484735
0.966102 0.257228 0.484735
0.966102 0.257228 0.484735
0.966102 0.257228 0.484735
0.966102 0.257228 0.484735
0.022477 0.241501 0.000000
0.019615 0.156228 0.000749
0.143010 0.121793 0.000047
0.608292 0.131515 0.108820
0.956586 0.190523 0.433421
0.966102 0.257228 0.484735
0.966102 0.257228 0.484735
0.966102 0.257228 0.484735
0.966102 0.257228 0.484735
0.011345 0.694422 0.001012
0.015770 0.545988 0.000000
0.018031 0.413268 0.000591
0.433328 0.368284 0.000000
0.946694 0.387545 0.138742
0.970896 0.386608 0.388477
0.969567 0.332572 0.430351
0.968035 0.286549 0.465749
0.966102 0.257228 0.484735
0.000000 1.000000 0.000285
0.000000 0.971696 0.000989
0.002207 0.865631 0.000032
0.166322 0.765616 0.000000
0.785937 0.707711 0.000000
0.969764 0.632800 0.074640
0.974314 0.538771 0.238488
0.973385 0.463662 0.319273
0.971280 0.397946 0.380492
0.000000 1.000000 0.000285
0.000000 1.000000 0.000285
0.000000 1.000000 0.000285
0.000000 1.000000 0.000285
0.477964 0.997626 0.000000
0.957620 0.908196 0.000000
0.960446 0.801797 0.000000
0.966565 0.732326 0.000000
0.969754 0.639426 0.100512
0.000000 1.000000 0.000285
0.000000 1.000000 0.000285
0.000000 1.000000 0.000285
0.000000 1.000000 0.000285
0.000000 1.000000 0.000285
0.721955 0.999817 0.000000
0.955608 0.975574 0.000085
0.955647 0.928906 0.000430
0.958233 0.876180 0.000000
0.000000 1.000000 0.000285
0.000000 1.000000 0.000285
0.000000 1.000000 0.000285
0.000000 1.000000 0.000285
0.000000 1.000000 0.000285
0.137779 0.999592 0.000000
0.862526 0.999664 0.000257
0.950505 0.999688 0.000668
0.950505 1.000000 0.000000
0.000000 1.000000 0.000285
0.000000 1.000000 0.000285
0.000000 1.000000 0.000285
0.000000 1.000000 0.000285
0.000000 1.000000 0.000285
0.000000 1.000000 0.000285
0.635346 0.999095 0.000000
0.950505 0.999688 0.000668
0.950505 0.999688 0.000668
0.000583 0.000970 0.010606
0.072324 0.012680 0.019137
0.424783 0.043954 0.115833
0.944150 0.100816 0.422527
0.966102 0.257228 0.484735
0.966102 0.257228 0.484735
0.966102 0.257228 0.484735
0.966102 0.257228 0.484735
0.966102 0.257228 0.484735
0.011095 0.048344 0.047491
0.020508 0.020508 0.020508
0.221674 0.026260 0.062911
0.790733 0.066521 0.256234
0.966102 0.257228 0.484735
0.966102 0.257228 0.484735
0.966102 0.257228 0.484735
0.966102 0.257228 0.484735
0.966102 0.257228 0.484735
0.028307 0.276312 0.036367
0.023511 0.171465 0.006301
0.128533 0.132451 0.000269
0.563715 0.138887 0.084988
0.955228 0.182913 0.416203
0.966102 0.257228 0.484735
0.966102 0.257228 0.484735
0.966102 0.257228 0.484735
0.966102 0.257228 0.484735
0.009744 0.737128 0.000000
0.013586 0.585371 0.000000
0.016250 0.439309 0.000000
0.400862 0.383012 0.000364
0.915213 0.400992 0.092105
0.972256 0.399930 0.376278
0.969950 0.343908 0.422368
0.966465 0.295933 0.455812
0.966102 0.257228 0.484735
0.000000 1.000000 0.000285
0.000000 0.988359 0.000372
0.000235 0.886677 0.000000
0.111174 0.783518 0.000000
0.752684 0.726122 0.000710
0.967208 0.658925 0.032493
0.974887 0.557794 0.216129
0.972982 0.480701 0.301128
0.973615 0.412916 0.365808
0.000000 1.000000 0.000285
0.000000 1.000000 0.000285
0.000000 1.000000 0.000285
0.000000 1.000000 0.000285
0.401714 0.999667 0.000999
0.956825 0.923547 0.000000
0.959651 0.817148 0.000005
0.967330 0.751641 0.000212
0.969935 0.661803 0.070477
0.000000 1.000000 0.000285
0.000000 1.000000 0.000285
0.000000 1.000000 0.000285
0.000000 1.000000 0.000285
0.000000 1.000000 0.000285
0.660957 0.999186 0.000277
0.952859 0.988636 0.000000
0.954660 0.939596 0.000000
0.956853 0.888546 0.000000
0.000000 1.000000 0.000285
0.000000 1.000000 0.000285
0.000000 1.000000 0.000285
0.000000 1.000000 0.000285
0.000000 1.000000 0.000285
0.061921 0.999961 0.000000
0.821078 0.999261 0.000000
0.950505 0.999688 0.000668
0.950505 0.999688 0.000668
0.001458 0.999486 0.315024
0.000000 1.000000 0.000285
0.000000 1.000000 0.000285
0.000000 1.000000 0.000285
0.000000 1.000000 0.000285
0.000000 1.000000 0.000285
0.587445 1.000000 0.000000
0.950505 0.999688 0.000668
0.950505 0.999688 0.000668
0.008196 0.001002 0.093274
0.070170 0.007652 0.067812
0.387837 0.038105 0.122925
0.942600 0.091236 0.390265
0.966102 0.257228 0.484735
0.966102 0.257228 0.484735
0.966102 0.257228 0.484735
0.966102 0.257228 0.484735
0.966102 0.257228 0.484735
0.019483 0.047621 0.174843
0.019521 0.014059 0.107698
0.215805 0.017954 0.129645
0.754963 0.053634 0.270781
0.965911 0.252232 0.485267
0.966102 0.257228 0.484735
0.966102 0.257228 0.484735
0.966102 0.257228 0.484735
0.966102 0.257228 0.484735
0.034098 0.313432 0.301196
0.032845 0.197647 0.181093
0.140625 0.140625 0.140625
0.555682 0.136881 0.202043
0.956596 0.173814 0.459465
0.966102 0.257228 0.484735
0.966102 0.257228 0.484735
0.966102 0.257228 0.484735
0.966102 0.257228 0.484735
0.021606 0.752022 0.319981
0.025257 0.619131 0.198011
0.023238 0.479328 0.100801
0.400631 0.403511 0.109571
0.902479 0.400351 0.257305
0.976143 0.416082 0.437118
0.970331 0.355246 0.414382
0.969193 0.306878 0.452264
0.965900 0.264907 0.479988
0.000000 0.999163 0.124707
0.000530 0.998650 0.013375
0.004715 0.905908 0.000219
0.059932 0.806335 0.000000
0.729408 0.737978 0.000710
0.978312 0.665018 0.237542
0.978381 0.570576 0.303903
0.974534 0.495996 0.303973
0.973606 0.426600 0.355339
0.000000 1.000000 0.000285
0.000000 1.000000 0.000285
0.000000 1.000000 0.000285
0.000000 1.000000 0.000285
0.319795 0.999839 0.000812
0.952517 0.932310 0.000000
0.968823 0.832905 0.023305
0.971228 0.758476 0.049023
0.972071 0.678403 0.082196
0.000000 0.999404 0.183457
0.000000 1.000000 0.000285
0.000000 1.000000 0.000285
0.000000 1.000000 0.000285
0.000000 1.000000 0.000285
0.596244 0.998971 0.000000
0.954219 0.999606 0.000000
0.955437 0.947579 0.000000
0.957237 0.898203 0.000157
0.005334 0.999410 0.519406
0.000000 0.999974 0.250105
0.000000 1.000000 0.000285
0.000000 1.000000 0.000285
0.000000 1.000000 0.000285
0.000000 1.000000 0.000285
0.789014 1.000000 0.000000
0.950505 0.999688 0.000668
0.950505 0.999688 0.000668
0.009403 0.999625 0.747485
0.007085 0.999296 0.566797
0.001458 0.999486 0.315024
0.000000 1.000000 0.000285
0.000000 1.000000 0.000285
0.000000 1.000000 0.000285
0.538569 0.999931 0.000484
0.950505 0.999688 0.000668
0.950505 0.999688 0.000668
0.021656 0.003774 0.257855
0.078948 0.005928 0.190726
0.393111 0.018125 0.246234
0.941824 0.068465 0.466715
0.966293 0.257857 0.506700
0.966102 0.257228 0.484735
0.966102 0.257228 0.484735
0.966102 0.257228 0.484735
0.966102 0.257228 0.484735
0.045457 0.033318 0.420226
0.033968 0.004124 0.283727
0.243742 0.011748 0.285351
0.742066 0.013666 0.433309
0.971962 0.246956 0.573657
0.970199 0.260418 0.517527
0.966102 0.257228 0.484735
0.966102 0.257228 0.484735
0.966102 0.257228 0.484735
0.043604 0.332320 0.658715
0.044315 0.218248 0.481817
0.160721 0.145476 0.371325
0.568951 0.124911 0.417340
0.963633 0.143732 0.621597
0.973683 0.289238 0.582719
0.970390 0.262727 0.530839
0.966102 0.257228 0.484735
0.966102 0.257228 0.484735
0.032682 0.754469 0.723777
0.035536 0.637266 0.600215
0.035472 0.507145 0.465157
0.416992 0.416992 0.416992
0.896388 0.388778 0.495628
0.984309 0.441666 0.583777
0.980260 0.382158 0.541032
0.973080 0.324709 0.504454
0.967069 0.271889 0.475243
0.010006 0.999442 0.644051
0.011807 0.964517 0.570738
0.016376 0.899581 0.464806
0.020188 0.805007 0.350699
0.724467 0.735548 0.343137
0.988633 0.666395 0.486079
0.985379 0.582460 0.489918
0.983292 0.511220 0.459593
0.978077 0.443049 0.430246
0.004569 0.999923 0.415973
0.000873 0.999861 0.297497
0.001085 0.999335 0.205422
0.000319 0.999512 0.103719
0.247059 0.999397 0.048238
0.935463 0.952435 0.163503
0.980513 0.820477 0.339329
0.980963 0.753841 0.312910
0.980247 0.679551 0.294699
0.008435 1.000000 0.679105
0.003583 1.000000 0.468556
0.000000 0.999068 0.185188
0.000000 1.000000 0.000285
0.000000 1.000000 0.000285
0.521364 1.000000 0.000793
0.955196 1.000000 0.002621
0.963038 0.975074 0.000308
0.964052 0.929717 0.000000
0.012121 1.000000 0.858063
0.009603 0.999340 0.714160
0.005334 0.999074 0.521137
0.000000 0.999302 0.253565
0.000000 1.000000 0.000285
0.000000 1.000000 0.000285
0.757343 1.000000 0.000157
0.950505 0.999688 0.000668
0.950505 0.999688 0.000668
0.013481 0.999264 0.918544
0.012312 0.999676 0.885218
0.009403 0.999625 0.747485
0.007085 0.999296 0.566797
0.000088 0.999848 0.316753
0.000127 1.000000 0.074832
0.505527 1.000000 0.000000
0.950505 0.999688 0.000668
0.950505 0.999688 0.000668
0.054840 0.008892 0.555648
0.105890 0.006284 0.426616
0.424955 0.006414 0.454300
0.926591 0.012854 0.647386
0.974861 0.276822 0.617859
0.970571 0.273004 0.563102
0.966293 0.257857 0.506700
0.966102 0.257228 0.484735
0.966102 0.257228 0.484735
0.091556 0.013397 0.770242
0.066759 0.009236 0.591148
0.295126 0.000000 0.554566
0.751622 0.000097 0.658011
0.971990 0.187758 0.698508
0.975255 0.272796 0.628996
0.974478 0.274895 0.577391
0.970199 0.260418 0.517527
0.966102 0.257228 0.484735
0.054518 0.312918 0.969855
0.054040 0.207133 0.839062
0.201343 0.129354 0.716148
0.603342 0.090342 0.710731
0.970479 0.100589 0.825792
0.979936 0.272587 0.694891
0.977016 0.268072 0.640132
0.974278 0.279549 0.588218
0.970390 0.262727 0.530839
0.039700 0.727223 0.991297
0.043502 0.636923 0.915176
0.046358 0.515014 0.815840
0.442544 0.420544 0.760000
0.898122 0.366629 0.776461
0.990923 0.452294 0.725862
0.988234 0.405100 0.676109
0.980069 0.359685 0.631547
0.976211 0.304500 0.591730
0.020174 0.946128 0.909035
0.021966 0.915812 0.871976
0.024550 0.873506 0.817476
0.028334 0.805868 0.744644
0.725586 0.725586 0.725586
0.995439 0.660846 0.736652
0.996284 0.597577 0.683301
0.990090 0.532126 0.633942
0.984872 0.467652 0.585559
0.008416 0.999562 0.801796
0.008234 1.000000 0.714160
0.007459 0.999449 0.676398
0.006684 0.999867 0.633445
0.188137 0.983539 0.584253
0.909420 0.918014 0.588942
0.989473 0.804498 0.620828
0.988747 0.747589 0.573113
0.988614 0.681662 0.527438
0.013481 0.999264 0.918544
0.009584 1.000000 0.829929
0.008435 1.000000 0.679105
0.003583 0.999524 0.472016
0.001458 0.999822 0.313293
0.489835 0.999508 0.327508
0.972342 0.999289 0.365195
0.976287 0.955855 0.372906
0.978289 0.905857 0.342410
0.013481 0.999264 0.918544
0.013481 0.999264 0.918544
0.012121 1.000000 0.858063
0.008234 1.000000 0.714160
0.004942 0.999404 0.529035
0.073791 0.999492 0.339438
0.734641 0.999647 0.138731
0.958710 0.999778 0.038652
0.955780 0.999200 0.023609
0.013481 0.999264 0.918544
0.013481 0.999264 0.918544
0.013481 0.999264 0.918544
0.012312 0.999676 0.885218
0.010379 1.000000 0.750191
0.008647 0.999898 0.585301
0.529107 0.999397 0.473499
0.958469 1.000000 0.312168
0.958710 0.999442 0.040384
0.095634 0.034544 0.830551
0.140827 0.011961 0.768340
0.491381 0.000421 0.773528
0.928717 0.000000 0.871867
0.978596 0.228873 0.743601
0.977801 0.257330 0.676251
0.976231 0.276125 0.617859
0.970571 0.273004 0.563102
0.969615 0.259784 0.505192
0.140757 0.066073 0.909637
0.109901 0.038527 0.849723
0.362519 0.000100 0.907562
0.783053 0.000000 0.936102
0.973609 0.085086 0.888844
0.979381 0.222500 0.757222
0.978586 0.250958 0.689872
0.975255 0.272460 0.630727
0.974478 0.274895 0.577391
0.167610 0.199665 0.999394
0.150847 0.140041 0.999156
0.257469 0.061008 0.980824
0.643046 0.013993 0.999719
0.976579 0.020510 0.999407
0.982694 0.218955 0.843884
0.980166 0.215120 0.776035
0.976633 0.246653 0.700032
0.977016 0.268072 0.640132
0.051353 0.582944 1.000000
0.053144 0.545570 1.000000
0.056324 0.484165 0.999937
0.475768 0.390421 0.999301
0.905943 0.320765 1.000000
0.998574 0.389862 0.890207
0.990005 0.363503 0.817118
0.987115 0.324659 0.759157
0.980700 0.290221 0.704878
0.030995 0.850761 0.986223
0.031989 0.827731 0.990831
0.034355 0.803332 0.998902
0.056291 0.758516 0.992239
0.714422 0.696404 0.999360
1.000000 0.617049 0.957399
1.000000 0.584921 0.832481
0.997692 0.530718 0.784013
0.993835 0.477550 0.733813
0.013481 0.999264 0.918544
0.014457 1.000000 0.919520
0.015050 0.989879 0.928480
0.016248 0.965893 0.903226
0.161349 0.932683 0.873551
0.876953 0.876953 0.876953
0.996289 0.795685 0.828227
0.996337 0.745750 0.785394
0.996981 0.688143 0.737679
0.013481 0.999264 0.918544
0.013481 0.999264 0.918544
0.013481 0.999264 0.918544
0.010952 0.999460 0.829929
0.008627 0.999708 0.706262
0.406096 0.999800 0.699832
0.984022 0.990799 0.720934
0.986034 0.926109 0.706098
0.987642 0.881146 0.659274
0.013481 0.999264 0.918544
0.013481 0.999264 0.918544
0.013481 0.999264 0.918544
0.013481 0.999264 0.918544
0.012121 1.000000 0.858063
0.010188 0.999638 0.728227
0.730253 0.999582 0.664551
0.974860 0.999669 0.510828
0.972332 0.999530 0.423945
0.013481 0.999264 0.918544
0.013481 0.999264 0.918544
0.013481 0.999264 0.918544
0.013481 0.999264 0.918544
0.013481 0.999264 0.918544
0.013289 1.000000 0.887927
0.448701 0.999694 0.794218
0.950970 0.999515 0.737039
0.976612 0.999892 0.556489
0.132725 0.084233 0.922864
0.173214 0.060661 0.920911
0.550779 0.000000 0.999926
0.935735 0.000000 0.999219
0.978443 0.145952 0.905410
0.978222 0.193096 0.817430
0.978202 0.230882 0.742848
0.978192 0.255656 0.675274
0.976231 0.276125 0.617859
0.152274 0.081774 0.935644
0.144845 0.083283 0.930230
0.406848 0.044628 0.998899
0.807286 0.000309 0.999203
0.973465 0.000245 1.000000
0.979037 0.133576 0.924755
0.980377 0.184682 0.837973
0.979381 0.222500 0.757222
0.978586 0.250958 0.689872
0.181208 0.080432 0.952332
0.175148 0.080572 0.950379
0.270165 0.072360 1.000000
0.676278 0.018580 1.000000
0.982265 0.000000 0.999047
0.983145 0.117032 0.999165
0.981392 0.118154 0.946582
0.977839 0.175710 0.856562
0.980166 0.215120 0.776035
0.159412 0.418520 0.999047
0.183943 0.307632 1.000000
0.171650 0.278908 1.000000
0.481935 0.262278 1.000000
0.900755 0.212216 0.999267
0.999045 0.273678 0.998937
0.995129 0.283120 0.986293
0.989098 0.260355 0.922301
0.983458 0.236925 0.852141
0.030601 0.852771 0.985468
0.038895 0.752561 1.000000
0.047972 0.651355 1.000000
0.201861 0.622902 1.000000
0.672077 0.601351 1.000000
1.000000 0.522317 1.000000
1.000000 0.514675 0.989011
0.999865 0.473429 0.936242
0.997368 0.431902 0.882497
0.013481 0.999264 0.918544
0.013481 0.999264 0.918544
0.017034 0.953134 0.949727
0.027652 0.873513 0.980637
0.261495 0.850569 0.999429
0.830260 0.813471 1.000000
0.999430 0.753727 0.967505
0.999277 0.711135 0.921657
0.999911 0.664188 0.879047
0.013481 0.999264 0.918544
0.013481 0.999264 0.918544
0.013481 0.999264 0.918544
0.013481 0.999264 0.918544
0.014457 1.000000 0.919520
0.282299 1.000000 0.945422
0.947266 0.947266 0.947266
0.993453 0.898628 0.905238
0.994077 0.862004 0.869465
0.013481 0.999264 0.918544
0.013481 0.999264 0.918544
0.013481 0.999264 0.918544
0.013481 0.999264 0.918544
0.013481 0.999264 0.918544
0.014457 0.999568 0.922981
0.660418 0.999766 0.906730
0.988493 0.999517 0.835641
0.987526 0.999981 0.767262
0.013481 0.999264 0.918544
0.013481 0.999264 0.918544
0.013481 0.999264 0.918544
0.013481 0.999264 0.918544
0.013481 0.999264 0.918544
0.014457 1.000000 0.919520
0.338605 0.999927 0.944718
0.922391 1.000000 0.954375
0.991029 0.999752 0.862042
0.135070 0.083841 0.927301
0.160682 0.081242 0.942035
0.565992 0.043391 0.999050
0.949225 0.000000 0.999665
0.977182 0.000162 0.999801
0.978482 0.081137 0.999199
0.978443 0.145952 0.905410
0.978222 0.192760 0.819160
0.978202 0.230882 0.742848
0.148560 0.082193 0.934668
0.144845 0.083283 0.930230
0.346222 0.065321 0.999961
0.792426 0.000974 1.000000
0.983241 0.000360 1.000000
0.973465 0.000245 1.000000
0.976932 0.065169 0.999817
0.980013 0.134552 0.925731
0.979401 0.183706 0.836997
0.177493 0.080850 0.951355
0.168111 0.080406 0.943988
0.211512 0.077720 0.972481
0.578505 0.041774 1.000000
0.971121 0.000000 0.999579
0.977182 0.000162 0.999801
0.973465 0.000245 1.000000
0.978118 0.047808 1.000000
0.981392 0.118154 0.946582
0.141976 0.460241 1.000000
0.197855 0.270653 0.999992
0.196058 0.087065 0.973457
0.391193 0.060645 1.000000
0.801225 0.000112 0.998981
0.992787 0.042147 0.999679
0.995064 0.124096 1.000000
0.989195 0.128897 0.999301
0.985480 0.128978 1.000000
0.027260 0.875186 0.981613
0.037506 0.776593 0.999828
0.046603 0.652052 1.000000
0.239500 0.502390 0.999610
0.588170 0.407898 0.999985
0.966289 0.400081 0.999364
0.999149 0.383343 0.999364
1.000000 0.359311 0.999535
0.999972 0.332990 0.999484
0.013481 0.999264 0.918544
0.013481 0.999264 0.918544
0.018583 0.971117 0.938726
0.025489 0.890569 0.975583
0.272488 0.798321 0.999774
0.760359 0.704708 0.998879
1.000000 0.648645 0.999871
0.999729 0.624335 0.999066
1.000000 0.585649 0.999102
0.013481 0.999264 0.918544
0.013481 0.999264 0.918544
0.013481 0.999264 0.918544
0.013481 0.999264 0.918544
0.013481 0.999264 0.918544
0.306168 0.976965 0.959574
0.897643 0.894297 0.998942
0.998175 0.846373 0.999164
0.999763 0.815336 1.000000
0.013481 0.999264 0.918544
0.013481 0.999264 0.918544
0.013481 0.999264 0.918544
0.013481 0.999264 0.918544
0.013481 0.999264 0.918544
0.014457 0.999568 0.922981
0.594718 0.999489 0.960546
1.000000 1.000000 1.000000
0.994936 0.982486 0.974970
0.013481 0.999264 0.918544
0.013481 0.999264 0.918544
0.013481 0.999264 0.918544
0.013481 0.999264 0.918544
0.013481 0.999264 0.918544
0.014457 1.000000 0.919520
0.273893 0.999713 0.944223
0.890911 0.998807 0.983879
1.000000 1.000000 1.000000
0.137416 0.084119 0.928277
0.142499 0.083005 0.929254
0.444570 0.056780 1.000000
0.877082 0.000000 0.998947
0.979527 0.000779 0.999047
0.974835 0.000000 0.998824
0.977182 0.000162 0.999801
0.978482 0.081137 0.999199
0.978443 0.145952 0.905410
0.150906 0.082471 0.935644
0.144845 0.083283 0.930230
0.266448 0.072779 0.999465
0.670602 0.028377 0.999016
0.984611 0.000000 1.000000
0.980897 0.000081 0.999047
0.977182 0.000162 0.999801
0.973465 0.000245 1.000000
0.978300 0.064472 0.999817
0.182185 0.080737 0.956769
0.170456 0.080686 0.944965
0.190984 0.079203 0.958722
0.460799 0.055082 1.000000
0.869652 0.000000 1.000000
0.984611 0.000000 1.000000
0.980897 0.000081 0.999047
0.977182 0.000162 0.999801
0.973465 0.000245 1.000000
0.120241 0.499731 1.000000
0.189409 0.316510 1.000000
0.209308 0.135060 0.999961
0.350330 0.063228 0.999961
0.693675 0.023192 0.999461
0.984611 0.000000 1.000000
0.984611 0.000000 1.000000
0.980897 0.000081 0.999047
0.977182 0.000162 0.999801
0.024704 0.894253 0.975805
0.034748 0.801322 0.999657
0.042668 0.682476 0.999763
0.202714 0.537547 1.000000
0.552783 0.407693 0.999625
0.897605 0.238619 1.000000
0.998386 0.126024 0.998548
0.997803 0.122701 1.000000
0.997984 0.139366 0.999437
0.013481 0.999264 0.918544
0.013481 0.999264 0.918544
0.015444 0.986861 0.934426
0.024300 0.909611 0.966312
0.202672 0.822222 0.999859
0.732775 0.725326 0.999324
1.000000 0.622325 0.999820
0.999664 0.467665 1.000000
0.999311 0.423342 0.998575
0.013481 0.999264 0.918544
0.013481 0.999264 0.918544
0.013481 0.999264 0.918544
0.013481 0.999264 0.918544
0.013481 0.999264 0.918544
0.193152 0.994527 0.942835
0.869867 0.909919 0.999918
0.998970 0.830686 1.000000
0.999047 0.737684 0.999715
0.013481 0.999264 0.918544
0.013481 0.999264 0.918544
0.013481 0.999264 0.918544
0.013481 0.999264 0.918544
0.013481 0.999264 0.918544
0.014457 1.000000 0.919520
0.544473 1.000000 0.959743
1.000000 1.000000 1.000000
0.995519 0.980768 0.999418
0.013481 0.999264 0.918544
0.013481 0.999264 0.918544
0.013481 0.999264 0.918544
0.013481 0.999264 0.918544
0.013481 0.999264 0.918544
0.014457 1.000000 0.919520
0.202142 0.999334 0.937336
0.864322 0.998076 0.980282
1.000000 1.000000 1.000000
