Sources/Resources/LUT/gfx-eterna-55-3d-lut-v100/33Grid/F-Log2C/FLog2C_to_PROVIA_33grid_V.1.00.cube
#title:FLog2C_to_PROVIA
#model:GFX ETERNA 55
#FUJIFILM Corporation
#Gamma:F-Log2C to PROVIA
#Gamut:F-GamutC to ITU-R BT.709
#Version:1.00
LUT_3D_SIZE 33
0.000000 0.000000 0.000000
0.000000 0.000000 0.000000
0.016813 0.001288 0.000667
0.060213 0.002972 0.006663
0.118080 0.005664 0.012351
0.205273 0.007693 0.021637
0.313970 0.011233 0.035272
0.449256 0.015504 0.052507
0.612498 0.017792 0.083722
0.781993 0.021913 0.131934
0.934071 0.038708 0.211961
1.000000 0.060030 0.330538
1.000000 0.103528 0.441304
0.999794 0.182840 0.462445
1.000000 0.257130 0.480656
1.000000 0.257130 0.480656
1.000000 0.257130 0.480656
1.000000 0.257130 0.480656
1.000000 0.257130 0.480656
1.000000 0.257130 0.480656
1.000000 0.257130 0.480656
1.000000 0.257130 0.480656
1.000000 0.257130 0.480656
1.000000 0.257130 0.480656
1.000000 0.257130 0.480656
1.000000 0.257130 0.480656
1.000000 0.257130 0.480656
1.000000 0.257130 0.480656
1.000000 0.257130 0.480656
1.000000 0.257130 0.480656
1.000000 0.257130 0.480656
1.000000 0.257130 0.480656
1.000000 0.257130 0.480656
0.000000 0.000000 0.000000
0.000000 0.000000 0.000000
0.002347 0.000616 0.000000
0.036948 0.004505 0.000000
0.089540 0.002308 0.010262
0.163826 0.008972 0.012402
0.268225 0.009606 0.026571
0.391388 0.013148 0.045089
0.545248 0.015327 0.067207
0.711420 0.019872 0.104812
0.871914 0.027493 0.175743
1.000000 0.048452 0.279773
1.000000 0.082591 0.403937
0.999240 0.146532 0.453828
1.000000 0.241137 0.477812
1.000000 0.257130 0.480656
1.000000 0.257130 0.480656
1.000000 0.257130 0.480656
1.000000 0.257130 0.480656
1.000000 0.257130 0.480656
1.000000 0.257130 0.480656
1.000000 0.257130 0.480656
1.000000 0.257130 0.480656
1.000000 0.257130 0.480656
1.000000 0.257130 0.480656
1.000000 0.257130 0.480656
1.000000 0.257130 0.480656
1.000000 0.257130 0.480656
1.000000 0.257130 0.480656
1.000000 0.257130 0.480656
1.000000 0.257130 0.480656
1.000000 0.257130 0.480656
1.000000 0.257130 0.480656
0.000000 0.000000 0.000000
0.000000 0.000000 0.000000
0.000000 0.000000 0.000000
0.020528 0.001206 0.000000
0.063927 0.002890 0.005910
0.131570 0.005361 0.012797
0.220717 0.009343 0.024036
0.338214 0.012021 0.036164
0.477606 0.013191 0.058590
0.636741 0.018580 0.084614
0.806818 0.024006 0.141699
0.956943 0.036832 0.230155
1.000000 0.063340 0.348290
1.000000 0.114859 0.442948
0.999976 0.198496 0.467019
1.000000 0.257130 0.480656
1.000000 0.257130 0.480656
1.000000 0.257130 0.480656
1.000000 0.257130 0.480656
1.000000 0.257130 0.480656
1.000000 0.257130 0.480656
1.000000 0.257130 0.480656
1.000000 0.257130 0.480656
1.000000 0.257130 0.480656
1.000000 0.257130 0.480656
1.000000 0.257130 0.480656
1.000000 0.257130 0.480656
1.000000 0.257130 0.480656
1.000000 0.257130 0.480656
1.000000 0.257130 0.480656
1.000000 0.257130 0.480656
1.000000 0.257130 0.480656
1.000000 0.257130 0.480656
0.001158 0.017640 0.000360
0.000000 0.011667 0.000000
0.000000 0.003684 0.000222
0.008406 0.000813 0.000000
0.046723 0.004284 0.001028
0.096184 0.005828 0.008976
0.175947 0.008357 0.018038
0.288360 0.011479 0.032652
0.413286 0.013656 0.045004
0.569490 0.014771 0.075019
0.738985 0.020572 0.114578
0.894002 0.029974 0.190699
0.999932 0.051761 0.297524
1.000000 0.090562 0.422887
0.999030 0.164198 0.457648
1.000000 0.252133 0.481187
1.000000 0.257130 0.480656
1.000000 0.257130 0.480656
1.000000 0.257130 0.480656
1.000000 0.257130 0.480656
1.000000 0.257130 0.480656
1.000000 0.257130 0.480656
1.000000 0.257130 0.480656
1.000000 0.257130 0.480656
1.000000 0.257130 0.480656
1.000000 0.257130 0.480656
1.000000 0.257130 0.480656
1.000000 0.257130 0.480656
1.000000 0.257130 0.480656
1.000000 0.257130 0.480656
1.000000 0.257130 0.480656
1.000000 0.257130 0.480656
1.000000 0.257130 0.480656
0.000000 0.043683 0.000000
0.000000 0.035002 0.000000
0.000000 0.025008 0.000803
0.001158 0.017640 0.000360
0.024626 0.010781 0.000000
0.076633 0.007279 0.001388
0.140369 0.004163 0.013019
0.235184 0.010353 0.023727
0.353072 0.010684 0.038340
0.500479 0.014341 0.061210
0.665674 0.017909 0.097840
0.831644 0.026437 0.149734
0.980984 0.040258 0.252258
0.998926 0.071000 0.372431
1.000000 0.128505 0.448277
1.000000 0.214488 0.469863
1.000000 0.257130 0.480656
1.000000 0.257130 0.480656
1.000000 0.257130 0.480656
1.000000 0.257130 0.480656
1.000000 0.257130 0.480656
1.000000 0.257130 0.480656
1.000000 0.257130 0.480656
1.000000 0.257130 0.480656
1.000000 0.257130 0.480656
1.000000 0.257130 0.480656
1.000000 0.257130 0.480656
1.000000 0.257130 0.480656
1.000000 0.257130 0.480656
1.000000 0.257130 0.480656
1.000000 0.257130 0.480656
1.000000 0.257130 0.480656
1.000000 0.257130 0.480656
0.001301 0.080637 0.001130
0.000727 0.066320 0.000000
0.001129 0.052642 0.000102
0.000000 0.043683 0.000000
0.000000 0.037011 0.000000
0.044549 0.032336 0.000000
0.104379 0.026658 0.000153
0.191774 0.021680 0.010722
0.303018 0.018156 0.028351
0.437527 0.012764 0.054547
0.594709 0.016535 0.076886
0.763226 0.020015 0.122390
0.918042 0.035751 0.200688
0.999337 0.057418 0.312789
1.000000 0.096522 0.442590
1.000000 0.174496 0.461023
1.000000 0.257130 0.480656
1.000000 0.257130 0.480656
1.000000 0.257130 0.480656
1.000000 0.257130 0.480656
1.000000 0.257130 0.480656
1.000000 0.257130 0.480656
1.000000 0.257130 0.480656
1.000000 0.257130 0.480656
1.000000 0.257130 0.480656
1.000000 0.257130 0.480656
1.000000 0.257130 0.480656
1.000000 0.257130 0.480656
1.000000 0.257130 0.480656
1.000000 0.257130 0.480656
1.000000 0.257130 0.480656
1.000000 0.257130 0.480656
1.000000 0.257130 0.480656
0.001654 0.125632 0.000000
0.001081 0.110978 0.000000
0.001875 0.095628 0.000000
0.001301 0.080637 0.001130
0.000727 0.066320 0.000000
0.010704 0.059427 0.000016
0.073271 0.052355 0.000820
0.147569 0.048024 0.000000
0.255490 0.045933 0.001419
0.381594 0.040736 0.022954
0.529594 0.034703 0.051324
0.695776 0.026573 0.094206
0.853733 0.028918 0.164692
0.999549 0.048154 0.265707
1.000000 0.076263 0.392133
0.999441 0.140197 0.451652
1.000000 0.230143 0.474436
1.000000 0.257130 0.480656
1.000000 0.257130 0.480656
1.000000 0.257130 0.480656
1.000000 0.257130 0.480656
1.000000 0.257130 0.480656
1.000000 0.257130 0.480656
1.000000 0.257130 0.480656
1.000000 0.257130 0.480656
1.000000 0.257130 0.480656
1.000000 0.257130 0.480656
1.000000 0.257130 0.480656
1.000000 0.257130 0.480656
1.000000 0.257130 0.480656
1.000000 0.257130 0.480656
1.000000 0.257130 0.480656
1.000000 0.257130 0.480656
0.002191 0.186955 0.000000
0.000054 0.168002 0.000000
0.002421 0.145283 0.000000
0.002239 0.128618 0.000031
0.001081 0.110978 0.000000
0.001482 0.097301 0.000511
0.036486 0.087849 0.000204
0.108438 0.082902 0.000000
0.206392 0.076035 0.000887
0.325852 0.072023 0.000000
0.470530 0.066752 0.015516
0.630842 0.065438 0.047262
0.796429 0.062964 0.105410
0.947150 0.066437 0.197637
0.999319 0.078400 0.324730
0.999079 0.108886 0.442505
1.000000 0.190486 0.463867
1.000000 0.257130 0.480656
1.000000 0.257130 0.480656
1.000000 0.257130 0.480656
1.000000 0.257130 0.480656
1.000000 0.257130 0.480656
1.000000 0.257130 0.480656
1.000000 0.257130 0.480656
1.000000 0.257130 0.480656
1.000000 0.257130 0.480656
1.000000 0.257130 0.480656
1.000000 0.257130 0.480656
1.000000 0.257130 0.480656
1.000000 0.257130 0.480656
1.000000 0.257130 0.480656
1.000000 0.257130 0.480656
1.000000 0.257130 0.480656
0.000360 0.270997 0.000000
0.000000 0.244676 0.000000
0.001184 0.220644 0.000098
0.001595 0.195635 0.000000
0.002007 0.170291 0.000218
0.003589 0.151255 0.000000
0.001644 0.137300 0.000000
0.063629 0.127240 0.000305
0.153963 0.116214 0.000047
0.272445 0.110889 0.000000
0.408717 0.108167 0.000000
0.568647 0.102909 0.000316
0.734235 0.103123 0.044621
0.890429 0.106494 0.123004
0.999299 0.119546 0.232844
1.000000 0.145302 0.371383
0.999211 0.186574 0.427612
0.999143 0.260516 0.466813
0.999143 0.258499 0.477195
1.000000 0.257130 0.480656
1.000000 0.257130 0.480656
1.000000 0.257130 0.480656
1.000000 0.257130 0.480656
1.000000 0.257130 0.480656
1.000000 0.257130 0.480656
1.000000 0.257130 0.480656
1.000000 0.257130 0.480656
1.000000 0.257130 0.480656
1.000000 0.257130 0.480656
1.000000 0.257130 0.480656
1.000000 0.257130 0.480656
1.000000 0.257130 0.480656
1.000000 0.257130 0.480656
0.000000 0.368018 0.000000
0.000000 0.338013 0.000000
0.000000 0.307672 0.000694
0.000158 0.277667 0.000422
0.000000 0.253356 0.000000
0.001376 0.225641 0.000000
0.001002 0.204316 0.000000
0.005512 0.188547 0.000000
0.098976 0.174115 0.000320
0.215113 0.168176 0.000422
0.351193 0.160456 0.000215
0.509171 0.153245 0.000000
0.670268 0.154296 0.000296
0.835464 0.156521 0.043849
0.979135 0.170150 0.136520
0.999040 0.188826 0.270844
0.998999 0.214658 0.377789
0.999535 0.267243 0.422575
0.999314 0.291871 0.450535
0.999909 0.281174 0.461227
0.999918 0.268163 0.468234
0.999727 0.261486 0.477417
1.000000 0.257130 0.480656
1.000000 0.257130 0.480656
1.000000 0.257130 0.480656
1.000000 0.257130 0.480656
1.000000 0.257130 0.480656
1.000000 0.257130 0.480656
1.000000 0.257130 0.480656
1.000000 0.257130 0.480656
1.000000 0.257130 0.480656
1.000000 0.257130 0.480656
1.000000 0.257130 0.480656
0.000000 0.484354 0.000384
0.000000 0.447678 0.000000
0.000000 0.409690 0.000000
0.000000 0.377675 0.000180
0.000100 0.347671 0.000000
0.000000 0.314678 0.000000
0.000000 0.288357 0.000000
0.000560 0.264326 0.000000
0.026967 0.249065 0.000285
0.149757 0.234642 0.000918
0.290922 0.226143 0.000000
0.442838 0.218735 0.000000
0.608436 0.215684 0.000571
0.773833 0.219976 0.000000
0.924359 0.229878 0.032606
0.999403 0.243662 0.158859
0.999554 0.265417 0.311996
0.999335 0.284669 0.367644
1.000000 0.328902 0.420636
0.999688 0.316893 0.432083
1.000000 0.306195 0.442774
0.998922 0.293881 0.449781
1.000000 0.284497 0.459719
0.999133 0.271511 0.470187
0.999727 0.261486 0.477417
1.000000 0.257130 0.480656
1.000000 0.257130 0.480656
1.000000 0.257130 0.480656
1.000000 0.257130 0.480656
1.000000 0.257130 0.480656
1.000000 0.257130 0.480656
1.000000 0.257130 0.480656
1.000000 0.257130 0.480656
0.000000 0.610683 0.000192
0.000000 0.572695 0.000227
0.000000 0.533033 0.000000
0.000000 0.496022 0.000296
0.000204 0.457336 0.000333
0.000000 0.421357 0.000000
0.000262 0.387332 0.000847
0.000000 0.361347 0.000000
0.000000 0.338013 0.000000
0.060533 0.321645 0.001105
0.211674 0.306590 0.000000
0.373175 0.293964 0.000384
0.541510 0.289855 0.000000
0.710037 0.290407 0.000380
0.870742 0.293467 0.000000
0.999958 0.304839 0.039422
1.000000 0.319588 0.193844
0.999114 0.328788 0.295238
1.000000 0.356993 0.361184
0.998682 0.357975 0.394507
0.999669 0.345268 0.405954
0.999285 0.333258 0.417397
0.999688 0.317229 0.430351
0.999888 0.308541 0.440289
0.999899 0.295530 0.447297
1.000000 0.284497 0.459719
0.999133 0.272183 0.466726
0.998941 0.266178 0.472449
1.000000 0.257130 0.480656
1.000000 0.257130 0.480656
1.000000 0.257130 0.480656
1.000000 0.257130 0.480656
1.000000 0.257130 0.480656
0.000000 0.739023 0.000000
0.000000 0.701034 0.000000
0.000000 0.662013 0.001047
0.000000 0.622350 0.000105
0.000000 0.582353 0.000894
0.000000 0.542690 0.000000
0.000163 0.504004 0.000000
0.000000 0.471013 0.000000
0.000605 0.443658 0.001172
0.000000 0.419348 0.000367
0.107782 0.399255 0.000109
0.285903 0.383593 0.000000
0.469299 0.371475 0.000192
0.644673 0.368876 0.000000
0.813592 0.367752 0.000000
0.953962 0.374268 0.000000
0.999889 0.383485 0.054394
0.999074 0.392932 0.204910
0.998864 0.396148 0.283141
0.999820 0.408360 0.346243
1.000000 0.391322 0.364387
1.000000 0.376967 0.378317
1.000000 0.361272 0.389539
0.999275 0.347614 0.403469
1.000000 0.334907 0.414914
1.000000 0.321223 0.425383
0.999888 0.309213 0.436828
0.999506 0.297204 0.448273
0.998730 0.287876 0.455503
0.998740 0.274192 0.465973
0.999335 0.263832 0.474934
1.000000 0.257130 0.480656
1.000000 0.257130 0.480656
0.000000 0.857033 0.001094
0.000091 0.823344 0.000597
0.000000 0.785356 0.000633
0.000000 0.750354 0.000891
0.000000 0.710692 0.000000
0.000000 0.670694 0.000738
0.000000 0.631031 0.000000
0.000000 0.592345 0.000000
0.000000 0.561029 0.000313
0.000336 0.531999 0.001016
0.000000 0.507689 0.000211
0.172617 0.486136 0.000000
0.376741 0.468554 0.000070
0.573629 0.456470 0.000000
0.750764 0.451163 0.000000
0.897978 0.454527 0.000000
0.998662 0.457934 0.000000
0.999620 0.467793 0.075003
0.999025 0.455302 0.183715
0.999398 0.459150 0.274280
0.999600 0.445758 0.308446
0.999419 0.425398 0.328098
0.999429 0.410706 0.343757
0.999439 0.396014 0.359419
0.999447 0.381995 0.371617
0.998874 0.363980 0.388785
1.000000 0.349263 0.400985
0.999868 0.337253 0.412429
0.999878 0.323233 0.424628
0.999496 0.311560 0.434343
1.000000 0.300862 0.445036
1.000000 0.287851 0.452043
0.999324 0.277515 0.464465
0.000569 0.954670 0.000000
0.000397 0.926338 0.000577
0.000000 0.897031 0.000305
0.000000 0.867026 0.000032
0.000000 0.834034 0.000000
0.000000 0.797022 0.000546
0.000000 0.759035 0.000582
0.000000 0.720349 0.000618
0.000000 0.685347 0.000874
0.000000 0.654366 0.000000
0.000000 0.626035 0.000329
0.012791 0.600722 0.000000
0.252505 0.576676 0.000482
0.478526 0.559604 0.000993
0.673067 0.547240 0.000000
0.838080 0.541203 0.000764
0.968876 0.541269 0.000028
0.999179 0.542591 0.000000
0.999179 0.531837 0.054785
0.998584 0.518335 0.168688
0.998977 0.502212 0.242122
0.999379 0.484501 0.263726
0.999782 0.466455 0.287062
0.999207 0.448441 0.304231
0.998634 0.429754 0.324859
1.000000 0.414365 0.340520
1.000000 0.397326 0.358663
1.000000 0.382971 0.372593
0.999457 0.367975 0.383816
0.999860 0.351272 0.400230
0.999477 0.339599 0.409945
0.999094 0.327590 0.421392
0.999104 0.313906 0.431859
0.000000 1.000000 0.000285
0.000000 1.000000 0.000285
0.000000 0.985372 0.000148
0.000000 0.960364 0.000000
0.000000 0.934043 0.000000
0.000024 0.905014 0.000000
0.000000 0.873696 0.000475
0.000000 0.841682 0.000958
0.000000 0.808689 0.000461
0.000132 0.776675 0.000942
0.000000 0.745693 0.000000
0.000000 0.717362 0.000394
0.056898 0.693068 0.000000
0.344512 0.667947 0.000203
0.576010 0.648084 0.000715
0.766252 0.632817 0.000114
0.915239 0.621807 0.000128
0.999311 0.617254 0.000094
0.998917 0.619264 0.000000
0.999914 0.592873 0.021254
0.998545 0.567358 0.156231
1.000000 0.546598 0.189949
1.000000 0.524893 0.216523
0.999168 0.507879 0.238129
0.999963 0.488159 0.260488
0.999388 0.469137 0.282848
0.999398 0.453437 0.303699
0.999217 0.433413 0.321622
0.999620 0.416710 0.338035
0.999628 0.401347 0.357156
1.000000 0.385653 0.368379
0.999065 0.369984 0.383063
1.000000 0.355267 0.395262
0.000000 1.000000 0.000285
0.000000 1.000000 0.000285
0.000000 1.000000 0.000285
0.000000 1.000000 0.000285
0.000000 1.000000 0.000285
0.000147 0.991345 0.000593
0.000000 0.967034 0.000000
0.000000 0.940713 0.000000
0.000000 0.911685 0.000441
0.000000 0.883690 0.000000
0.000000 0.855358 0.000117
0.000000 0.829037 0.000066
0.000000 0.804030 0.000000
0.130534 0.778751 0.000000
0.440829 0.750455 0.000000
0.672528 0.723923 0.000000
0.846159 0.700360 0.000000
0.979118 0.684041 0.000417
0.999646 0.685247 0.000332
0.998478 0.679275 0.000000
0.999876 0.643575 0.000145
0.998909 0.612783 0.092699
0.999704 0.591719 0.121980
0.999522 0.568671 0.155477
0.998554 0.550313 0.184004
0.999350 0.529921 0.209824
0.999168 0.508888 0.232937
0.999571 0.490842 0.256273
0.999973 0.472795 0.279609
0.999398 0.454109 0.300238
0.999408 0.439081 0.317629
0.999227 0.418721 0.337281
0.999237 0.404029 0.352941
0.000000 1.000000 0.000285
0.000000 1.000000 0.000285
0.000000 1.000000 0.000285
0.000000 1.000000 0.000285
0.000000 1.000000 0.000285
0.000000 1.000000 0.000285
0.000000 1.000000 0.000285
0.000000 1.000000 0.000285
0.000000 0.997039 0.000063
0.000000 0.974682 0.001211
0.000000 0.950371 0.000406
0.000397 0.926338 0.000577
0.000000 0.902028 0.000000
0.000436 0.879670 0.000922
0.225098 0.851964 0.000000
0.538141 0.810606 0.000000
0.761243 0.778599 0.000000
0.917276 0.757096 0.000606
0.999012 0.740597 0.000000
0.999022 0.728930 0.000000
0.999032 0.717263 0.000000
0.999061 0.682261 0.000110
0.999081 0.658254 0.003742
0.999482 0.637183 0.042653
0.999886 0.615440 0.085024
0.998917 0.596075 0.118741
0.999712 0.574339 0.151484
0.999139 0.553972 0.180765
0.999934 0.533243 0.208316
0.999359 0.514221 0.230675
0.999762 0.496175 0.254012
0.999580 0.475814 0.273664
0.999007 0.456791 0.296023
0.000000 1.000000 0.000285
0.000000 1.000000 0.000285
0.000000 1.000000 0.000285
0.000000 1.000000 0.000285
0.000000 1.000000 0.000285
0.000000 1.000000 0.000285
0.000000 1.000000 0.000285
0.000000 1.000000 0.000285
0.000000 1.000000 0.000285
0.000000 1.000000 0.000285
0.000000 1.000000 0.000285
0.000000 1.000000 0.000285
0.000000 0.985372 0.000148
0.000000 0.967034 0.000000
0.000000 0.946686 0.000183
0.328874 0.898970 0.000000
0.634487 0.858111 0.000000
0.840383 0.826492 0.000000
0.980189 0.806687 0.000005
0.998380 0.795946 0.000000
0.999183 0.768928 0.000000
0.998620 0.742607 0.000000
0.998629 0.730940 0.000000
0.999232 0.710592 0.000000
0.999646 0.685247 0.000332
0.999273 0.663923 0.000000
0.999674 0.643188 0.036930
0.999099 0.621141 0.074863
0.999894 0.598733 0.111067
0.998927 0.579367 0.144785
0.998746 0.556990 0.174820
0.999541 0.536262 0.202372
0.999943 0.517880 0.227436
0.000000 1.000000 0.000285
0.000000 1.000000 0.000285
0.000000 1.000000 0.000285
0.000000 1.000000 0.000285
0.000000 1.000000 0.000285
0.000000 1.000000 0.000285
0.000000 1.000000 0.000285
0.000000 1.000000 0.000285
0.000000 1.000000 0.000285
0.000000 1.000000 0.000285
0.000000 1.000000 0.000285
0.000000 1.000000 0.000285
0.000000 1.000000 0.000285
0.000000 1.000000 0.000285
0.000000 1.000000 0.000285
0.000000 1.000000 0.000285
0.435196 0.939584 0.000000
0.727319 0.899029 0.000000
0.910533 0.870585 0.000000
0.998723 0.852272 0.000000
0.999720 0.829914 0.000501
0.999748 0.795249 0.000000
0.998993 0.763931 0.000000
0.998610 0.754274 0.000000
0.999203 0.745594 0.000000
0.998237 0.732614 0.000000
0.998841 0.712602 0.000000
0.999837 0.690244 0.000000
0.999464 0.668919 0.000000
0.999283 0.646207 0.030984
1.000000 0.623463 0.068919
0.999503 0.601415 0.106852
0.999904 0.581352 0.140570
0.000000 1.000000 0.000285
0.000000 1.000000 0.000285
0.000000 1.000000 0.000285
0.000000 1.000000 0.000285
0.000000 1.000000 0.000285
0.000000 1.000000 0.000285
0.000000 1.000000 0.000285
0.000000 1.000000 0.000285
0.000000 1.000000 0.000285
0.000000 1.000000 0.000285
0.000000 1.000000 0.000285
0.000000 1.000000 0.000285
0.000000 1.000000 0.000285
0.000000 1.000000 0.000285
0.000000 1.000000 0.000285
0.000000 1.000000 0.000285
0.028879 1.000000 0.000421
0.538980 0.974923 0.000000
0.809791 0.936846 0.000000
0.967396 0.907975 0.000294
0.999479 0.883590 0.000000
0.998723 0.852272 0.000000
0.999145 0.815597 0.000000
0.999357 0.796923 0.000005
1.000000 0.781572 0.000000
0.999970 0.764908 0.000484
0.999587 0.755251 0.000000
1.000000 0.746571 0.000125
0.998821 0.735937 0.000000
0.999032 0.717263 0.000000
0.999051 0.693929 0.000023
0.999071 0.670930 0.000000
0.998889 0.649225 0.025038
0.000000 1.000000 0.000285
0.000000 1.000000 0.000285
0.000000 1.000000 0.000285
0.000000 1.000000 0.000285
0.000000 1.000000 0.000285
0.000000 1.000000 0.000285
0.000000 1.000000 0.000285
0.000000 1.000000 0.000285
0.000000 1.000000 0.000285
0.000000 1.000000 0.000285
0.000000 1.000000 0.000285
0.000000 1.000000 0.000285
0.000000 1.000000 0.000285
0.000000 1.000000 0.000285
0.000000 1.000000 0.000285
0.000000 1.000000 0.000285
0.000000 1.000000 0.000285
0.146184 1.000000 0.000968
0.630262 0.999875 0.000141
0.867055 0.960895 0.000000
0.999441 0.930259 0.000000
0.998876 0.903602 0.000208
0.999489 0.871587 0.000688
0.999316 0.843592 0.000000
0.999720 0.829914 0.000501
0.999145 0.815261 0.000363
0.999940 0.799910 0.000226
0.998388 0.784279 0.000000
0.999183 0.768592 0.000706
0.999193 0.757261 0.000000
0.999787 0.748580 0.000000
0.999797 0.736913 0.000000
0.999223 0.722259 0.000000
0.000000 1.000000 0.000285
0.000000 1.000000 0.000285
0.000000 1.000000 0.000285
0.000000 1.000000 0.000285
0.000000 1.000000 0.000285
0.000000 1.000000 0.000285
0.000000 1.000000 0.000285
0.000000 1.000000 0.000285
0.000000 1.000000 0.000285
0.000000 1.000000 0.000285
0.000000 1.000000 0.000285
0.000000 1.000000 0.000285
0.000000 1.000000 0.000285
0.000000 1.000000 0.000285
0.000000 1.000000 0.000285
0.000000 1.000000 0.000285
0.000000 1.000000 0.000285
0.000000 1.000000 0.000285
0.290468 0.999831 0.000675
0.698689 1.000000 0.000000
0.912005 0.979553 0.000000
1.000000 0.949573 0.000000
0.999057 0.920265 0.000000
0.999086 0.885264 0.000000
0.999489 0.871587 0.000688
0.998521 0.858943 0.000000
0.999901 0.846578 0.000000
0.999326 0.831924 0.000000
0.998753 0.817270 0.000000
0.999548 0.801919 0.000000
0.999365 0.785256 0.000090
0.998792 0.770602 0.000000
0.998802 0.758935 0.000039
0.000000 1.000000 0.000285
0.000000 1.000000 0.000285
0.000000 1.000000 0.000285
0.000000 1.000000 0.000285
0.000000 1.000000 0.000285
0.000000 1.000000 0.000285
0.000000 1.000000 0.000285
0.000000 1.000000 0.000285
0.000000 1.000000 0.000285
0.000000 1.000000 0.000285
0.000000 1.000000 0.000285
0.000000 1.000000 0.000285
0.000000 1.000000 0.000285
0.000000 1.000000 0.000285
0.000000 1.000000 0.000285
0.000000 1.000000 0.000285
0.000000 1.000000 0.000285
0.000000 1.000000 0.000285
0.000000 1.000000 0.000285
0.446875 0.999988 0.000828
0.775917 0.998939 0.000000
0.950121 0.988686 0.006921
0.999019 0.965254 0.007898
0.998654 0.933944 0.000000
0.999650 0.911585 0.000000
0.998684 0.898941 0.000000
1.000000 0.886241 0.000824
0.998704 0.875606 0.000000
0.999107 0.861930 0.000019
0.999508 0.848589 0.000000
0.998935 0.833935 0.000000
0.999336 0.820257 0.000000
1.000000 0.804906 0.000000
0.000000 1.000000 0.000285
0.000000 1.000000 0.000285
0.000000 1.000000 0.000285
0.000000 1.000000 0.000285
0.000000 1.000000 0.000285
0.000000 1.000000 0.000285
0.000000 1.000000 0.000285
0.000000 1.000000 0.000285
0.000000 1.000000 0.000285
0.000000 1.000000 0.000285
0.000000 1.000000 0.000285
0.000000 1.000000 0.000285
0.000000 1.000000 0.000285
0.000000 1.000000 0.000285
0.000000 1.000000 0.000285
0.000000 1.000000 0.000285
0.000000 1.000000 0.000285
0.000000 1.000000 0.000285
0.000000 1.000000 0.000285
0.013044 0.999722 0.000730
0.566917 0.998963 0.000000
0.835545 0.999934 0.001097
0.980817 0.986317 0.015710
0.991186 0.978087 0.013757
0.999229 0.948261 0.000617
0.999239 0.936594 0.000703
0.999249 0.924926 0.000790
0.999259 0.913595 0.000000
0.999660 0.899917 0.000000
0.999278 0.890261 0.000000
0.999681 0.876583 0.000157
0.998713 0.863940 0.000000
0.999117 0.850263 0.000106
0.000000 1.000000 0.000285
0.000000 1.000000 0.000285
0.000000 1.000000 0.000285
0.000000 1.000000 0.000285
0.000000 1.000000 0.000285
0.000000 1.000000 0.000285
0.000000 1.000000 0.000285
0.000000 1.000000 0.000285
0.000000 1.000000 0.000285
0.000000 1.000000 0.000285
0.000000 1.000000 0.000285
0.000000 1.000000 0.000285
0.000000 1.000000 0.000285
0.000000 1.000000 0.000285
0.000000 1.000000 0.000285
0.000000 1.000000 0.000285
0.000000 1.000000 0.000285
0.000000 1.000000 0.000285
0.000000 1.000000 0.000285
0.000000 1.000000 0.000285
0.198775 1.000000 0.000000
0.655874 0.999965 0.001032
0.882862 0.996209 0.000000
0.980817 0.986317 0.015710
0.988055 0.981157 0.014734
0.994709 0.973345 0.011804
0.999410 0.963580 0.006921
0.998837 0.950270 0.000000
0.998845 0.938603 0.000000
0.999832 0.928249 0.000000
0.998866 0.915270 0.000121
0.998876 0.903602 0.000208
0.998886 0.891935 0.000294
0.000000 1.000000 0.000285
0.000000 1.000000 0.000285
0.000000 1.000000 0.000285
0.000000 1.000000 0.000285
0.000000 1.000000 0.000285
0.000000 1.000000 0.000285
0.000000 1.000000 0.000285
0.000000 1.000000 0.000285
0.000000 1.000000 0.000285
0.000000 1.000000 0.000285
0.000000 1.000000 0.000285
0.000000 1.000000 0.000285
0.000000 1.000000 0.000285
0.000000 1.000000 0.000285
0.000000 1.000000 0.000285
0.000000 1.000000 0.000285
0.000000 1.000000 0.000285
0.000000 1.000000 0.000285
0.000000 1.000000 0.000285
0.000000 1.000000 0.000285
0.000000 1.000000 0.000285
0.358897 0.999963 0.000417
0.731731 0.999932 0.000000
0.924117 0.991614 0.000085
0.980817 0.986317 0.015710
