Sources/Resources/LUT/gfx-eterna-55-3d-lut-v100/33Grid/F-Log2C/FLog2C_to_Velvia_33grid_V.1.00.cube
#title:FLog2C_to_Velvia
#model:GFX ETERNA 55
#FUJIFILM Corporation
#Gamma:F-Log2C to Velvia
#Gamut:F-GamutC to ITU-R BT.709
#Version:1.00
LUT_3D_SIZE 33
0.000000 0.000000 0.000000
0.000000 0.000000 0.000000
0.000000 0.000000 0.000000
0.015837 0.000312 0.000000
0.065690 0.001526 0.000000
0.158753 0.000100 0.002859
0.300692 0.000000 0.000000
0.470589 0.000000 0.000456
0.657881 0.000206 0.020981
0.853771 0.000061 0.073320
0.999407 0.000281 0.187067
0.999529 0.054349 0.353789
0.999652 0.115475 0.484171
1.000000 0.211127 0.487169
0.999899 0.286792 0.492290
0.999899 0.286792 0.492290
0.999899 0.286792 0.492290
0.999899 0.286792 0.492290
0.999899 0.286792 0.492290
0.999899 0.286792 0.492290
0.999899 0.286792 0.492290
0.999899 0.286792 0.492290
0.999899 0.286792 0.492290
0.999899 0.286792 0.492290
0.999899 0.286792 0.492290
0.999899 0.286792 0.492290
0.999899 0.286792 0.492290
0.999899 0.286792 0.492290
0.999899 0.286792 0.492290
0.999899 0.286792 0.492290
0.999899 0.286792 0.492290
0.999899 0.286792 0.492290
0.999899 0.286792 0.492290
0.000000 0.000000 0.000000
0.000000 0.000000 0.000000
0.000000 0.000000 0.000000
0.004691 0.000895 0.000222
0.037733 0.000821 0.000000
0.108506 0.001231 0.000324
0.238325 0.000000 0.000340
0.400790 0.000339 0.000714
0.577725 0.000000 0.011164
0.769316 0.000000 0.048461
0.971066 0.000000 0.134347
0.999559 0.033126 0.283098
0.999884 0.080859 0.447644
0.999411 0.168142 0.487734
0.999324 0.272138 0.492152
0.999899 0.286792 0.492290
0.999899 0.286792 0.492290
0.999899 0.286792 0.492290
0.999899 0.286792 0.492290
0.999899 0.286792 0.492290
0.999899 0.286792 0.492290
0.999899 0.286792 0.492290
0.999899 0.286792 0.492290
0.999899 0.286792 0.492290
0.999899 0.286792 0.492290
0.999899 0.286792 0.492290
0.999899 0.286792 0.492290
0.999899 0.286792 0.492290
0.999899 0.286792 0.492290
0.999899 0.286792 0.492290
0.999899 0.286792 0.492290
0.999899 0.286792 0.492290
0.999899 0.286792 0.492290
0.000000 0.000000 0.000000
0.000000 0.000000 0.000000
0.000000 0.000000 0.000000
0.000977 0.000977 0.000977
0.018181 0.000927 0.000000
0.076835 0.000944 0.000000
0.175957 0.000050 0.000820
0.328649 0.000626 0.000000
0.500891 0.000423 0.003301
0.683492 0.000000 0.025332
0.883681 0.000031 0.089254
1.000000 0.003223 0.212714
0.999519 0.060639 0.381391
0.999643 0.126805 0.485817
1.000000 0.227118 0.490012
0.999899 0.286792 0.492290
0.999899 0.286792 0.492290
0.999899 0.286792 0.492290
0.999899 0.286792 0.492290
0.999899 0.286792 0.492290
0.999899 0.286792 0.492290
0.999899 0.286792 0.492290
0.999899 0.286792 0.492290
0.999899 0.286792 0.492290
0.999899 0.286792 0.492290
0.999899 0.286792 0.492290
0.999899 0.286792 0.492290
0.999899 0.286792 0.492290
0.999899 0.286792 0.492290
0.999899 0.286792 0.492290
0.999899 0.286792 0.492290
0.999899 0.286792 0.492290
0.999899 0.286792 0.492290
0.000977 0.000977 0.000977
0.000000 0.000000 0.000000
0.000000 0.000000 0.000000
0.000000 0.000000 0.000000
0.008406 0.000813 0.000000
0.043793 0.001018 0.000000
0.121996 0.000928 0.000769
0.259244 0.000000 0.000000
0.425426 0.000000 0.000000
0.605682 0.000000 0.014761
0.798250 0.000000 0.056496
0.997262 0.000000 0.152766
0.999155 0.042098 0.306484
1.000000 0.091481 0.468546
1.000000 0.188464 0.483879
0.999314 0.283469 0.493796
0.999899 0.286792 0.492290
0.999899 0.286792 0.492290
0.999899 0.286792 0.492290
0.999899 0.286792 0.492290
0.999899 0.286792 0.492290
0.999899 0.286792 0.492290
0.999899 0.286792 0.492290
0.999899 0.286792 0.492290
0.999899 0.286792 0.492290
0.999899 0.286792 0.492290
0.999899 0.286792 0.492290
0.999899 0.286792 0.492290
0.999899 0.286792 0.492290
0.999899 0.286792 0.492290
0.999899 0.286792 0.492290
0.999899 0.286792 0.492290
0.999899 0.286792 0.492290
0.000383 0.009657 0.000667
0.000192 0.004997 0.000000
0.000583 0.002987 0.000222
0.000977 0.000977 0.000977
0.002347 0.000616 0.000000
0.024243 0.001124 0.000000
0.083871 0.002117 0.000411
0.195508 0.000000 0.001488
0.353284 0.000000 0.000000
0.528848 0.000457 0.006898
0.713795 0.000000 0.033367
0.914961 0.000000 0.103457
0.999386 0.013196 0.240539
0.999511 0.066929 0.408993
0.999431 0.145815 0.482715
1.000000 0.243446 0.491126
0.999899 0.286792 0.492290
0.999899 0.286792 0.492290
0.999899 0.286792 0.492290
0.999899 0.286792 0.492290
0.999899 0.286792 0.492290
0.999899 0.286792 0.492290
0.999899 0.286792 0.492290
0.999899 0.286792 0.492290
0.999899 0.286792 0.492290
0.999899 0.286792 0.492290
0.999899 0.286792 0.492290
0.999899 0.286792 0.492290
0.999899 0.286792 0.492290
0.999899 0.286792 0.492290
0.999899 0.286792 0.492290
0.999899 0.286792 0.492290
0.999899 0.286792 0.492290
0.000000 0.030005 0.000273
0.000373 0.021324 0.000582
0.000000 0.013678 0.000000
0.000383 0.009657 0.000667
0.000000 0.006671 0.000445
0.007621 0.004497 0.000000
0.049462 0.003225 0.000000
0.140178 0.001520 0.001437
0.284855 0.000000 0.000167
0.459443 0.000356 0.000989
0.635984 0.000033 0.019337
0.832268 0.000000 0.062047
1.000000 0.000000 0.169539
0.999731 0.051375 0.334309
1.000000 0.105120 0.483504
1.000000 0.199123 0.488985
0.999899 0.286792 0.492290
0.999899 0.286792 0.492290
0.999899 0.286792 0.492290
0.999899 0.286792 0.492290
0.999899 0.286792 0.492290
0.999899 0.286792 0.492290
0.999899 0.286792 0.492290
0.999899 0.286792 0.492290
0.999899 0.286792 0.492290
0.999899 0.286792 0.492290
0.999899 0.286792 0.492290
0.999899 0.286792 0.492290
0.999899 0.286792 0.492290
0.999899 0.286792 0.492290
0.999899 0.286792 0.492290
0.999899 0.286792 0.492290
0.999899 0.286792 0.492290
0.000000 0.073687 0.000000
0.000142 0.062996 0.000769
0.000353 0.044659 0.000411
0.000000 0.030005 0.000273
0.000373 0.021324 0.000582
0.000182 0.016664 0.000000
0.022862 0.013153 0.000803
0.091684 0.011610 0.000000
0.216811 0.009470 0.000000
0.388670 0.000000 0.000269
0.565996 0.000000 0.000000
0.751528 0.000000 0.034703
0.947217 0.000226 0.118637
1.000000 0.027477 0.258204
0.999107 0.076237 0.430648
1.000000 0.158124 0.485336
0.999335 0.260472 0.492239
0.999899 0.286792 0.492290
0.999899 0.286792 0.492290
0.999899 0.286792 0.492290
0.999899 0.286792 0.492290
0.999899 0.286792 0.492290
0.999899 0.286792 0.492290
0.999899 0.286792 0.492290
0.999899 0.286792 0.492290
0.999899 0.286792 0.492290
0.999899 0.286792 0.492290
0.999899 0.286792 0.492290
0.999899 0.286792 0.492290
0.999899 0.286792 0.492290
0.999899 0.286792 0.492290
0.999899 0.286792 0.492290
0.999899 0.286792 0.492290
0.000000 0.146677 0.000000
0.000000 0.123343 0.000000
0.000113 0.097998 0.000511
0.001693 0.078963 0.000153
0.000142 0.062996 0.000769
0.000000 0.048343 0.000633
0.003878 0.039580 0.000187
0.054907 0.035101 0.000769
0.157163 0.031475 0.000000
0.317876 0.022868 0.000000
0.499513 0.013459 0.000000
0.683492 0.004665 0.000000
0.865701 0.002851 0.036227
1.000000 0.023298 0.159738
0.999710 0.073701 0.339327
0.999844 0.121144 0.480180
0.999958 0.217797 0.487614
0.999899 0.286792 0.492290
0.999899 0.286792 0.492290
0.999899 0.286792 0.492290
0.999899 0.286792 0.492290
0.999899 0.286792 0.492290
0.999899 0.286792 0.492290
0.999899 0.286792 0.492290
0.999899 0.286792 0.492290
0.999899 0.286792 0.492290
0.999899 0.286792 0.492290
0.999899 0.286792 0.492290
0.999899 0.286792 0.492290
0.999899 0.286792 0.492290
0.999899 0.286792 0.492290
0.999899 0.286792 0.492290
0.999899 0.286792 0.492290
0.000000 0.265023 0.000000
0.000000 0.225025 0.000320
0.000036 0.191336 0.000000
0.000649 0.159321 0.000305
0.000000 0.128003 0.000785
0.000000 0.105004 0.000000
0.000000 0.090351 0.000000
0.014398 0.082343 0.000820
0.099649 0.072433 0.000000
0.250195 0.065386 0.000800
0.433784 0.058602 0.000000
0.615811 0.047518 0.000000
0.792352 0.050556 0.000109
0.983149 0.064202 0.046194
0.999511 0.107929 0.197875
0.999825 0.163298 0.383102
0.999575 0.215870 0.447144
0.999506 0.291827 0.475960
0.999114 0.290812 0.490782
0.999899 0.286792 0.492290
0.999899 0.286792 0.492290
0.999899 0.286792 0.492290
0.999899 0.286792 0.492290
0.999899 0.286792 0.492290
0.999899 0.286792 0.492290
0.999899 0.286792 0.492290
0.999899 0.286792 0.492290
0.999899 0.286792 0.492290
0.999899 0.286792 0.492290
0.999899 0.286792 0.492290
0.999899 0.286792 0.492290
0.999899 0.286792 0.492290
0.999899 0.286792 0.492290
0.000000 0.409690 0.000000
0.000000 0.366008 0.000265
0.000000 0.321350 0.000000
0.000000 0.276690 0.000000
0.000000 0.238004 0.000000
0.000000 0.200017 0.000000
0.000246 0.172999 0.000000
0.000000 0.151674 0.000000
0.042115 0.136725 0.000000
0.172135 0.128472 0.000629
0.362568 0.118200 0.000000
0.554372 0.106896 0.000095
0.724651 0.116742 0.000000
0.896491 0.130889 0.000000
0.999884 0.157820 0.051366
0.999613 0.208857 0.243293
0.999948 0.250637 0.378508
1.000000 0.302886 0.425023
0.998892 0.328211 0.452985
0.999878 0.314495 0.469621
0.999888 0.300475 0.481819
0.999114 0.291484 0.487321
0.999899 0.286792 0.492290
0.999899 0.286792 0.492290
0.999899 0.286792 0.492290
0.999899 0.286792 0.492290
0.999899 0.286792 0.492290
0.999899 0.286792 0.492290
0.999899 0.286792 0.492290
0.999899 0.286792 0.492290
0.999899 0.286792 0.492290
0.999899 0.286792 0.492290
0.999899 0.286792 0.492290
0.000000 0.552347 0.000622
0.000000 0.509698 0.000000
0.000000 0.468026 0.000000
0.000232 0.422334 0.000591
0.000000 0.377675 0.000180
0.000000 0.331007 0.000524
0.000340 0.294331 0.000000
0.000000 0.263014 0.000285
0.000187 0.243002 0.000000
0.090139 0.221982 0.000000
0.279988 0.208388 0.000129
0.480590 0.195885 0.000949
0.652833 0.196354 0.000793
0.817434 0.215661 0.000774
0.999825 0.237569 0.000669
0.999201 0.267808 0.069321
1.000000 0.309455 0.280813
0.999496 0.327019 0.354743
1.000000 0.365584 0.411727
0.999659 0.352903 0.426633
1.000000 0.341869 0.439055
0.998892 0.328211 0.452985
0.999487 0.317850 0.461945
0.999104 0.304832 0.478583
0.999697 0.294135 0.489274
0.999899 0.286792 0.492290
0.999899 0.286792 0.492290
0.999899 0.286792 0.492290
0.999899 0.286792 0.492290
0.999899 0.286792 0.492290
0.999899 0.286792 0.492290
0.999899 0.286792 0.492290
0.999899 0.286792 0.492290
0.000802 0.674993 0.000206
0.000000 0.640689 0.000465
0.000278 0.602003 0.000500
0.000000 0.564015 0.000536
0.000000 0.522343 0.000347
0.000000 0.482344 0.001136
0.000000 0.436011 0.000000
0.000000 0.401010 0.000007
0.000000 0.369692 0.000489
0.000000 0.346358 0.000660
0.158870 0.325108 0.000000
0.386655 0.305664 0.000000
0.579041 0.297346 0.000000
0.743653 0.304986 0.000000
0.926053 0.315226 0.000000
0.999544 0.337577 0.000426
0.999698 0.367398 0.112032
0.999275 0.376516 0.254648
0.999830 0.398709 0.335944
0.999628 0.397314 0.377922
1.000000 0.383599 0.394558
0.999648 0.367930 0.409241
0.999265 0.355921 0.420687
0.998884 0.343239 0.435594
0.999477 0.331533 0.451477
1.000000 0.319162 0.461192
1.000000 0.306480 0.476097
1.000000 0.297457 0.487765
0.999899 0.286792 0.492290
0.999899 0.286792 0.492290
0.999899 0.286792 0.492290
0.999899 0.286792 0.492290
0.999899 0.286792 0.492290
0.000000 0.795013 0.001301
0.000000 0.759035 0.000582
0.000000 0.722359 0.000000
0.000000 0.687357 0.000121
0.000000 0.649369 0.000155
0.000000 0.612693 0.000000
0.000106 0.574008 0.000000
0.000000 0.537694 0.000485
0.000000 0.507689 0.000211
0.000000 0.482680 0.000000
0.017015 0.458624 0.001000
0.261037 0.426151 0.000000
0.491166 0.406986 0.000000
0.672016 0.401596 0.000000
0.840543 0.402148 0.000000
0.998893 0.416262 0.000000
0.999467 0.430915 0.000000
1.000000 0.443032 0.123321
0.999810 0.441536 0.235406
0.999207 0.446088 0.316344
0.999217 0.430388 0.337196
1.000000 0.416336 0.355563
0.999237 0.400332 0.371977
1.000000 0.386281 0.390343
1.000000 0.371254 0.407734
0.999850 0.358571 0.422640
0.998884 0.343911 0.432134
1.000000 0.333854 0.445530
1.000000 0.320836 0.462168
0.999687 0.308827 0.473613
0.999305 0.296480 0.486788
0.999506 0.288466 0.493266
0.999899 0.286792 0.492290
0.000000 0.903701 0.000750
0.000000 0.873696 0.000475
0.000000 0.841682 0.000958
0.000303 0.805006 0.000237
0.000000 0.768692 0.001251
0.000000 0.734026 0.000000
0.000000 0.697015 0.000789
0.000229 0.660338 0.000070
0.000000 0.631031 0.000000
0.000000 0.604013 0.000000
0.000000 0.582353 0.000894
0.084973 0.553768 0.001031
0.375526 0.520917 0.000000
0.588449 0.502138 0.000016
0.762655 0.493228 0.000168
0.953472 0.492615 0.000000
0.999017 0.502592 0.000199
0.998614 0.516270 0.000000
0.999590 0.499098 0.093782
0.998987 0.494577 0.221441
0.999188 0.479169 0.265989
0.999198 0.463132 0.288571
0.998815 0.448434 0.313860
1.000000 0.432036 0.334711
0.999810 0.419355 0.349616
1.000000 0.401644 0.371222
1.000000 0.386953 0.386883
0.999447 0.375946 0.402766
0.999850 0.359243 0.419180
0.999467 0.347233 0.430626
0.999669 0.337875 0.444023
0.999285 0.325528 0.457198
0.999687 0.309499 0.470152
0.000000 1.000000 0.000285
0.000000 0.976691 0.000457
0.000000 0.945710 0.000000
0.000000 0.913695 0.000000
0.000043 0.881680 0.000168
0.000000 0.850361 0.000648
0.000000 0.813686 0.000000
0.000000 0.778685 0.000186
0.000745 0.744660 0.001421
0.000572 0.716665 0.000394
0.000000 0.692354 0.000000
0.000000 0.669019 0.000000
0.189112 0.634101 0.000000
0.482987 0.602506 0.000000
0.679098 0.582439 0.000000
0.864065 0.562954 0.000508
0.998977 0.549261 0.000000
0.999350 0.570921 0.000000
1.000000 0.571898 0.000000
0.999158 0.551810 0.071917
1.000000 0.532623 0.176723
0.998776 0.515939 0.206227
0.999762 0.499200 0.238437
0.999772 0.483500 0.259289
0.998805 0.465478 0.286085
0.999792 0.451427 0.304453
0.999802 0.435055 0.328765
0.999419 0.421701 0.347133
0.999429 0.406001 0.367984
0.999439 0.391309 0.383645
1.000000 0.377930 0.398550
0.999065 0.363263 0.417672
0.999073 0.348907 0.431602
0.000000 1.000000 0.000285
0.000000 1.000000 0.000285
0.000000 1.000000 0.000285
0.000000 1.000000 0.000285
0.000000 0.986349 0.001125
0.000000 0.953357 0.000628
0.000206 0.921342 0.001109
0.000000 0.890361 0.000000
0.000000 0.860020 0.001316
0.000000 0.830014 0.001043
0.000000 0.802020 0.000016
0.000132 0.776675 0.000942
0.000000 0.755350 0.000359
0.314956 0.709610 0.000254
0.578145 0.667038 0.000321
0.771135 0.638708 0.000000
0.971747 0.614874 0.000000
0.998737 0.602601 0.000000
0.999886 0.631908 0.000230
0.999109 0.624261 0.000000
0.998736 0.591847 0.055332
0.999722 0.571745 0.104847
0.999732 0.553357 0.139542
0.999350 0.536979 0.173484
0.999359 0.519262 0.204719
0.999762 0.500544 0.231516
0.999379 0.486181 0.255075
1.000000 0.469778 0.285554
0.999398 0.453437 0.303699
0.999016 0.439075 0.327257
1.000000 0.423350 0.344648
0.999035 0.409691 0.358578
0.999045 0.393991 0.379430
0.000000 1.000000 0.000285
0.000000 1.000000 0.000285
0.000000 1.000000 0.000285
0.000000 1.000000 0.000285
0.000000 1.000000 0.000285
0.000000 1.000000 0.000285
0.000000 1.000000 0.000285
0.000000 0.992043 0.000593
0.000367 0.961340 0.000321
0.000000 0.932033 0.000046
0.000000 0.903701 0.000750
0.000436 0.879670 0.000922
0.000063 0.858345 0.000339
0.000000 0.829037 0.000066
0.428113 0.758406 0.000457
0.667253 0.720041 0.000000
0.870804 0.687807 0.000000
0.999273 0.663923 0.000000
0.998879 0.665933 0.000000
0.999273 0.663923 0.000000
0.999856 0.666910 0.000000
0.999492 0.633918 0.000000
0.998334 0.614597 0.007769
0.999321 0.595505 0.052093
0.998938 0.576774 0.098149
0.999340 0.557048 0.130137
0.998958 0.539997 0.167539
1.000000 0.521583 0.198773
0.998977 0.505236 0.226548
1.000000 0.487494 0.254320
0.999973 0.473131 0.277879
0.999007 0.456119 0.299484
0.999993 0.440724 0.324773
0.000000 1.000000 0.000285
0.000000 1.000000 0.000285
0.000000 1.000000 0.000285
0.000000 1.000000 0.000285
0.000000 1.000000 0.000285
0.000000 1.000000 0.000285
0.000000 1.000000 0.000285
0.000000 1.000000 0.000285
0.000000 1.000000 0.000285
0.000000 1.000000 0.000285
0.000000 1.000000 0.000285
0.000549 0.977668 0.001434
0.000000 0.951348 0.001383
0.000000 0.929046 0.000000
0.115003 0.881434 0.000000
0.525235 0.813896 0.000000
0.754014 0.772094 0.000366
0.970078 0.738579 0.000297
0.999223 0.722259 0.000000
0.999424 0.715253 0.000606
0.999051 0.693929 0.000023
0.998468 0.690942 0.000000
0.998478 0.679275 0.000000
0.999472 0.657253 0.000000
0.999684 0.638914 0.000000
0.998917 0.618592 0.002801
0.999904 0.598828 0.050586
0.998938 0.579127 0.086035
0.999924 0.561042 0.125168
0.999541 0.543992 0.162571
0.998574 0.525298 0.192827
0.998584 0.508254 0.220600
0.999571 0.492186 0.249352
0.000000 1.000000 0.000285
0.000000 1.000000 0.000285
0.000000 1.000000 0.000285
0.000000 1.000000 0.000285
0.000000 1.000000 0.000285
0.000000 1.000000 0.000285
0.000000 1.000000 0.000285
0.000000 1.000000 0.000285
0.000000 1.000000 0.000285
0.000000 1.000000 0.000285
0.000000 1.000000 0.000285
0.000000 1.000000 0.000285
0.000000 1.000000 0.000285
0.000000 1.000000 0.000285
0.000000 1.000000 0.000285
0.251617 0.934701 0.001053
0.610819 0.871977 0.000000
0.849766 0.828280 0.000000
0.999357 0.796923 0.000005
0.999950 0.788243 0.000312
0.999587 0.755251 0.000000
0.998639 0.719273 0.000000
0.999626 0.708582 0.000161
0.998851 0.700599 0.000468
0.999051 0.693929 0.000023
0.999061 0.682261 0.000110
0.999664 0.662249 0.000000
0.999291 0.640589 0.000000
0.998526 0.621274 0.000000
0.999513 0.603190 0.037720
0.999522 0.583122 0.081067
0.999532 0.564397 0.117492
0.999541 0.545672 0.153918
0.000000 1.000000 0.000285
0.000000 1.000000 0.000285
0.000000 1.000000 0.000285
0.000000 1.000000 0.000285
0.000000 1.000000 0.000285
0.000000 1.000000 0.000285
0.000000 1.000000 0.000285
0.000000 1.000000 0.000285
0.000000 1.000000 0.000285
0.000000 1.000000 0.000285
0.000000 1.000000 0.000285
0.000000 1.000000 0.000285
0.000000 1.000000 0.000285
0.000000 1.000000 0.000285
0.000000 1.000000 0.000285
0.000000 1.000000 0.000285
0.379052 0.979845 0.000000
0.697187 0.926040 0.000000
0.948256 0.882737 0.000552
0.998521 0.858943 0.000000
0.999720 0.829914 0.000501
0.999365 0.785256 0.000090
0.999203 0.745594 0.000000
0.999998 0.729906 0.000743
0.998639 0.719273 0.000000
0.999626 0.708582 0.000161
0.999828 0.701912 0.000000
0.999051 0.693929 0.000023
0.998669 0.684270 0.000000
0.998879 0.665933 0.000000
0.999482 0.645585 0.000000
0.999109 0.624261 0.000000
0.999119 0.606208 0.031773
0.000000 1.000000 0.000285
0.000000 1.000000 0.000285
0.000000 1.000000 0.000285
0.000000 1.000000 0.000285
0.000000 1.000000 0.000285
0.000000 1.000000 0.000285
0.000000 1.000000 0.000285
0.000000 1.000000 0.000285
0.000000 1.000000 0.000285
0.000000 1.000000 0.000285
0.000000 1.000000 0.000285
0.000000 1.000000 0.000285
0.000000 1.000000 0.000285
0.000000 1.000000 0.000285
0.000000 1.000000 0.000285
0.000000 1.000000 0.000285
0.000000 1.000000 0.000285
0.487346 0.999414 0.000434
0.786304 0.967040 0.000000
0.999640 0.923252 0.000000
0.999076 0.896931 0.000000
0.998521 0.858943 0.000000
0.998562 0.812274 0.000141
0.999950 0.788243 0.000312
0.999576 0.766918 0.000000
0.999787 0.748580 0.000000
0.998237 0.732614 0.000000
0.999616 0.720250 0.000074
0.998841 0.712266 0.000383
0.999434 0.703585 0.000692
1.000000 0.695241 0.000000
0.999252 0.687257 0.000000
0.999071 0.670594 0.000196
0.000000 1.000000 0.000285
0.000000 1.000000 0.000285
0.000000 1.000000 0.000285
0.000000 1.000000 0.000285
0.000000 1.000000 0.000285
0.000000 1.000000 0.000285
0.000000 1.000000 0.000285
0.000000 1.000000 0.000285
0.000000 1.000000 0.000285
0.000000 1.000000 0.000285
0.000000 1.000000 0.000285
0.000000 1.000000 0.000285
0.000000 1.000000 0.000285
0.000000 1.000000 0.000285
0.000000 1.000000 0.000285
0.000000 1.000000 0.000285
0.000000 1.000000 0.000285
0.000000 1.000000 0.000285
0.573955 1.000000 0.000844
0.872513 0.981103 0.001097
0.998646 0.945610 0.000000
0.999057 0.920265 0.000000
0.999871 0.881580 0.000000
0.999508 0.848253 0.000859
0.998743 0.828937 0.000000
0.998953 0.810600 0.000000
0.998188 0.790949 0.000000
0.999768 0.771914 0.000000
0.999979 0.753241 0.000570
0.999213 0.733926 0.000000
1.000000 0.723236 0.000297
0.999817 0.713578 0.000000
0.999042 0.705595 0.000000
0.000000 1.000000 0.000285
0.000000 1.000000 0.000285
0.000000 1.000000 0.000285
0.000000 1.000000 0.000285
0.000000 1.000000 0.000285
0.000000 1.000000 0.000285
0.000000 1.000000 0.000285
0.000000 1.000000 0.000285
0.000000 1.000000 0.000285
0.000000 1.000000 0.000285
0.000000 1.000000 0.000285
0.000000 1.000000 0.000285
0.000000 1.000000 0.000285
0.000000 1.000000 0.000285
0.000000 1.000000 0.000285
0.000000 1.000000 0.000285
0.000000 1.000000 0.000285
0.000000 1.000000 0.000285
0.103367 1.000000 0.000386
0.646098 1.000000 0.000000
0.939571 0.982269 0.000000
0.999219 0.959928 0.000532
1.000000 0.937906 0.000000
0.998684 0.898941 0.000000
0.999479 0.883254 0.000601
0.999297 0.866926 0.000000
0.999117 0.850263 0.000106
0.999326 0.831924 0.000000
0.999538 0.813587 0.000000
0.999748 0.794913 0.000757
0.998983 0.775598 0.000000
0.999587 0.755251 0.000000
0.999797 0.736913 0.000000
0.000000 1.000000 0.000285
0.000000 1.000000 0.000285
0.000000 1.000000 0.000285
0.000000 1.000000 0.000285
0.000000 1.000000 0.000285
0.000000 1.000000 0.000285
0.000000 1.000000 0.000285
0.000000 1.000000 0.000285
0.000000 1.000000 0.000285
0.000000 1.000000 0.000285
0.000000 1.000000 0.000285
0.000000 1.000000 0.000285
0.000000 1.000000 0.000285
0.000000 1.000000 0.000285
0.000000 1.000000 0.000285
0.000000 1.000000 0.000285
0.000000 1.000000 0.000285
0.000000 1.000000 0.000285
0.000000 1.000000 0.000285
0.350490 0.999486 0.000000
0.734077 1.000000 0.000243
0.993733 0.974385 0.000446
0.999019 0.966598 0.000977
1.000000 0.949573 0.000000
0.998464 0.928946 0.000000
0.999842 0.916581 0.000000
0.999268 0.901928 0.000000
1.000000 0.886241 0.000824
0.999881 0.869913 0.000000
0.999307 0.855258 0.000000
0.998542 0.835609 0.000000
0.998753 0.817270 0.000000
0.998963 0.798933 0.000000
0.000000 1.000000 0.000285
0.000000 1.000000 0.000285
0.000000 1.000000 0.000285
0.000000 1.000000 0.000285
0.000000 1.000000 0.000285
0.000000 1.000000 0.000285
0.000000 1.000000 0.000285
0.000000 1.000000 0.000285
0.000000 1.000000 0.000285
0.000000 1.000000 0.000285
0.000000 1.000000 0.000285
0.000000 1.000000 0.000285
0.000000 1.000000 0.000285
0.000000 1.000000 0.000285
0.000000 1.000000 0.000285
0.000000 1.000000 0.000285
0.000000 1.000000 0.000285
0.000000 1.000000 0.000285
0.000000 1.000000 0.000285
0.000000 1.000000 0.000285
0.499468 0.999808 0.000879
0.819125 0.996971 0.000000
0.998626 0.968945 0.000000
0.999996 0.967911 0.000223
0.999219 0.959928 0.000532
0.998444 0.952281 0.000000
0.998061 0.942624 0.000000
0.999047 0.931933 0.000000
0.999450 0.918592 0.000000
0.998483 0.905612 0.000000
0.998302 0.888949 0.000070
0.999096 0.873596 0.000000
0.998915 0.856933 0.000552
0.000000 1.000000 0.000285
0.000000 1.000000 0.000285
0.000000 1.000000 0.000285
0.000000 1.000000 0.000285
0.000000 1.000000 0.000285
0.000000 1.000000 0.000285
0.000000 1.000000 0.000285
0.000000 1.000000 0.000285
0.000000 1.000000 0.000285
0.000000 1.000000 0.000285
0.000000 1.000000 0.000285
0.000000 1.000000 0.000285
0.000000 1.000000 0.000285
0.000000 1.000000 0.000285
0.000000 1.000000 0.000285
0.000000 1.000000 0.000285
0.000000 1.000000 0.000285
0.000000 1.000000 0.000285
0.000000 1.000000 0.000285
0.000000 1.000000 0.000285
0.000000 1.000000 0.000285
0.598590 0.999251 0.000757
0.896945 0.987224 0.000000
0.998626 0.968945 0.000000
0.998626 0.968609 0.000223
0.998626 0.968609 0.000223
0.999019 0.966598 0.000977
0.999219 0.960265 0.000000
0.998050 0.953955 0.000085
1.000000 0.944577 0.000395
0.998654 0.933944 0.000000
0.998664 0.921940 0.000566
0.999460 0.906925 0.000000
0.000000 1.000000 0.000285
0.000000 1.000000 0.000285
0.000000 1.000000 0.000285
0.000000 1.000000 0.000285
0.000000 1.000000 0.000285
0.000000 1.000000 0.000285
0.000000 1.000000 0.000285
0.000000 1.000000 0.000285
0.000000 1.000000 0.000285
0.000000 1.000000 0.000285
0.000000 1.000000 0.000285
0.000000 1.000000 0.000285
0.000000 1.000000 0.000285
0.000000 1.000000 0.000285
0.000000 1.000000 0.000285
0.000000 1.000000 0.000285
0.000000 1.000000 0.000285
0.000000 1.000000 0.000285
0.000000 1.000000 0.000285
0.000000 1.000000 0.000285
0.000000 1.000000 0.000285
0.231817 0.999814 0.000403
0.685199 1.000000 0.000000
0.959907 0.978478 0.000000
0.998626 0.968945 0.000000
