Sources/Resources/LUT/gfx-eterna-55-3d-lut-v100/33Grid/F-Log2C/FLog2C_to_ETERNA-BB_33grid_V.1.00.cube
#title:FLog2C_to_ETERNA-BB
#model:GFX ETERNA 55
#FUJIFILM Corporation
#Gamma:F-Log2C to ETERNA BLEACH BYPASS
#Gamut:F-GamutC to ITU-R BT.709
#Version:1.00
LUT_3D_SIZE 33
0.000000 0.000000 0.000000
0.000000 0.000000 0.000000
0.011729 0.002404 0.000000
0.044569 0.007320 0.008173
0.071347 0.012040 0.016428
0.105165 0.018269 0.024156
0.155984 0.029439 0.038940
0.243359 0.045779 0.059723
0.353416 0.058272 0.083657
0.456628 0.073580 0.111052
0.551412 0.109058 0.150918
0.624674 0.162998 0.203567
0.676614 0.230412 0.259899
0.715445 0.306777 0.321645
0.753503 0.376840 0.375047
0.753503 0.376840 0.375047
0.753503 0.376840 0.375047
0.753503 0.376840 0.375047
0.753503 0.376840 0.375047
0.753503 0.376840 0.375047
0.753503 0.376840 0.375047
0.753503 0.376840 0.375047
0.753503 0.376840 0.375047
0.753503 0.376840 0.375047
0.753503 0.376840 0.375047
0.753503 0.376840 0.375047
0.753503 0.376840 0.375047
0.753503 0.376840 0.375047
0.753503 0.376840 0.375047
0.753503 0.376840 0.375047
0.753503 0.376840 0.375047
0.753503 0.376840 0.375047
0.753503 0.376840 0.375047
0.000000 0.000000 0.000000
0.000000 0.000000 0.000000
0.002347 0.000279 0.000977
0.028149 0.005030 0.003066
0.057666 0.008356 0.011325
0.091090 0.016595 0.018297
0.132920 0.024301 0.031661
0.202506 0.038376 0.050797
0.308264 0.048637 0.071800
0.415774 0.067186 0.096934
0.514283 0.091586 0.132672
0.597330 0.135318 0.177952
0.663737 0.203070 0.237438
0.697102 0.271565 0.294078
0.743546 0.362751 0.362352
0.753503 0.376840 0.375047
0.753503 0.376840 0.375047
0.753503 0.376840 0.375047
0.753503 0.376840 0.375047
0.753503 0.376840 0.375047
0.753503 0.376840 0.375047
0.753503 0.376840 0.375047
0.753503 0.376840 0.375047
0.753503 0.376840 0.375047
0.753503 0.376840 0.375047
0.753503 0.376840 0.375047
0.753503 0.376840 0.375047
0.753503 0.376840 0.375047
0.753503 0.376840 0.375047
0.753503 0.376840 0.375047
0.753503 0.376840 0.375047
0.753503 0.376840 0.375047
0.753503 0.376840 0.375047
0.000000 0.000000 0.000000
0.000000 0.000000 0.000000
0.000000 0.000000 0.000000
0.014073 0.002683 0.000667
0.046913 0.007264 0.010878
0.077409 0.012237 0.016653
0.111809 0.021116 0.026332
0.169666 0.033460 0.042316
0.260958 0.043048 0.061898
0.370228 0.059561 0.084324
0.474024 0.077518 0.113672
0.563725 0.113440 0.156023
0.634440 0.173101 0.211601
0.681295 0.241294 0.268688
0.723056 0.320925 0.331633
0.753503 0.376840 0.375047
0.753503 0.376840 0.375047
0.753503 0.376840 0.375047
0.753503 0.376840 0.375047
0.753503 0.376840 0.375047
0.753503 0.376840 0.375047
0.753503 0.376840 0.375047
0.753503 0.376840 0.375047
0.753503 0.376840 0.375047
0.753503 0.376840 0.375047
0.753503 0.376840 0.375047
0.753503 0.376840 0.375047
0.753503 0.376840 0.375047
0.753503 0.376840 0.375047
0.753503 0.376840 0.375047
0.753503 0.376840 0.375047
0.753503 0.376840 0.375047
0.753503 0.376840 0.375047
0.001552 0.015294 0.002845
0.000383 0.009657 0.000667
0.000583 0.002987 0.000222
0.004691 0.000895 0.000222
0.036162 0.006845 0.006972
0.062942 0.011900 0.013499
0.094413 0.017178 0.023711
0.141518 0.028766 0.037521
0.218926 0.041339 0.052441
0.325076 0.049590 0.074199
0.430824 0.070510 0.100310
0.527965 0.095271 0.137777
0.606704 0.146758 0.188695
0.668418 0.213951 0.246227
0.705690 0.286689 0.305044
0.750573 0.373575 0.373847
0.753503 0.376840 0.375047
0.753503 0.376840 0.375047
0.753503 0.376840 0.375047
0.753503 0.376840 0.375047
0.753503 0.376840 0.375047
0.753503 0.376840 0.375047
0.753503 0.376840 0.375047
0.753503 0.376840 0.375047
0.753503 0.376840 0.375047
0.753503 0.376840 0.375047
0.753503 0.376840 0.375047
0.753503 0.376840 0.375047
0.753503 0.376840 0.375047
0.753503 0.376840 0.375047
0.753503 0.376840 0.375047
0.753503 0.376840 0.375047
0.753503 0.376840 0.375047
0.008367 0.045464 0.009507
0.005640 0.035865 0.006133
0.002326 0.022941 0.004266
0.001552 0.015294 0.002845
0.020518 0.012201 0.003290
0.053559 0.010784 0.009593
0.079754 0.012180 0.019358
0.117477 0.022652 0.029262
0.180419 0.034216 0.044493
0.277378 0.045338 0.067005
0.388602 0.064141 0.089653
0.489657 0.083157 0.120730
0.577597 0.121114 0.165788
0.646551 0.183481 0.220614
0.686953 0.253151 0.278453
0.730669 0.334736 0.343352
0.753503 0.376840 0.375047
0.753503 0.376840 0.375047
0.753503 0.376840 0.375047
0.753503 0.376840 0.375047
0.753503 0.376840 0.375047
0.753503 0.376840 0.375047
0.753503 0.376840 0.375047
0.753503 0.376840 0.375047
0.753503 0.376840 0.375047
0.753503 0.376840 0.375047
0.753503 0.376840 0.375047
0.753503 0.376840 0.375047
0.753503 0.376840 0.375047
0.753503 0.376840 0.375047
0.753503 0.376840 0.375047
0.753503 0.376840 0.375047
0.753503 0.376840 0.375047
0.014015 0.069326 0.017456
0.010895 0.061736 0.013328
0.010119 0.054089 0.011906
0.008367 0.045464 0.009507
0.013260 0.039688 0.009285
0.046693 0.036932 0.012882
0.073674 0.035654 0.017234
0.104761 0.031946 0.023315
0.150700 0.036889 0.040141
0.234370 0.042653 0.056570
0.343842 0.052831 0.076821
0.447637 0.070789 0.106169
0.542422 0.105931 0.147766
0.617838 0.156162 0.196731
0.671731 0.225529 0.255016
0.709787 0.294583 0.313609
0.753503 0.376840 0.375047
0.753503 0.376840 0.375047
0.753503 0.376840 0.375047
0.753503 0.376840 0.375047
0.753503 0.376840 0.375047
0.753503 0.376840 0.375047
0.753503 0.376840 0.375047
0.753503 0.376840 0.375047
0.753503 0.376840 0.375047
0.753503 0.376840 0.375047
0.753503 0.376840 0.375047
0.753503 0.376840 0.375047
0.753503 0.376840 0.375047
0.753503 0.376840 0.375047
0.753503 0.376840 0.375047
0.753503 0.376840 0.375047
0.753503 0.376840 0.375047
0.019665 0.093860 0.021945
0.017127 0.088247 0.023230
0.015375 0.079960 0.019102
0.014015 0.069326 0.017456
0.010895 0.061736 0.013328
0.034160 0.060540 0.018433
0.066808 0.061467 0.022254
0.095158 0.059826 0.024874
0.135821 0.061897 0.036062
0.204833 0.062999 0.046410
0.304338 0.067730 0.069452
0.408345 0.068359 0.093250
0.504316 0.087819 0.126813
0.587363 0.131552 0.172093
0.657877 0.197210 0.231578
0.693004 0.263334 0.287242
0.740232 0.350499 0.357023
0.753503 0.376840 0.375047
0.753503 0.376840 0.375047
0.753503 0.376840 0.375047
0.753503 0.376840 0.375047
0.753503 0.376840 0.375047
0.753503 0.376840 0.375047
0.753503 0.376840 0.375047
0.753503 0.376840 0.375047
0.753503 0.376840 0.375047
0.753503 0.376840 0.375047
0.753503 0.376840 0.375047
0.753503 0.376840 0.375047
0.753503 0.376840 0.375047
0.753503 0.376840 0.375047
0.753503 0.376840 0.375047
0.753503 0.376840 0.375047
0.026088 0.125367 0.031317
0.025705 0.116383 0.027188
0.021024 0.103821 0.027051
0.018879 0.097543 0.022168
0.017127 0.088247 0.023230
0.023389 0.082445 0.019547
0.061122 0.081586 0.027804
0.089079 0.081283 0.033132
0.122119 0.080874 0.034247
0.178617 0.083592 0.043394
0.268549 0.083217 0.057871
0.374508 0.086472 0.080160
0.474004 0.101189 0.111770
0.563514 0.130770 0.161575
0.633261 0.178794 0.211070
0.678174 0.234038 0.262828
0.718959 0.312358 0.326528
0.753503 0.376840 0.375047
0.753503 0.376840 0.375047
0.753503 0.376840 0.375047
0.753503 0.376840 0.375047
0.753503 0.376840 0.375047
0.753503 0.376840 0.375047
0.753503 0.376840 0.375047
0.753503 0.376840 0.375047
0.753503 0.376840 0.375047
0.753503 0.376840 0.375047
0.753503 0.376840 0.375047
0.753503 0.376840 0.375047
0.753503 0.376840 0.375047
0.753503 0.376840 0.375047
0.753503 0.376840 0.375047
0.753503 0.376840 0.375047
0.036015 0.174795 0.042023
0.032119 0.158886 0.039934
0.029199 0.144960 0.033628
0.028233 0.132317 0.032738
0.023943 0.118753 0.028164
0.022584 0.108456 0.024788
0.048588 0.105864 0.029895
0.081630 0.104110 0.037930
0.110955 0.103783 0.039797
0.158463 0.103710 0.044061
0.240572 0.105846 0.057563
0.339302 0.105282 0.067069
0.440954 0.115955 0.096727
0.538677 0.141687 0.144800
0.616832 0.189515 0.198956
0.685000 0.254222 0.260926
0.712515 0.305864 0.308331
0.753109 0.379186 0.372563
0.756039 0.381780 0.377222
0.753503 0.376840 0.375047
0.753503 0.376840 0.375047
0.753503 0.376840 0.375047
0.753503 0.376840 0.375047
0.753503 0.376840 0.375047
0.753503 0.376840 0.375047
0.753503 0.376840 0.375047
0.753503 0.376840 0.375047
0.753503 0.376840 0.375047
0.753503 0.376840 0.375047
0.753503 0.376840 0.375047
0.753503 0.376840 0.375047
0.753503 0.376840 0.375047
0.753503 0.376840 0.375047
0.050022 0.255788 0.059394
0.046527 0.227209 0.052952
0.040880 0.202676 0.048465
0.037183 0.180768 0.042468
0.034655 0.164162 0.040379
0.029782 0.147611 0.035581
0.037807 0.138766 0.034384
0.074955 0.134920 0.042417
0.106435 0.129539 0.047524
0.145537 0.129662 0.047129
0.213573 0.130123 0.054769
0.309172 0.132292 0.066984
0.412393 0.137277 0.087543
0.513642 0.159275 0.128473
0.602939 0.205177 0.189020
0.679121 0.272034 0.253165
0.721294 0.328673 0.304922
0.756039 0.385141 0.359918
0.774192 0.414684 0.391476
0.767556 0.401178 0.384194
0.760528 0.388673 0.381352
0.757992 0.383733 0.379175
0.753503 0.376840 0.375047
0.753503 0.376840 0.375047
0.753503 0.376840 0.375047
0.753503 0.376840 0.375047
0.753503 0.376840 0.375047
0.753503 0.376840 0.375047
0.753503 0.376840 0.375047
0.753503 0.376840 0.375047
0.753503 0.376840 0.375047
0.753503 0.376840 0.375047
0.753503 0.376840 0.375047
0.077498 0.356787 0.092613
0.067753 0.324360 0.079558
0.057614 0.292933 0.070942
0.051773 0.264075 0.063523
0.048279 0.235498 0.057083
0.042046 0.208650 0.048910
0.038935 0.189393 0.044867
0.069248 0.178037 0.049528
0.102097 0.171623 0.056364
0.138270 0.167136 0.061690
0.193207 0.167236 0.062718
0.281769 0.168567 0.072003
0.384406 0.170565 0.092340
0.490547 0.188802 0.122664
0.586692 0.233905 0.169367
0.674210 0.302153 0.248023
0.744129 0.375820 0.310660
0.763258 0.404994 0.350116
0.791167 0.453618 0.403469
0.789222 0.440335 0.399870
0.778873 0.427245 0.391614
0.774775 0.418007 0.389968
0.769509 0.403131 0.386147
0.762090 0.392636 0.382550
0.757992 0.383733 0.379175
0.753503 0.376840 0.375047
0.753503 0.376840 0.375047
0.753503 0.376840 0.375047
0.753503 0.376840 0.375047
0.753503 0.376840 0.375047
0.753503 0.376840 0.375047
0.753503 0.376840 0.375047
0.753503 0.376840 0.375047
0.119624 0.473108 0.137021
0.105972 0.436437 0.121788
0.091927 0.401441 0.107535
0.081203 0.367701 0.095234
0.070481 0.333960 0.082934
0.060342 0.302534 0.074317
0.055287 0.270328 0.064946
0.058629 0.249593 0.060148
0.101061 0.237961 0.068715
0.135090 0.226189 0.074352
0.183775 0.219749 0.082609
0.261002 0.218683 0.082574
0.364616 0.221995 0.102157
0.473495 0.238501 0.134211
0.578639 0.276072 0.178962
0.673203 0.339538 0.229485
0.761689 0.419756 0.312493
0.787461 0.451444 0.355856
0.807174 0.482934 0.398996
0.807759 0.483568 0.411333
0.802099 0.470702 0.406757
0.794097 0.457220 0.402938
0.788831 0.442681 0.397387
0.783756 0.432128 0.396497
0.774775 0.418007 0.389968
0.770094 0.406117 0.386371
0.763067 0.393949 0.381798
0.758969 0.384710 0.380152
0.753503 0.376840 0.375047
0.753503 0.376840 0.375047
0.753503 0.376840 0.375047
0.753503 0.376840 0.375047
0.753503 0.376840 0.375047
0.173083 0.591825 0.190745
0.157086 0.554539 0.176270
0.139326 0.520633 0.157577
0.124305 0.484661 0.142347
0.109283 0.448688 0.127117
0.096023 0.410345 0.110910
0.081586 0.376685 0.099364
0.072817 0.345234 0.087285
0.105676 0.327824 0.090746
0.142251 0.309997 0.095183
0.183315 0.299062 0.103750
0.249788 0.294215 0.117113
0.350474 0.296277 0.125113
0.460530 0.307762 0.154239
0.577210 0.343076 0.197480
0.682728 0.400627 0.249734
0.767125 0.465651 0.301764
0.815168 0.515812 0.362930
0.823172 0.523580 0.396168
0.829807 0.532717 0.425945
0.824542 0.518177 0.420395
0.816930 0.502350 0.419058
0.808342 0.486555 0.411555
0.804052 0.472991 0.406981
0.796050 0.459173 0.404891
0.790784 0.444634 0.399340
0.781803 0.430512 0.392813
0.779658 0.422890 0.394851
0.769701 0.407792 0.387348
0.763650 0.396600 0.383751
0.758969 0.385046 0.378423
0.754479 0.377816 0.376023
0.753503 0.376840 0.375047
0.210730 0.689921 0.229379
0.199412 0.664524 0.218500
0.186927 0.633156 0.207176
0.176205 0.599751 0.193145
0.161183 0.563442 0.179645
0.145770 0.529479 0.163660
0.128403 0.493564 0.145723
0.113381 0.457591 0.130492
0.099136 0.428929 0.118415
0.156236 0.411299 0.127956
0.194763 0.395425 0.134347
0.252640 0.385441 0.145313
0.344525 0.385341 0.170395
0.454583 0.398170 0.192598
0.577919 0.426344 0.229450
0.692828 0.474689 0.278773
0.779187 0.531344 0.325922
0.841697 0.586882 0.364281
0.847758 0.581029 0.395652
0.853618 0.582856 0.422277
0.847959 0.567638 0.429816
0.838978 0.552508 0.428479
0.830391 0.536040 0.424437
0.824542 0.518177 0.420395
0.818883 0.505311 0.415821
0.810295 0.488508 0.413508
0.804637 0.475641 0.408934
0.798003 0.461462 0.405113
0.792737 0.446587 0.401293
0.784733 0.433442 0.395742
0.776337 0.421970 0.391168
0.771654 0.410417 0.385840
0.764626 0.397912 0.382996
0.233150 0.758715 0.253225
0.226324 0.740211 0.246477
0.220867 0.720675 0.241458
0.210134 0.698265 0.230801
0.202534 0.672451 0.220899
0.190633 0.643732 0.211528
0.178933 0.609016 0.198249
0.165865 0.574996 0.184972
0.151428 0.542010 0.169966
0.172368 0.518879 0.165613
0.215978 0.501889 0.172980
0.265842 0.489084 0.185230
0.351475 0.484461 0.207160
0.459186 0.495666 0.235309
0.582914 0.522840 0.267723
0.703502 0.562061 0.314871
0.792026 0.604348 0.353230
0.856308 0.647863 0.380317
0.868428 0.647585 0.384223
0.870189 0.638156 0.419585
0.871176 0.624441 0.436223
0.865327 0.605906 0.435642
0.858107 0.588405 0.433328
0.850496 0.572577 0.431991
0.840932 0.554462 0.430433
0.831951 0.540004 0.425637
0.827078 0.523117 0.422569
0.818097 0.508659 0.417774
0.813225 0.491774 0.414708
0.804244 0.477652 0.408179
0.799956 0.464087 0.403605
0.792929 0.451247 0.402493
0.785316 0.436092 0.397695
0.249733 0.798987 0.267925
0.244074 0.786121 0.263351
0.239000 0.776242 0.259000
0.233734 0.761701 0.253449
0.228862 0.745151 0.248652
0.221058 0.725672 0.240925
0.213649 0.704181 0.233952
0.205655 0.680041 0.225027
0.194731 0.652635 0.214901
0.185176 0.624869 0.203047
0.234455 0.609748 0.211613
0.280996 0.596024 0.220179
0.356854 0.592294 0.237449
0.467695 0.599760 0.268082
0.589864 0.621289 0.307950
0.706746 0.651614 0.342093
0.799779 0.680147 0.370910
0.863880 0.708007 0.393421
0.893972 0.724977 0.407008
0.885978 0.700837 0.398083
0.889117 0.678707 0.435261
0.886589 0.661093 0.438363
0.878002 0.644289 0.436051
0.872152 0.625753 0.435468
0.868256 0.609507 0.435110
0.857322 0.592088 0.433551
0.852450 0.575203 0.430484
0.841123 0.559121 0.431633
0.834881 0.543270 0.426836
0.828639 0.526744 0.425499
0.820636 0.513599 0.419949
0.815763 0.497049 0.415152
0.807174 0.480582 0.411109
0.257525 0.829461 0.279027
0.255774 0.820838 0.276629
0.252068 0.809925 0.274008
0.249340 0.800661 0.268901
0.244266 0.790445 0.266281
0.239584 0.778892 0.260953
0.236664 0.764967 0.254648
0.230422 0.748778 0.251581
0.224965 0.729914 0.243102
0.217162 0.710098 0.237106
0.227733 0.695198 0.234708
0.289515 0.689457 0.247848
0.355990 0.683939 0.264672
0.463118 0.691822 0.294329
0.585487 0.707689 0.328559
0.702964 0.730005 0.359551
0.799912 0.752458 0.383706
0.867344 0.770915 0.403067
0.911318 0.786581 0.412660
0.909183 0.767963 0.411325
0.899629 0.738851 0.406391
0.900424 0.717450 0.437403
0.896920 0.699532 0.436067
0.890677 0.682671 0.436461
0.884436 0.665474 0.438585
0.879955 0.646578 0.436274
0.875082 0.629019 0.436668
0.867471 0.613191 0.435332
0.862598 0.595971 0.433996
0.854403 0.577156 0.432437
0.843469 0.559737 0.430879
0.834096 0.546617 0.428789
0.831568 0.530345 0.424968
0.259872 0.829741 0.280004
0.259872 0.829741 0.280004
0.259872 0.829741 0.280004
0.259872 0.829404 0.281735
0.257727 0.823127 0.276852
0.252652 0.813247 0.272500
0.249924 0.803646 0.269125
0.245242 0.791757 0.265528
0.242513 0.781821 0.263882
0.236856 0.769291 0.257578
0.232567 0.755728 0.253004
0.279491 0.751661 0.262239
0.342834 0.749547 0.278309
0.441163 0.759300 0.304282
0.564507 0.777488 0.332567
0.687462 0.797350 0.361828
0.793018 0.813273 0.388469
0.864366 0.825986 0.401438
0.908541 0.834644 0.412316
0.923209 0.828310 0.415024
0.918931 0.802072 0.415726
0.908792 0.769637 0.412302
0.904502 0.753385 0.421571
0.902559 0.738084 0.428356
0.899640 0.721807 0.434165
0.898481 0.703158 0.438996
0.893607 0.685937 0.437660
0.885996 0.669773 0.438054
0.879170 0.649925 0.438227
0.874297 0.633039 0.435161
0.868448 0.614168 0.436309
0.864551 0.598596 0.432488
0.853618 0.581176 0.430929
0.259872 0.829741 0.280004
0.259872 0.829741 0.280004
0.259872 0.829741 0.280004
0.259872 0.829741 0.280004
0.259872 0.829741 0.280004
0.259872 0.829741 0.280004
0.259872 0.829741 0.280004
0.255965 0.825497 0.277828
0.253237 0.815899 0.274454
0.250508 0.806298 0.271079
0.246803 0.795721 0.266727
0.244074 0.786121 0.263351
0.319338 0.790400 0.283774
0.403200 0.800151 0.304863
0.525760 0.822695 0.329910
0.657119 0.843034 0.360371
0.771083 0.860441 0.383019
0.851622 0.869274 0.400426
0.901273 0.875815 0.407844
0.932553 0.877103 0.413394
0.928465 0.855525 0.415296
0.923018 0.823314 0.415555
0.919907 0.803383 0.414973
0.913271 0.788534 0.414613
0.909375 0.772624 0.412523
0.906455 0.756010 0.420063
0.904512 0.740037 0.430309
0.900616 0.722783 0.435141
0.896720 0.705866 0.438242
0.891454 0.689982 0.439613
0.886972 0.671085 0.437301
0.883076 0.654504 0.438672
0.874880 0.636026 0.435383
0.259872 0.829741 0.280004
0.259872 0.829741 0.280004
0.259872 0.829741 0.280004
0.259872 0.829741 0.280004
0.259872 0.829741 0.280004
0.259872 0.829741 0.280004
0.259872 0.829741 0.280004
0.259872 0.829741 0.280004
0.259872 0.829741 0.280004
0.259872 0.829741 0.280004
0.257919 0.827788 0.278051
0.255190 0.817852 0.276407
0.277479 0.815678 0.280535
0.358994 0.825487 0.298919
0.472173 0.846242 0.323520
0.605093 0.871551 0.349989
0.733129 0.890970 0.376765
0.827350 0.904495 0.394085
0.888540 0.907772 0.405188
0.931940 0.909119 0.412914
0.934688 0.896057 0.413000
0.930992 0.872805 0.413926
0.927690 0.847543 0.415606
0.928092 0.834201 0.414715
0.922434 0.820328 0.415332
0.918145 0.806091 0.414218
0.915224 0.791159 0.413105
0.909960 0.775610 0.412745
0.905670 0.760030 0.418553
0.903727 0.744057 0.428801
0.903152 0.727723 0.437316
0.898280 0.710502 0.435981
0.893407 0.692607 0.438105
0.259872 0.829741 0.280004
0.259872 0.829741 0.280004
0.259872 0.829741 0.280004
0.259872 0.829741 0.280004
0.259872 0.829741 0.280004
0.259872 0.829741 0.280004
0.259872 0.829741 0.280004
0.259872 0.829741 0.280004
0.259872 0.829741 0.280004
0.259872 0.829741 0.280004
0.259872 0.829741 0.280004
0.259872 0.829741 0.280004
0.259872 0.829741 0.280004
0.312645 0.843871 0.291551
0.404127 0.858456 0.310601
0.542322 0.887311 0.339247
0.681694 0.911143 0.364960
0.795075 0.925563 0.387387
0.870338 0.931523 0.399157
0.915109 0.931837 0.408614
0.941504 0.926564 0.417934
0.939369 0.908619 0.413136
0.933911 0.887738 0.415038
0.930992 0.872805 0.413926
0.929634 0.861499 0.415742
0.926905 0.851227 0.415828
0.924961 0.837607 0.413960
0.923018 0.823314 0.415555
0.918337 0.810752 0.415419
0.916786 0.795122 0.414304
0.911520 0.779574 0.413946
0.906647 0.761343 0.417801
0.904311 0.747045 0.429024
0.259872 0.829741 0.280004
0.259872 0.829741 0.280004
0.259872 0.829741 0.280004
0.259872 0.829741 0.280004
0.259872 0.829741 0.280004
0.259872 0.829741 0.280004
0.259872 0.829741 0.280004
0.259872 0.829741 0.280004
0.259872 0.829741 0.280004
0.259872 0.829741 0.280004
0.259872 0.829741 0.280004
0.259872 0.829741 0.280004
0.259872 0.829741 0.280004
0.259872 0.829741 0.280004
0.340592 0.854900 0.298524
0.454938 0.881630 0.323571
0.605053 0.917885 0.351375
0.741497 0.938115 0.377622
0.836503 0.948629 0.391258
0.893393 0.948328 0.406351
0.930148 0.946492 0.413632
0.941887 0.936556 0.416871
0.939359 0.919950 0.414782
0.936833 0.903007 0.414422
0.937426 0.894326 0.414731
0.935675 0.885366 0.414062
0.931968 0.874117 0.413172
0.931587 0.864124 0.414235
0.928858 0.853516 0.416051
0.925545 0.840257 0.415913
0.921256 0.825685 0.416531
0.920290 0.813041 0.415641
0.915024 0.797494 0.415281
0.259872 0.829741 0.280004
0.259872 0.829741 0.280004
0.259872 0.829741 0.280004
0.259872 0.829741 0.280004
0.259872 0.829741 0.280004
0.259872 0.829741 0.280004
0.259872 0.829741 0.280004
0.259872 0.829741 0.280004
0.259872 0.829741 0.280004
0.259872 0.829741 0.280004
0.259872 0.829741 0.280004
0.259872 0.829741 0.280004
0.259872 0.829741 0.280004
0.259872 0.829741 0.280004
0.297593 0.840212 0.289905
0.372062 0.861187 0.303543
0.505366 0.895481 0.334140
0.655874 0.929726 0.362699
0.784495 0.953140 0.384509
0.865033 0.961972 0.401914
0.911172 0.961252 0.413102
0.941284 0.956904 0.416477
0.940318 0.944261 0.415586
0.940527 0.925923 0.415225
0.939359 0.919950 0.414782
0.939561 0.913279 0.414337
0.938786 0.905296 0.414644
0.935665 0.897034 0.413977
0.933911 0.887738 0.415038
0.932553 0.877103 0.413394
0.929824 0.866832 0.413480
0.928465 0.855525 0.415296
0.928867 0.841848 0.416137
0.259872 0.829741 0.280004
0.259872 0.829741 0.280004
0.259872 0.829741 0.280004
0.259872 0.829741 0.280004
0.259872 0.829741 0.280004
0.259872 0.829741 0.280004
0.259872 0.829741 0.280004
0.259872 0.829741 0.280004
0.259872 0.829741 0.280004
0.259872 0.829741 0.280004
0.259872 0.829741 0.280004
0.259872 0.829741 0.280004
0.259872 0.829741 0.280004
0.259872 0.829741 0.280004
0.259872 0.829741 0.280004
0.324957 0.848254 0.296656
0.409393 0.873331 0.314421
0.551494 0.906765 0.343511
0.699073 0.937408 0.372601
0.814011 0.957136 0.389304
0.883799 0.964877 0.406266
0.926807 0.967898 0.414969
0.941082 0.962903 0.420383
0.941486 0.949898 0.417763
0.941102 0.940240 0.417093
0.939934 0.934267 0.416648
0.940136 0.927597 0.416202
0.940336 0.920927 0.415759
0.937799 0.915650 0.415313
0.938393 0.907306 0.413891
0.936641 0.898010 0.414953
0.934888 0.889387 0.412554
0.934506 0.879393 0.413616
0.259872 0.829741 0.280004
0.259872 0.829741 0.280004
0.259872 0.829741 0.280004
0.259872 0.829741 0.280004
0.259872 0.829741 0.280004
0.259872 0.829741 0.280004
0.259872 0.829741 0.280004
0.259872 0.829741 0.280004
0.259872 0.829741 0.280004
0.259872 0.829741 0.280004
0.259872 0.829741 0.280004
0.259872 0.829741 0.280004
0.259872 0.829741 0.280004
0.259872 0.829741 0.280004
0.259872 0.829741 0.280004
0.274137 0.836749 0.283601
0.347630 0.856074 0.299722
0.452592 0.881350 0.322594
0.598016 0.916710 0.350176
0.736210 0.946237 0.375359
0.840207 0.959206 0.395609
0.899243 0.966527 0.408665
0.937559 0.968653 0.417144
0.941274 0.967900 0.419852
0.942261 0.957881 0.417454
0.939722 0.952269 0.418739
0.940901 0.946912 0.417539
0.941102 0.940240 0.417093
0.940911 0.935580 0.415895
0.939742 0.929606 0.415449
0.940336 0.920927 0.415759
0.939167 0.914953 0.415313
0.939369 0.908619 0.413136
0.259872 0.829741 0.280004
0.259872 0.829741 0.280004
0.259872 0.829741 0.280004
0.259872 0.829741 0.280004
0.259872 0.829741 0.280004
0.259872 0.829741 0.280004
0.259872 0.829741 0.280004
0.259872 0.829741 0.280004
0.259872 0.829741 0.280004
0.259872 0.829741 0.280004
0.259872 0.829741 0.280004
0.259872 0.829741 0.280004
0.259872 0.829741 0.280004
0.259872 0.829741 0.280004
0.259872 0.829741 0.280004
0.259872 0.829741 0.280004
0.311275 0.844569 0.291551
0.377730 0.862722 0.306473
0.496375 0.892355 0.330989
0.638478 0.925788 0.360079
0.768075 0.950178 0.382863
0.859950 0.963087 0.400937
0.912340 0.967561 0.411816
0.938536 0.969630 0.418121
0.942251 0.969213 0.419098
0.940297 0.966923 0.418875
0.940106 0.961927 0.419407
0.940891 0.958579 0.417454
0.939722 0.952941 0.415276
0.939533 0.947609 0.417539
0.942079 0.941217 0.418070
0.941887 0.936556 0.416871
0.940719 0.930920 0.414695
0.259872 0.829741 0.280004
0.259872 0.829741 0.280004
0.259872 0.829741 0.280004
0.259872 0.829741 0.280004
0.259872 0.829741 0.280004
0.259872 0.829741 0.280004
0.259872 0.829741 0.280004
0.259872 0.829741 0.280004
0.259872 0.829741 0.280004
0.259872 0.829741 0.280004
0.259872 0.829741 0.280004
0.259872 0.829741 0.280004
0.259872 0.829741 0.280004
0.259872 0.829741 0.280004
0.259872 0.829741 0.280004
0.259872 0.829741 0.280004
0.273160 0.835772 0.282624
0.333948 0.852053 0.296347
0.412131 0.871937 0.314421
0.544850 0.903917 0.341336
0.680306 0.934839 0.366519
0.798568 0.955823 0.385176
0.876761 0.964039 0.403336
0.923093 0.967981 0.415723
