Sources/Resources/LUT/gfx-eterna-55-3d-lut-v100/33Grid/F-Log2C/FLog2C_to_REALA-ACE_33grid_V.1.00.cube
#title:FLog2C_to_REALA-ACE
#model:GFX ETERNA 55
#FUJIFILM Corporation
#Gamma:F-Log2C to REALA ACE
#Gamut:F-GamutC to ITU-R BT.709
#Version:1.00
LUT_3D_SIZE 9
0.000000 0.000000 0.000000
0.075858 0.000000 0.000000
0.583585 0.000169 0.044711
0.914736 0.207494 0.412964
0.940825 0.327148 0.473700
0.940825 0.327148 0.473700
0.940825 0.327148 0.473700
0.940825 0.327148 0.473700
0.940825 0.327148 0.473700
0.000000 0.030005 0.000273
0.014659 0.006006 0.000000
0.349176 0.000000 0.012024
0.864799 0.111927 0.213656
0.940825 0.327148 0.473700
0.940825 0.327148 0.473700
0.940825 0.327148 0.473700
0.940825 0.327148 0.473700
0.940825 0.327148 0.473700
0.000000 0.291344 0.000000
0.000000 0.188350 0.000000
0.185233 0.130179 0.000320
0.686374 0.064923 0.007067
0.926808 0.266224 0.412981
0.940825 0.327148 0.473700
0.940825 0.327148 0.473700
0.940825 0.327148 0.473700
0.940825 0.327148 0.473700
0.324702 0.693981 0.260766
0.201665 0.556578 0.151649
0.120247 0.439843 0.083942
0.475561 0.365002 0.000000
0.953520 0.411426 0.117805
0.967334 0.441044 0.374512
0.955051 0.391915 0.419848
0.946282 0.351053 0.456222
0.940825 0.327148 0.473700
0.663656 0.929187 0.593484
0.663656 0.929187 0.593484
0.577105 0.875602 0.505336
0.425508 0.766915 0.348966
0.852994 0.708539 0.000000
0.979913 0.668690 0.000281
0.982106 0.583361 0.176910
0.979406 0.516242 0.289735
0.969086 0.452021 0.364798
0.663656 0.929187 0.593484
0.663656 0.929187 0.593484
0.663656 0.929187 0.593484
0.663656 0.929187 0.593484
0.741850 0.941773 0.589149
0.987922 0.909181 0.000208
0.986058 0.802223 0.000000
0.984535 0.751256 0.000000
0.980105 0.673687 0.000000
0.663656 0.929187 0.593484
0.663656 0.929187 0.593484
0.663656 0.929187 0.593484
0.663656 0.929187 0.593484
0.663656 0.929187 0.593484
0.866372 0.963677 0.569511
0.997600 0.970181 0.286074
0.988888 0.922161 0.000000
0.988737 0.870496 0.000243
0.663656 0.929187 0.593484
0.663656 0.929187 0.593484
0.663656 0.929187 0.593484
0.663656 0.929187 0.593484
0.663656 0.929187 0.593484
0.663656 0.929187 0.593484
0.956889 0.980405 0.511531
0.996976 0.986641 0.425675
0.996976 0.986641 0.425675
0.663656 0.929187 0.593484
0.663656 0.929187 0.593484
0.663656 0.929187 0.593484
0.663656 0.929187 0.593484
0.663656 0.929187 0.593484
0.663656 0.929187 0.593484
0.815351 0.954137 0.581129
0.996976 0.986641 0.425675
0.996976 0.986641 0.425675
0.000977 0.000000 0.006169
0.060998 0.000297 0.001250
0.541160 0.000000 0.037961
0.912793 0.195218 0.404175
0.940825 0.327148 0.473700
0.940825 0.327148 0.473700
0.940825 0.327148 0.473700
0.940825 0.327148 0.473700
0.940825 0.327148 0.473700
0.000000 0.035287 0.033067
0.010742 0.010742 0.010742
0.304014 0.000000 0.008735
0.835129 0.063323 0.173395
0.940825 0.327148 0.473700
0.940825 0.327148 0.473700
0.940825 0.327148 0.473700
0.940825 0.327148 0.473700
0.940825 0.327148 0.473700
0.006784 0.304185 0.000694
0.000000 0.209674 0.000184
0.155695 0.148508 0.000543
0.650584 0.079739 0.000000
0.924865 0.255628 0.395539
0.940825 0.327148 0.473700
0.940825 0.327148 0.473700
0.940825 0.327148 0.473700
0.940825 0.327148 0.473700
0.395224 0.746628 0.327257
0.220601 0.585126 0.169141
0.134109 0.458849 0.095352
0.429212 0.382043 0.000000
0.951567 0.415186 0.086433
0.968693 0.455375 0.357121
0.958172 0.401521 0.413593
0.947449 0.358707 0.448015
0.940825 0.327148 0.473700
0.663656 0.929187 0.593484
0.663656 0.929187 0.593484
0.614618 0.899033 0.543285
0.451683 0.787277 0.381055
0.811146 0.721479 0.000000
0.981061 0.697998 0.000555
0.984443 0.601356 0.146653
0.979790 0.530268 0.267907
0.970446 0.466351 0.347407
0.663656 0.929187 0.593484
0.663656 0.929187 0.593484
0.663656 0.929187 0.593484
0.663656 0.929187 0.593484
0.708617 0.936515 0.592028
0.987127 0.924869 0.000000
0.986048 0.813890 0.000000
0.985895 0.762225 0.000000
0.982822 0.695626 0.000000
0.663656 0.929187 0.593484
0.663656 0.929187 0.593484
0.663656 0.929187 0.593484
0.663656 0.929187 0.593484
0.663656 0.929187 0.593484
0.831771 0.957772 0.579312
0.996805 0.976122 0.334664
0.989072 0.932776 0.029898
0.988727 0.882163 0.000157
0.663656 0.929187 0.593484
0.663656 0.929187 0.593484
0.663656 0.929187 0.593484
0.663656 0.929187 0.593484
0.663656 0.929187 0.593484
0.663656 0.929187 0.593484
0.929908 0.975634 0.538327
0.996976 0.986641 0.425675
0.996976 0.986641 0.425675
0.660717 0.930196 0.630270
0.663656 0.929187 0.593484
0.663656 0.929187 0.593484
0.663656 0.929187 0.593484
0.663656 0.929187 0.593484
0.663656 0.929187 0.593484
0.790526 0.949355 0.585208
0.996976 0.986641 0.425675
0.996976 0.986641 0.425675
0.000000 0.000000 0.105164
0.060012 0.000568 0.053833
0.508703 0.000000 0.054374
0.909681 0.183353 0.362062
0.940825 0.327148 0.473700
0.940825 0.327148 0.473700
0.940825 0.327148 0.473700
0.940825 0.327148 0.473700
0.940825 0.327148 0.473700
0.000334 0.017918 0.258078
0.000000 0.000000 0.130590
0.303995 0.000649 0.124504
0.803899 0.001008 0.182117
0.940240 0.323826 0.475208
0.940825 0.327148 0.473700
0.940825 0.327148 0.473700
0.940825 0.327148 0.473700
0.940825 0.327148 0.473700
0.000502 0.279213 0.282812
0.000590 0.194037 0.181488
0.150391 0.150391 0.150391
0.620855 0.067530 0.131215
0.924080 0.251246 0.437293
0.940431 0.328821 0.474676
0.940825 0.327148 0.473700
0.940825 0.327148 0.473700
0.940825 0.327148 0.473700
0.426062 0.781713 0.468331
0.232875 0.623071 0.241391
0.140543 0.476000 0.118653
0.402613 0.389283 0.014875
0.958585 0.413481 0.222438
0.972187 0.471519 0.427590
0.959924 0.412833 0.402149
0.950570 0.368313 0.441762
0.941993 0.333793 0.470683
0.663656 0.929187 0.593484
0.663656 0.929187 0.593484
0.662680 0.928211 0.592508
0.512048 0.831496 0.440487
0.785303 0.763060 0.000000
0.988844 0.708885 0.172503
0.990473 0.615046 0.257366
0.983686 0.547186 0.264804
0.974150 0.480625 0.332722
0.663656 0.929187 0.593484
0.663656 0.929187 0.593484
0.663656 0.929187 0.593484
0.663656 0.929187 0.593484
0.683791 0.932404 0.592644
0.992191 0.937005 0.051333
0.988555 0.853831 0.000859
0.986066 0.790556 0.000000
0.982028 0.710978 0.000000
0.662287 0.929212 0.596944
0.663656 0.929187 0.593484
0.663656 0.929187 0.593484
0.663656 0.929187 0.593484
0.663656 0.929187 0.593484
0.796193 0.951561 0.584675
0.997771 0.980700 0.377085
0.992766 0.943257 0.094731
0.987740 0.892517 0.000824
0.653660 0.934209 0.722343
0.661503 0.930208 0.611012
0.663656 0.929187 0.593484
0.663656 0.929187 0.593484
0.663656 0.929187 0.593484
0.663656 0.929187 0.593484
0.909381 0.972075 0.550527
0.996976 0.986641 0.425675
0.996976 0.986641 0.425675
0.650902 0.935749 0.841575
0.652482 0.934862 0.747771
0.659348 0.930893 0.630270
0.663656 0.929187 0.593484
0.663656 0.929187 0.593484
0.663656 0.929187 0.593484
0.766676 0.945885 0.588531
0.996976 0.986641 0.425675
0.996976 0.986641 0.425675
0.000716 0.000354 0.398914
0.071902 0.000000 0.274234
0.491077 0.000000 0.247485
0.909481 0.175237 0.438650
0.941600 0.330426 0.497618
0.940825 0.327148 0.473700
0.940825 0.327148 0.473700
0.940825 0.327148 0.473700
0.940825 0.327148 0.473700
0.000496 0.000000 0.558391
0.000907 0.000310 0.424340
0.310409 0.000000 0.360481
0.791355 0.000000 0.374473
0.940805 0.331662 0.570435
0.942375 0.335384 0.512882
0.940825 0.327148 0.473700
0.940825 0.327148 0.473700
0.940825 0.327148 0.473700
0.000492 0.219970 0.647856
0.000000 0.137894 0.499364
0.097809 0.088157 0.411726
0.612229 0.045304 0.396781
0.907219 0.275695 0.604050
0.947228 0.362162 0.584996
0.942566 0.337020 0.529657
0.940825 0.327148 0.473700
0.940825 0.327148 0.473700
0.368951 0.753879 0.752883
0.161257 0.623756 0.614160
0.000528 0.453315 0.431372
0.406250 0.406250 0.406250
0.953662 0.403175 0.485433
0.975462 0.498848 0.595238
0.965351 0.441158 0.541887
0.953673 0.388148 0.502825
0.943160 0.340438 0.467668
0.651497 0.936478 0.793429
0.651697 0.935857 0.761835
0.629629 0.919451 0.698598
0.510458 0.841026 0.549780
0.778791 0.775392 0.303883
0.997977 0.714517 0.487910
0.998438 0.630498 0.490996
0.990683 0.559405 0.449089
0.977837 0.497733 0.423426
0.656408 0.931228 0.670516
0.659740 0.930227 0.624101
0.663264 0.929517 0.601382
0.663656 0.929187 0.593484
0.666002 0.929802 0.592731
0.997561 0.987611 0.436280
0.998091 0.851162 0.289418
0.996387 0.788908 0.263222
0.994100 0.721649 0.247187
0.651104 0.936136 0.804790
0.653862 0.932579 0.695942
0.662287 0.929212 0.596944
0.663656 0.929187 0.593484
0.663656 0.929187 0.593484
0.759638 0.944375 0.589063
0.997178 0.984003 0.404465
0.997821 0.958996 0.188894
0.988113 0.914178 0.000000
0.650702 0.932337 0.893933
0.650319 0.936459 0.822317
0.653660 0.934209 0.722343
0.661503 0.930208 0.611012
0.663656 0.929187 0.593484
0.663656 0.929187 0.593484
0.886507 0.968238 0.561750
0.996976 0.986641 0.425675
0.996976 0.986641 0.425675
0.647963 0.928690 0.919891
0.651679 0.931297 0.905294
0.650902 0.935749 0.841575
0.652482 0.934862 0.747771
0.659348 0.930557 0.632000
0.663656 0.929187 0.593484
0.748888 0.943283 0.588618
0.996976 0.986641 0.425675
0.996976 0.986641 0.425675
0.043101 0.000000 0.651046
0.058171 0.000000 0.552497
0.488873 0.013915 0.496466
0.883580 0.250526 0.624320
0.939991 0.361274 0.617121
0.945093 0.348250 0.559434
0.941600 0.330426 0.497618
0.940825 0.327148 0.473700
0.940825 0.327148 0.473700
0.107996 0.010836 0.680343
0.066950 0.000453 0.661566
0.307218 0.024477 0.610128
0.760455 0.195613 0.630371
0.897958 0.345787 0.678613
0.936466 0.364001 0.629458
0.944893 0.352233 0.573723
0.942375 0.335384 0.512882
0.940825 0.327148 0.473700
0.170933 0.242257 0.788499
0.177867 0.141495 0.749474
0.149212 0.054255 0.674191
0.595270 0.165589 0.669970
0.856683 0.355567 0.770773
0.915125 0.390726 0.684884
0.930990 0.365446 0.636379
0.945668 0.356854 0.590718
0.942566 0.337020 0.529657
0.275535 0.689810 0.856644
0.217937 0.599449 0.847653
0.131063 0.457800 0.802613
0.388230 0.374411 0.771652
0.898436 0.459301 0.769606
0.958599 0.529010 0.732578
0.959041 0.478074 0.685309
0.955959 0.432217 0.638261
0.950733 0.378737 0.593254
0.595400 0.896221 0.907985
0.563748 0.876633 0.886277
0.533465 0.859034 0.850726
0.457071 0.810179 0.788671
0.769531 0.769531 0.769531
0.998914 0.710071 0.756765
0.997222 0.642534 0.697777
0.990826 0.583754 0.648863
0.981109 0.523717 0.597996
0.651487 0.934030 0.866024
0.650319 0.936459 0.822317
0.650127 0.935831 0.800352
0.652865 0.937461 0.784778
0.651697 0.936193 0.760106
0.959245 0.949861 0.611232
0.998636 0.836292 0.621547
0.998886 0.781032 0.571347
0.998552 0.721440 0.527848
0.647963 0.928690 0.919891
0.651093 0.933016 0.880843
0.651104 0.936136 0.804790
0.654838 0.933219 0.698647
0.659348 0.930221 0.633731
0.733434 0.942546 0.641508
0.995396 0.989208 0.510828
0.996976 0.976895 0.475860
0.998415 0.933847 0.273997
0.647963 0.928690 0.919891
0.647963 0.928690 0.919891
0.650702 0.932337 0.893933
0.650319 0.936123 0.824046
0.652292 0.933897 0.727535
0.658563 0.930880 0.649527
0.860313 0.962807 0.572750
0.997168 0.988277 0.442449
0.997168 0.988949 0.438989
0.647963 0.928690 0.919891
0.647963 0.928690 0.919891
0.647963 0.928690 0.919891
0.651679 0.931297 0.905294
0.650902 0.935749 0.841575
0.651697 0.936530 0.758375
0.743391 0.947226 0.702655
0.993837 0.988606 0.492325
0.997168 0.988277 0.442449
0.108580 0.013151 0.684027
0.141218 0.025410 0.689492
0.491455 0.155170 0.721783
0.844160 0.361793 0.805829
0.895967 0.382773 0.716117
0.918859 0.371341 0.663535
0.939991 0.361274 0.617121
0.945093 0.348250 0.559434
0.942184 0.333748 0.496110
0.135148 0.035200 0.697836
0.119523 0.018566 0.687403
0.350119 0.128281 0.759785
0.754651 0.320786 0.814859
0.850604 0.372655 0.801527
0.890490 0.383210 0.728231
0.912599 0.375127 0.677602
0.934704 0.366036 0.632163
0.944893 0.352233 0.573723
0.190189 0.134547 0.752934
0.176738 0.092550 0.730337
0.249274 0.089245 0.737000
0.629975 0.253938 0.800762
0.841020 0.372832 0.825754
0.873648 0.406168 0.782679
0.884621 0.385992 0.737859
0.907121 0.376236 0.686255
0.930990 0.365446 0.636379
0.190643 0.510743 0.836312
0.179728 0.470663 0.831465
0.168239 0.415928 0.826480
0.450014 0.359596 0.831516
0.866744 0.465544 0.854844
0.900330 0.519158 0.833339
0.908383 0.484722 0.783945
0.912529 0.444698 0.739296
0.916676 0.405011 0.692917
0.453155 0.802145 0.866011
0.423648 0.786144 0.863030
0.376945 0.758863 0.860445
0.312654 0.721973 0.859230
0.721066 0.710005 0.946160
0.937705 0.697529 0.913348
0.960245 0.647825 0.827476
0.960877 0.600541 0.786598
0.964640 0.550525 0.743011
0.647963 0.928690 0.919891
0.646986 0.927378 0.920644
0.646986 0.927378 0.920644
0.620217 0.910656 0.914203
0.587195 0.892436 0.889035
0.903320 0.903320 0.903320
0.998415 0.823616 0.841590
0.999047 0.776668 0.798981
0.997536 0.723443 0.751488
0.647963 0.928690 0.919891
0.647963 0.928690 0.919891
0.647963 0.928690 0.919891
0.651093 0.933016 0.880843
0.651687 0.936098 0.820586
0.692934 0.944514 0.814691
0.995156 0.995162 0.754926
0.998134 0.948157 0.715023
0.998374 0.904900 0.663007
0.647963 0.928690 0.919891
0.647963 0.928690 0.919891
0.647963 0.928690 0.919891
0.647963 0.928690 0.919891
0.650702 0.932337 0.893933
0.651295 0.935755 0.831946
0.835247 0.968348 0.798430
0.994793 0.990736 0.607339
0.994803 0.989487 0.553781
0.647963 0.928690 0.919891
0.647963 0.928690 0.919891
0.647963 0.928690 0.919891
0.647963 0.928690 0.919891
0.647963 0.928690 0.919891
0.651285 0.932635 0.907999
0.700353 0.946944 0.859820
0.978536 0.993493 0.781414
0.994591 0.991358 0.638933
0.121859 0.029506 0.693484
0.164073 0.046869 0.707516
0.547894 0.215791 0.792711
0.841020 0.372832 0.825754
0.856645 0.393834 0.813691
0.874645 0.387507 0.764793
0.894598 0.383134 0.717848
0.917489 0.371703 0.665266
0.939991 0.361274 0.617121
0.134171 0.034223 0.696859
0.130849 0.032631 0.696637
0.397024 0.147547 0.768848
0.788064 0.341029 0.820017
0.841020 0.372832 0.825754
0.851167 0.394943 0.822344
0.869752 0.390931 0.777129
0.890490 0.383210 0.728231
0.912599 0.375127 0.677602
0.154105 0.042766 0.703386
0.150783 0.041174 0.703164
0.235793 0.079225 0.729718
0.662805 0.271530 0.803965
0.841020 0.372832 0.825754
0.847453 0.393346 0.831750
0.848038 0.395996 0.833703
0.865644 0.391343 0.785782
0.884621 0.385992 0.737859
0.156983 0.320864 0.814387
0.182873 0.226996 0.784372
0.182701 0.200681 0.774691
0.437608 0.239930 0.794923
0.839239 0.396858 0.835211
0.865385 0.455246 0.851468
0.867137 0.463869 0.853867
0.868525 0.444543 0.829813
0.875591 0.418781 0.789737
0.454132 0.803122 0.866988
0.280418 0.695701 0.856337
0.212672 0.584236 0.845562
0.207616 0.551022 0.841383
0.645316 0.590100 0.905610
0.908648 0.611532 0.901254
0.909817 0.617170 0.903430
0.908677 0.581909 0.873824
0.911062 0.543584 0.833613
0.647963 0.928690 0.919891
0.646986 0.927378 0.920644
0.595400 0.896221 0.907985
0.479926 0.819204 0.870723
0.455502 0.802088 0.868719
0.834941 0.829730 0.981879
0.966158 0.799842 0.945813
0.966197 0.760230 0.909816
0.967022 0.716934 0.873598
0.647963 0.928690 0.919891
0.647963 0.928690 0.919891
0.647963 0.928690 0.919891
0.647963 0.928690 0.919891
0.646986 0.927378 0.920644
0.656953 0.931482 0.924774
0.972073 0.970005 0.970703
0.998316 0.924157 0.923793
0.999333 0.886194 0.885313
0.647963 0.928690 0.919891
0.647963 0.928690 0.919891
0.647963 0.928690 0.919891
0.647963 0.928690 0.919891
0.647963 0.928690 0.919891
0.646986 0.927041 0.922375
0.785374 0.965599 0.926262
0.994946 0.998041 0.834887
0.994956 0.996792 0.781328
0.647963 0.928690 0.919891
0.647963 0.928690 0.919891
0.647963 0.928690 0.919891
0.647963 0.928690 0.919891
0.647963 0.928690 0.919891
0.646986 0.927378 0.920644
0.660276 0.932737 0.926727
0.935297 0.995177 0.963251
0.997482 0.998612 0.859559
0.121859 0.029506 0.693484
0.139840 0.036094 0.698059
0.544572 0.214200 0.792487
0.841020 0.372832 0.825754
0.841020 0.372832 0.825754
0.844331 0.385419 0.829351
0.856645 0.393834 0.813691
0.874645 0.387507 0.764793
0.894598 0.383134 0.717848
0.133195 0.032911 0.697614
0.130849 0.032631 0.696637
0.310835 0.112837 0.753874
0.759925 0.324331 0.817036
0.841020 0.372832 0.825754
0.841020 0.372832 0.825754
0.844142 0.380758 0.828153
0.851167 0.394943 0.822344
0.869752 0.390931 0.777129
0.153129 0.041454 0.704141
0.146484 0.038605 0.701965
0.179314 0.054853 0.712089
0.554540 0.218976 0.793157
0.841020 0.372832 0.825754
0.841020 0.372832 0.825754
0.841020 0.372832 0.825754
0.843556 0.377772 0.827929
0.848038 0.395996 0.833703
0.157335 0.364178 0.821719
0.190332 0.193846 0.772738
0.167394 0.048462 0.707738
0.350119 0.128281 0.759785
0.762272 0.324947 0.816282
0.841020 0.372832 0.825754
0.844916 0.388405 0.829574
0.847453 0.393346 0.831750
0.848038 0.395996 0.833703
0.479926 0.819204 0.870723
0.316953 0.724878 0.858699
0.212672 0.584236 0.845562
0.189553 0.412778 0.829634
0.547939 0.385715 0.842805
0.880779 0.511871 0.870743
0.881171 0.510197 0.869766
0.878050 0.502271 0.867368
0.874738 0.489684 0.863769
0.647963 0.928690 0.919891
0.647963 0.928690 0.919891
0.619240 0.909343 0.914957
0.506303 0.837264 0.879870
0.360143 0.744899 0.865055
0.747070 0.708422 0.946074
0.934957 0.707231 0.930566
0.930668 0.693668 0.925993
0.923067 0.667517 0.917820
0.647963 0.928690 0.919891
0.647963 0.928690 0.919891
0.647963 0.928690 0.919891
0.647963 0.928690 0.919891
0.646986 0.927378 0.920644
0.656953 0.931146 0.926504
0.907600 0.911411 0.996063
0.979973 0.872813 0.979288
0.973539 0.852301 0.973293
0.647963 0.928690 0.919891
0.647963 0.928690 0.919891
0.647963 0.928690 0.919891
0.647963 0.928690 0.919891
0.647963 0.928690 0.919891
0.646986 0.927041 0.922375
0.745104 0.955133 0.948708
0.998047 0.998047 0.998047
0.996296 0.991776 0.983535
0.647963 0.928690 0.919891
0.647963 0.928690 0.919891
0.647963 0.928690 0.919891
0.647963 0.928690 0.919891
0.647963 0.928690 0.919891
0.646986 0.927378 0.920644
0.652262 0.930588 0.924551
0.908316 0.991414 0.984855
0.998047 0.998047 0.998047
0.124205 0.029784 0.694460
0.126551 0.030399 0.693708
0.411289 0.154891 0.770714
0.830076 0.366744 0.825839
0.841020 0.372832 0.825754
0.841020 0.372832 0.825754
0.841020 0.372832 0.825754
0.844331 0.385419 0.829351
0.856645 0.393834 0.813691
0.133195 0.032911 0.697614
0.130849 0.032631 0.696637
0.231494 0.076657 0.728520
0.638964 0.257738 0.800453
0.841020 0.372832 0.825754
0.841020 0.372832 0.825754
0.841020 0.372832 0.825754
0.841020 0.372832 0.825754
0.844142 0.380758 0.828153
0.154105 0.042766 0.703386
0.147461 0.039582 0.702942
0.164073 0.046869 0.707516
0.427900 0.162177 0.775289
0.819526 0.359318 0.823219
0.841020 0.372832 0.825754
0.841020 0.372832 0.825754
0.841020 0.372832 0.825754
0.841020 0.372832 0.825754
0.166286 0.413639 0.826258
0.181111 0.229703 0.783616
0.200004 0.091353 0.735442
0.310835 0.112837 0.753874
0.661828 0.270217 0.804719
0.841020 0.372832 0.825754
0.841020 0.372832 0.825754
0.841020 0.372832 0.825754
0.841020 0.372832 0.825754
0.510601 0.839833 0.881071
0.371670 0.754982 0.860001
0.225740 0.619936 0.850188
0.181893 0.454614 0.831329
0.506310 0.369993 0.835918
0.824188 0.393198 0.833567
0.844142 0.380758 0.828153
0.843748 0.382432 0.829129
0.844916 0.388405 0.829574
0.647963 0.928690 0.919891
0.647963 0.928690 0.919891
0.639365 0.923219 0.919222
0.535025 0.856277 0.886535
0.399809 0.771679 0.862979
0.716365 0.720106 0.949312
0.926771 0.678094 0.922171
0.894422 0.560209 0.885887
0.888189 0.533361 0.877715
0.647963 0.928690 0.919891
0.647963 0.928690 0.919891
0.647963 0.928690 0.919891
0.647963 0.928690 0.919891
0.646986 0.927378 0.920644
0.652262 0.930251 0.926282
0.878848 0.925721 0.997793
0.974515 0.853277 0.974269
0.951711 0.774825 0.949753
0.647963 0.928690 0.919891
0.647963 0.928690 0.919891
0.647963 0.928690 0.919891
0.647963 0.928690 0.919891
0.647963 0.928690 0.919891
0.646986 0.927041 0.922375
0.721063 0.949018 0.940450
0.998047 0.998047 0.998047
0.997080 0.985066 0.998887
0.647963 0.928690 0.919891
0.647963 0.928690 0.919891
0.647963 0.928690 0.919891
0.647963 0.928690 0.919891
0.647963 0.928690 0.919891
0.646986 0.927378 0.920644
0.652262 0.930588 0.924551
0.890919 0.987812 0.980504
0.998047 0.998047 0.998047
