Sources/Resources/LUT/gfx-eterna-55-3d-lut-v100/33Grid/F-Log2C/FLog2C_to_CLASSIC-Neg._33grid_V.1.00.cube
#title:FLog2C_to_CLASSIC-Neg.
#model:GFX ETERNA 55
#FUJIFILM Corporation
#Gamma:F-Log2C to CLASSIC Neg.
#Gamut:F-GamutC to ITU-R BT.709
#Version:1.00
LUT_3D_SIZE 9
0.000000 0.000000 0.000000
0.081717 0.006499 0.000633
0.554813 0.046885 0.000000
0.944140 0.162558 0.164602
0.951060 0.281893 0.277250
0.951060 0.281893 0.277250
0.951060 0.281893 0.277250
0.951060 0.281893 0.277250
0.951060 0.281893 0.277250
0.000000 0.033993 0.004934
0.011335 0.004414 0.000000
0.245151 0.019833 0.000167
0.886342 0.103401 0.029731
0.951060 0.281893 0.277250
0.951060 0.281893 0.277250
0.951060 0.281893 0.277250
0.951060 0.281893 0.277250
0.951060 0.281893 0.277250
0.005110 0.195838 0.031863
0.003405 0.130559 0.021242
0.103536 0.100009 0.001590
0.701567 0.133595 0.000000
0.945843 0.223469 0.197718
0.951060 0.281893 0.277250
0.951060 0.281893 0.277250
0.951060 0.281893 0.277250
0.951060 0.281893 0.277250
0.020162 0.649389 0.106965
0.014249 0.479561 0.080343
0.010458 0.340017 0.054972
0.362614 0.297869 0.000000
0.938508 0.370843 0.066320
0.953702 0.400532 0.259085
0.952180 0.347883 0.268612
0.952018 0.307214 0.272863
0.951060 0.281893 0.277250
0.030076 0.940424 0.158598
0.028363 0.886811 0.147891
0.024717 0.807911 0.135401
0.022842 0.715646 0.118562
0.844980 0.705381 0.002492
0.955268 0.649989 0.161216
0.956314 0.557532 0.223359
0.954811 0.479533 0.243442
0.952715 0.411223 0.258023
0.030267 0.945420 0.158066
0.030267 0.945420 0.158066
0.030267 0.945420 0.158066
0.030267 0.945420 0.158066
0.139780 0.916659 0.138858
0.954478 0.918227 0.024211
0.957094 0.821091 0.072066
0.958904 0.746941 0.140739
0.956426 0.662924 0.185801
0.030267 0.945420 0.158066
0.030267 0.945420 0.158066
0.030267 0.945420 0.158066
0.030267 0.945420 0.158066
0.029291 0.944444 0.157090
0.641216 0.979172 0.078012
0.943094 0.970469 0.033497
0.951922 0.935614 0.027055
0.956260 0.891849 0.026868
0.030267 0.945420 0.158066
0.030267 0.945420 0.158066
0.030267 0.945420 0.158066
0.030267 0.945420 0.158066
0.030267 0.945420 0.158066
0.029291 0.944444 0.157090
0.871909 0.992377 0.047427
0.933883 0.995666 0.039270
0.936038 0.991285 0.039047
0.034547 0.945446 0.292339
0.028899 0.946117 0.158066
0.030267 0.945420 0.158066
0.030267 0.945420 0.158066
0.030267 0.945420 0.158066
0.029291 0.944444 0.157090
0.363014 0.964022 0.114715
0.933883 0.995666 0.039270
0.933883 0.995666 0.039270
0.000977 0.000305 0.004438
0.069596 0.006105 0.000187
0.484241 0.039469 0.000113
0.943566 0.151601 0.145429
0.951060 0.281893 0.277250
0.951060 0.281893 0.277250
0.951060 0.281893 0.277250
0.951060 0.281893 0.277250
0.951060 0.281893 0.277250
0.000938 0.040251 0.038702
0.006443 0.008511 0.007813
0.214264 0.015861 0.000000
0.866409 0.096538 0.014552
0.951060 0.281893 0.277250
0.951060 0.281893 0.277250
0.951060 0.281893 0.277250
0.951060 0.281893 0.277250
0.951060 0.281893 0.277250
0.009762 0.228278 0.109613
0.005542 0.144471 0.046804
0.090427 0.108290 0.010466
0.641545 0.134276 0.000000
0.945462 0.217172 0.179745
0.951060 0.281893 0.277250
0.951060 0.281893 0.277250
0.951060 0.281893 0.277250
0.951060 0.281893 0.277250
0.024987 0.703440 0.218621
0.017914 0.530085 0.118960
0.011023 0.365330 0.060215
0.309620 0.309711 0.008898
0.924233 0.378527 0.047061
0.953299 0.414545 0.256515
0.952564 0.358213 0.265821
0.952794 0.314861 0.274285
0.951060 0.281893 0.277250
0.028899 0.946117 0.158066
0.027568 0.901491 0.151489
0.025482 0.827226 0.136738
0.022631 0.733311 0.122383
0.813490 0.720077 0.009413
0.956618 0.674642 0.150661
0.956102 0.577214 0.216796
0.956362 0.496171 0.239363
0.954658 0.425515 0.256430
0.030267 0.945420 0.158066
0.030267 0.945420 0.158066
0.030267 0.945420 0.158066
0.030267 0.945420 0.158066
0.030096 0.918433 0.151849
0.953100 0.930255 0.025855
0.959621 0.835009 0.088000
0.959087 0.765958 0.128007
0.958561 0.683894 0.175024
0.029876 0.945414 0.167695
0.030267 0.945420 0.158066
0.030267 0.945420 0.158066
0.030267 0.945420 0.158066
0.030267 0.945420 0.158066
0.461744 0.968164 0.099995
0.939763 0.980208 0.034919
0.951329 0.943958 0.028477
0.956643 0.902514 0.022343
0.042924 0.944627 0.480172
0.034557 0.944869 0.235320
0.030267 0.945420 0.158066
0.030267 0.945420 0.158066
0.030267 0.945420 0.158066
0.029291 0.944444 0.157090
0.828115 0.990352 0.052790
0.933883 0.995666 0.039270
0.934277 0.993993 0.038294
0.053042 0.943264 0.777606
0.044676 0.943170 0.534485
0.034547 0.945446 0.292339
0.028899 0.946117 0.158066
0.030267 0.945420 0.158066
0.029291 0.944444 0.157090
0.250209 0.957198 0.128765
0.933883 0.995666 0.039270
0.933883 0.995666 0.039270
0.014255 0.005232 0.072731
0.071157 0.005363 0.025613
0.428134 0.033396 0.000000
0.941432 0.139370 0.111215
0.951060 0.281893 0.277250
0.951060 0.281893 0.277250
0.951060 0.281893 0.277250
0.951060 0.281893 0.277250
0.951060 0.281893 0.277250
0.027305 0.050488 0.148133
0.023438 0.012012 0.082274
0.213086 0.013826 0.038102
0.843736 0.086366 0.023597
0.950870 0.277906 0.272590
0.951060 0.281893 0.277250
0.951060 0.281893 0.277250
0.951060 0.281893 0.277250
0.951060 0.281893 0.277250
0.019661 0.273387 0.322528
0.010970 0.172460 0.188273
0.107997 0.121739 0.109290
0.629214 0.141801 0.052383
0.946045 0.213773 0.212848
0.951060 0.281893 0.277250
0.951060 0.281893 0.277250
0.951060 0.281893 0.277250
0.951060 0.281893 0.277250
0.041701 0.748136 0.595672
0.030321 0.603374 0.394358
0.018567 0.428213 0.239187
0.323252 0.346190 0.145089
0.921073 0.394753 0.160262
0.957569 0.439681 0.321485
0.953922 0.369183 0.265734
0.951807 0.325887 0.271491
0.952229 0.288203 0.275965
0.048763 0.943576 0.641602
0.041383 0.912290 0.505101
0.035008 0.850003 0.354261
0.029227 0.767273 0.264297
0.801713 0.746099 0.163305
0.963022 0.701255 0.305218
0.960170 0.604988 0.302976
0.956736 0.515480 0.250329
0.953863 0.441875 0.251374
0.039420 0.944521 0.387121
0.036500 0.944374 0.309866
0.033187 0.946575 0.230128
0.028899 0.946117 0.158066
0.030479 0.927754 0.154245
0.947212 0.937553 0.132219
0.965451 0.844953 0.252806
0.962772 0.782057 0.223903
0.959517 0.703835 0.198325
0.050907 0.943131 0.681093
0.041564 0.944076 0.426613
0.030852 0.946390 0.168671
0.030267 0.945420 0.158066
0.030267 0.945420 0.158066
0.288919 0.960004 0.124156
0.939168 0.988552 0.036340
0.949758 0.950653 0.032383
0.954872 0.911512 0.049191
0.058692 0.942593 0.911879
0.052661 0.942345 0.731946
0.042924 0.944291 0.481901
0.034163 0.946206 0.238027
0.030267 0.945420 0.158066
0.029291 0.944444 0.157090
0.780609 0.988408 0.058906
0.933883 0.995666 0.039270
0.933883 0.995666 0.039270
0.063564 0.943011 0.999738
0.061228 0.942155 0.941743
0.053042 0.943264 0.777606
0.045652 0.943810 0.537191
0.035523 0.945077 0.300238
0.030267 0.945420 0.158066
0.161646 0.951834 0.140246
0.933883 0.995666 0.039270
0.933883 0.995666 0.039270
0.061140 0.022628 0.211407
0.093224 0.013703 0.130383
0.439270 0.029694 0.074165
0.940063 0.128977 0.168320
0.951836 0.285844 0.297707
0.951060 0.281893 0.277250
0.951060 0.281893 0.277250
0.951060 0.281893 0.277250
0.951060 0.281893 0.277250
0.106044 0.067695 0.375559
0.072084 0.024683 0.232086
0.249621 0.020822 0.154675
0.842166 0.072225 0.134792
0.954565 0.284354 0.358187
0.951635 0.289826 0.311996
0.951060 0.281893 0.277250
0.951060 0.281893 0.277250
0.951060 0.281893 0.277250
0.107521 0.342844 0.685305
0.067198 0.211428 0.465488
0.153109 0.143765 0.297309
0.657724 0.150586 0.206497
0.952086 0.209075 0.358258
0.955895 0.324277 0.388992
0.952803 0.293448 0.324555
0.951060 0.281893 0.277250
0.951060 0.281893 0.277250
0.056675 0.779264 0.935801
0.047015 0.667037 0.793735
0.035262 0.501957 0.586649
0.390615 0.400948 0.397461
0.925715 0.413991 0.365979
0.964929 0.489596 0.482039
0.958162 0.415205 0.403126
0.955100 0.350382 0.333753
0.951050 0.293897 0.275434
0.062205 0.935403 0.982519
0.058912 0.910907 0.920259
0.053494 0.865538 0.808292
0.043998 0.795326 0.655056
0.810634 0.771075 0.473879
0.972154 0.725370 0.525448
0.968910 0.638842 0.482653
0.962153 0.553119 0.402094
0.959300 0.469623 0.334093
0.055379 0.942104 0.845986
0.052459 0.942294 0.767000
0.050123 0.942783 0.702082
0.046810 0.943638 0.629266
0.044686 0.927469 0.555337
0.947353 0.940057 0.444473
0.974594 0.853366 0.493887
0.970939 0.796216 0.429398
0.964946 0.726447 0.367480
0.062194 0.943708 0.999738
0.057523 0.942332 0.882016
0.050907 0.942795 0.682824
0.041564 0.943740 0.428343
0.036692 0.944666 0.333562
0.210302 0.954519 0.281491
0.947928 0.989662 0.264640
0.962423 0.951637 0.285355
0.965977 0.915589 0.264625
0.065911 0.943290 1.000000
0.063564 0.943011 0.999738
0.058692 0.942256 0.913610
0.051291 0.943043 0.731946
0.044484 0.943886 0.505597
0.035332 0.944787 0.276543
0.724693 0.985652 0.065554
0.933883 0.995666 0.039270
0.933883 0.995666 0.039270
0.067279 0.942593 1.000000
0.064934 0.942313 0.999738
0.063564 0.943011 0.999738
0.061228 0.942155 0.941743
0.053042 0.943264 0.777606
0.047011 0.942345 0.601133
0.184682 0.951309 0.356656
0.940318 0.995344 0.152556
0.933883 0.995666 0.039270
0.148639 0.069175 0.521774
0.148688 0.043775 0.352618
0.501799 0.037365 0.239020
0.941814 0.107691 0.324730
0.958633 0.316833 0.420140
0.954545 0.307016 0.361477
0.951836 0.285844 0.297707
0.951060 0.281893 0.277250
0.951060 0.281893 0.277250
0.254921 0.116131 0.729375
0.164073 0.076108 0.556965
0.339878 0.055075 0.401188
0.855828 0.059924 0.342191
0.957705 0.250463 0.455933
0.957263 0.315850 0.428793
0.956690 0.311278 0.376742
0.951635 0.289826 0.311996
0.951060 0.281893 0.277250
0.340855 0.420245 0.916891
0.235426 0.270124 0.801383
0.274243 0.176853 0.631595
0.733916 0.164775 0.481844
0.959295 0.201612 0.549104
0.959589 0.326692 0.495355
0.958633 0.313472 0.437445
0.956488 0.315260 0.391030
0.952803 0.293448 0.324555
0.226349 0.796688 1.000000
0.183994 0.713639 0.999743
0.156556 0.579077 0.899379
0.541044 0.469719 0.728165
0.938361 0.435284 0.634354
0.971133 0.525568 0.623200
0.966701 0.462115 0.550367
0.962068 0.404660 0.481441
0.957636 0.341543 0.406879
0.065346 0.916969 1.000000
0.063211 0.898352 0.999327
0.061085 0.867733 0.999808
0.110012 0.817699 0.957781
0.843215 0.793853 0.785121
0.981096 0.746504 0.735828
0.976665 0.682378 0.666458
0.971466 0.600955 0.585366
0.966663 0.518866 0.498109
0.064541 0.943988 1.000000
0.063564 0.943011 0.999738
0.062194 0.943708 0.999738
0.062005 0.942073 0.982965
0.058510 0.922231 0.931532
0.947305 0.936221 0.764179
0.983544 0.859137 0.723387
0.979295 0.811339 0.655129
0.974863 0.748558 0.578836
0.067279 0.942593 1.000000
0.064934 0.942313 0.999738
0.062194 0.943708 0.999738
0.057523 0.942332 0.882016
0.053436 0.941927 0.774898
0.240336 0.952771 0.751406
0.967420 0.988648 0.629922
0.979188 0.949424 0.604000
0.978442 0.916858 0.550923
0.067279 0.942593 1.000000
0.067279 0.942593 1.000000
0.065911 0.943290 1.000000
0.063564 0.943011 0.999738
0.059668 0.942560 0.918047
0.054019 0.941217 0.794157
0.723055 0.982607 0.539547
0.951623 0.993759 0.362351
0.947918 0.994608 0.299163
0.067279 0.942593 1.000000
0.067279 0.942593 1.000000
0.067279 0.942593 1.000000
0.064934 0.942313 0.999738
0.063564 0.943011 0.999738
0.060837 0.942485 0.949642
0.331033 0.958604 0.834707
0.959014 0.994222 0.597574
0.951231 0.994088 0.370249
0.350473 0.159160 0.831145
0.281519 0.110236 0.707101
0.638949 0.092133 0.548152
0.949033 0.083855 0.539890
0.960394 0.294633 0.521262
0.958633 0.307759 0.466864
0.958633 0.316833 0.420140
0.954545 0.307016 0.361477
0.951444 0.287182 0.300414
0.569943 0.245786 0.905962
0.387410 0.172308 0.846461
0.543674 0.132992 0.724712
0.892506 0.097991 0.623929
0.962416 0.200464 0.598228
0.962156 0.289573 0.534129
0.959609 0.306718 0.478222
0.957263 0.315850 0.428793
0.956690 0.311278 0.376742
0.657201 0.399108 0.941285
0.594903 0.320864 0.925062
0.550623 0.214974 0.849730
0.829466 0.177222 0.741086
0.966705 0.191510 0.718743
0.964674 0.302724 0.614004
0.962156 0.287221 0.546242
0.961371 0.301659 0.491089
0.958633 0.313472 0.437445
0.492890 0.721041 0.999515
0.496827 0.690618 1.000000
0.480647 0.633980 1.000000
0.741367 0.523617 0.901790
0.954350 0.451302 0.818333
0.975058 0.486648 0.727644
0.969047 0.441893 0.656902
0.966559 0.392062 0.585938
0.961916 0.346274 0.516926
0.171152 0.872926 1.000000
0.189735 0.860513 0.999378
0.200890 0.847927 1.000000
0.383512 0.828163 1.000000
0.880133 0.803786 0.936973
0.985968 0.739192 0.863488
0.981527 0.690767 0.773264
0.977095 0.624961 0.712546
0.972473 0.555840 0.643708
0.067279 0.942593 1.000000
0.067279 0.942593 1.000000
0.066111 0.936620 1.000000
0.065729 0.926626 1.000000
0.245995 0.918250 0.999977
0.947677 0.926626 0.923964
0.989969 0.866784 0.855622
0.985709 0.826284 0.809774
0.981852 0.774460 0.752653
0.067279 0.942593 1.000000
0.067279 0.942593 1.000000
0.067279 0.942593 1.000000
0.064934 0.942313 0.999738
0.063564 0.943011 0.999738
0.254179 0.953101 0.978952
0.983419 0.984597 0.857246
0.989126 0.946185 0.825910
0.987987 0.913611 0.782461
0.067279 0.942593 1.000000
0.067279 0.942593 1.000000
0.067279 0.942593 1.000000
0.067279 0.942593 1.000000
0.065911 0.943290 1.000000
0.063564 0.943011 0.999738
0.778326 0.984830 0.879985
0.974044 0.994330 0.737484
0.969363 0.993866 0.675051
0.067279 0.942593 1.000000
0.067279 0.942593 1.000000
0.067279 0.942593 1.000000
0.067279 0.942593 1.000000
0.067279 0.942593 1.000000
0.064934 0.942313 0.999738
0.372450 0.962081 0.999426
0.966787 0.995268 0.880188
0.973260 0.992973 0.763665
0.652014 0.293582 0.924309
0.570738 0.232787 0.893712
0.792308 0.180637 0.795263
0.962273 0.111926 0.728972
0.964712 0.251686 0.636844
0.963334 0.275141 0.579653
0.960394 0.294633 0.521262
0.958633 0.307759 0.466864
0.958633 0.316833 0.420140
0.663158 0.293336 0.922047
0.659443 0.293418 0.922801
0.765643 0.255095 0.884422
0.926808 0.188928 0.810988
0.964992 0.133865 0.728801
0.965106 0.247324 0.649711
0.963334 0.272453 0.593496
0.962156 0.289573 0.534129
0.959609 0.306718 0.478222
0.681339 0.294599 0.919253
0.676648 0.293369 0.920761
0.729240 0.294533 0.913890
0.897797 0.266468 0.881868
0.968467 0.167631 0.828517
0.967823 0.255484 0.720488
0.964914 0.239975 0.662355
0.962751 0.267113 0.605387
0.962156 0.287221 0.546242
0.620279 0.590213 0.979266
0.653790 0.498824 0.959325
0.652250 0.471863 0.956567
0.824109 0.467715 0.929784
0.966662 0.439889 0.904770
0.975099 0.421832 0.821434
0.972782 0.399321 0.754957
0.969307 0.357491 0.696773
0.966416 0.320326 0.630159
0.169782 0.873624 1.000000
0.336205 0.820893 0.999120
0.458250 0.763485 1.000000
0.607820 0.755462 1.000000
0.893069 0.759108 0.970332
0.987157 0.705700 0.947168
0.982724 0.647624 0.846649
0.980628 0.591748 0.797202
0.975019 0.530964 0.739414
0.067279 0.942593 1.000000
0.067279 0.942593 1.000000
0.064561 0.920989 0.999157
0.140840 0.883609 1.000000
0.539668 0.893327 1.000000
0.945734 0.899899 0.989585
0.990562 0.846341 0.916496
0.988447 0.811447 0.878991
0.985164 0.771252 0.837581
0.067279 0.942593 1.000000
0.067279 0.942593 1.000000
0.067279 0.942593 1.000000
0.067279 0.942593 1.000000
0.067279 0.942593 1.000000
0.370890 0.957782 0.999956
0.976764 0.971236 0.969195
0.993414 0.939919 0.932582
0.991682 0.913339 0.902668
0.067279 0.942593 1.000000
0.067279 0.942593 1.000000
0.067279 0.942593 1.000000
0.067279 0.942593 1.000000
0.067279 0.942593 1.000000
0.067279 0.942593 1.000000
0.781629 0.986567 0.999438
0.989066 0.996360 0.927492
0.984968 0.994514 0.887777
0.067279 0.942593 1.000000
0.067279 0.942593 1.000000
0.067279 0.942593 1.000000
0.067279 0.942593 1.000000
0.067279 0.942593 1.000000
0.067279 0.942593 1.000000
0.412529 0.963180 1.000000
0.969113 0.997708 0.990012
0.991019 0.995960 0.941559
0.652014 0.293582 0.924309
0.667849 0.294231 0.922270
0.863951 0.291207 0.894648
0.971548 0.216850 0.858257
0.966120 0.184828 0.737554
0.966292 0.221897 0.691860
0.964712 0.251686 0.636844
0.963334 0.275141 0.579653
0.960394 0.294633 0.521262
0.661790 0.293697 0.923778
0.659443 0.293418 0.922801
0.771081 0.294606 0.906574
0.937281 0.276584 0.880411
0.968668 0.159617 0.834993
0.966322 0.176141 0.747493
0.966102 0.215219 0.701043
0.964129 0.246347 0.648734
0.963727 0.270778 0.592519
0.678995 0.293648 0.921738
0.672934 0.293451 0.921516
0.698544 0.294550 0.917215
0.869035 0.290428 0.893896
0.973675 0.245117 0.869891
0.968467 0.173344 0.799098
0.967691 0.173427 0.757875
0.965911 0.208207 0.711957
0.964520 0.241649 0.663331
0.600307 0.625315 0.987969
0.666918 0.466873 0.952351
0.688569 0.300434 0.921652
0.792977 0.295114 0.906489
0.940995 0.276166 0.881387
0.975769 0.308723 0.879536
0.973232 0.313193 0.828906
0.971107 0.291310 0.784394
0.968005 0.269460 0.733715
0.126373 0.882600 1.000000
0.299046 0.834725 0.999653
0.459620 0.762787 1.000000
0.661275 0.660948 0.987230
0.865056 0.594771 0.947702
0.985875 0.604753 0.930637
0.981615 0.560557 0.903824
0.979117 0.516006 0.865653
0.977011 0.471125 0.819581
0.067279 0.942593 1.000000
0.067279 0.942593 1.000000
0.065336 0.928636 1.000000
0.074948 0.888753 1.000000
0.585050 0.863641 1.000000
0.920967 0.827801 0.980336
0.990400 0.797268 0.964007
0.989061 0.768006 0.938310
0.986170 0.725128 0.901113
0.067279 0.942593 1.000000
0.067279 0.942593 1.000000
0.067279 0.942593 1.000000
0.067279 0.942593 1.000000
0.067279 0.942593 1.000000
0.433066 0.952720 1.000000
0.967592 0.946069 0.994348
0.994793 0.917809 0.982851
0.993645 0.893543 0.956620
0.067279 0.942593 1.000000
0.067279 0.942593 1.000000
0.067279 0.942593 1.000000
0.067279 0.942593 1.000000
0.067279 0.942593 1.000000
0.067279 0.942593 1.000000
0.749373 0.982957 0.999833
1.000000 1.000000 1.000000
0.995902 0.992778 0.987972
0.067279 0.942593 1.000000
0.067279 0.942593 1.000000
0.067279 0.942593 1.000000
0.067279 0.942593 1.000000
0.067279 0.942593 1.000000
0.067279 0.942593 1.000000
0.344886 0.959365 1.000000
0.958361 0.994601 0.999949
1.000000 1.000000 1.000000
0.654752 0.292187 0.924309
0.657097 0.292804 0.923554
0.818981 0.294203 0.902941
0.961926 0.265040 0.875219
0.968878 0.143967 0.820789
0.965959 0.137436 0.776415
0.965729 0.186502 0.738531
0.966292 0.221897 0.691860
0.964712 0.251350 0.638574
0.661790 0.294033 0.922047
0.660813 0.292720 0.922801
0.729240 0.294533 0.913890
0.900517 0.287063 0.888618
0.973301 0.224128 0.867579
0.969070 0.147955 0.825449
0.966361 0.122414 0.784176
0.966322 0.176141 0.747493
0.966102 0.214883 0.702774
0.680363 0.293623 0.918277
0.673910 0.294764 0.920761
0.686424 0.293820 0.918501
0.824063 0.293760 0.900456
0.960164 0.267074 0.877926
0.972353 0.189495 0.859938
0.968477 0.155292 0.832063
0.966563 0.114063 0.792384
0.966916 0.165780 0.756452
0.578381 0.657791 0.998181
0.653982 0.503485 0.960523
0.688528 0.345758 0.928229
0.772058 0.295583 0.907551
0.908337 0.285225 0.886134
0.973885 0.227116 0.867801
0.970783 0.196190 0.863843
0.970602 0.183896 0.841965
0.969040 0.185646 0.811348
0.067128 0.891264 0.999859
0.260912 0.847582 0.999207
0.423628 0.782930 0.999566
0.627037 0.688370 0.995798
0.850982 0.591751 0.948766
0.966643 0.462552 0.908059
0.978440 0.385974 0.894508
0.977473 0.373329 0.893617
0.975339 0.358410 0.873246
0.067279 0.942593 1.000000
0.067279 0.942593 1.000000
0.067481 0.935922 1.000000
0.065556 0.898632 1.000000
0.508599 0.872691 0.999820
0.909813 0.839715 0.982511
0.990611 0.779603 0.960188
0.986802 0.662050 0.941567
0.984687 0.621106 0.935211
0.067279 0.942593 1.000000
0.067279 0.942593 1.000000
0.067279 0.942593 1.000000
0.067279 0.942593 1.000000
0.067279 0.942593 1.000000
0.303641 0.952292 0.999017
0.957223 0.954298 0.996301
0.994994 0.910802 0.984137
0.992697 0.854204 0.973208
0.067279 0.942593 1.000000
0.067279 0.942593 1.000000
0.067279 0.942593 1.000000
0.067279 0.942593 1.000000
0.067279 0.942593 1.000000
0.067279 0.942593 1.000000
0.688768 0.980315 1.000000
1.000000 1.000000 1.000000
0.996879 0.992410 0.995872
0.067279 0.942593 1.000000
0.067279 0.942593 1.000000
0.067279 0.942593 1.000000
0.067279 0.942593 1.000000
0.067279 0.942593 1.000000
0.067279 0.942593 1.000000
0.283305 0.955747 1.000000
0.943502 0.995602 0.999504
1.000000 1.000000 1.000000
