Sources/Resources/LUT/gfx-eterna-55-3d-lut-v100/33Grid/F-Log2C/FLog2C_to_ETERNA_33grid_V.1.00.cube
#title:FLog2C_to_ETERNA
#model:GFX ETERNA 55
#FUJIFILM Corporation
#Gamma:F-Log2C to ETERNA
#Gamut:F-GamutC to ITU-R BT.709
#Version:1.00
LUT_3D_SIZE 5
0.005859 0.005859 0.005859
0.506299 0.065860 0.071918
0.943984 0.328397 0.270514
0.943984 0.328397 0.270514
0.943984 0.328397 0.270514
0.006027 0.273203 0.000000
0.184620 0.161186 0.005032
0.940127 0.283631 0.177053
0.943984 0.328397 0.270514
0.943984 0.328397 0.270514
0.021450 1.000000 0.000199
0.008499 0.824156 0.000066
0.764059 0.679163 0.024219
0.927398 0.563098 0.064945
0.936668 0.444707 0.179090
0.022818 0.999838 0.000199
0.022818 0.999838 0.000199
0.022818 0.999838 0.000199
0.933318 0.965649 0.058254
0.927548 0.854448 0.054899
0.022818 0.999838 0.000199
0.022818 0.999838 0.000199
0.022818 0.999838 0.000199
0.674447 0.999219 0.000000
0.932505 0.999629 0.082445
0.013854 0.002443 0.156684
0.432999 0.045146 0.088145
0.943984 0.328397 0.270514
0.943984 0.328397 0.270514
0.943984 0.328397 0.270514
0.025490 0.317945 0.309094
0.172852 0.172852 0.172852
0.942281 0.272191 0.213172
0.943984 0.328397 0.270514
0.943984 0.328397 0.270514
0.050545 0.991133 0.263555
0.024094 0.864029 0.070808
0.711247 0.711700 0.012329
0.930682 0.592874 0.159999
0.934696 0.470794 0.152738
0.056788 0.999592 0.306422
0.022818 0.999838 0.000199
0.022818 0.999838 0.000199
0.932513 0.991323 0.065227
0.928505 0.879432 0.052242
0.090555 0.983836 0.727301
0.065375 0.996904 0.409101
0.022818 0.999838 0.000199
0.604651 0.999784 0.000000
0.932505 0.999629 0.082445
0.037825 0.007554 0.590036
0.449207 0.000000 0.436242
0.951375 0.343647 0.429598
0.945153 0.329666 0.295187
0.943984 0.328397 0.270514
0.059600 0.329613 0.879118
0.208361 0.163272 0.668722
0.966111 0.211954 0.657867
0.952745 0.337572 0.457285
0.946904 0.332912 0.325273
0.089617 0.913338 0.844340
0.074443 0.838471 0.764227
0.714844 0.714844 0.714844
0.954243 0.622322 0.597618
0.946347 0.508732 0.449383
0.099725 0.979766 0.852699
0.086064 0.986018 0.676449
0.066160 0.995908 0.395035
0.955529 0.992288 0.393945
0.946053 0.878577 0.344708
0.099725 0.979766 0.852699
0.099725 0.979766 0.852699
0.091532 0.984477 0.730009
0.601825 0.996289 0.564340
0.932505 0.999629 0.082445
0.062535 0.071686 1.000000
0.540601 0.017328 0.977122
0.968419 0.243443 0.738102
0.959400 0.307245 0.570297
0.951375 0.343311 0.431327
0.078763 0.069988 1.000000
0.211904 0.070333 1.000000
0.988326 0.000000 0.999270
0.970773 0.224661 0.777235
0.960184 0.297175 0.602953
0.083423 0.831756 0.878043
0.066175 0.644407 0.919974
0.637274 0.604805 0.996622
0.969303 0.559872 0.879683
0.962545 0.481543 0.761056
0.099725 0.979766 0.852699
0.099725 0.979766 0.852699
0.099725 0.979766 0.852699
0.941406 0.941406 0.941406
0.976489 0.857101 0.846609
0.099725 0.979766 0.852699
0.099725 0.979766 0.852699
0.099725 0.979766 0.852699
0.447917 0.982207 0.903461
0.987898 0.999797 0.878593
0.062535 0.071686 1.000000
0.392754 0.064943 0.999788
0.988326 0.000000 0.999270
0.979238 0.127576 0.920848
0.969395 0.244083 0.740809
0.078763 0.069988 1.000000
0.096945 0.070914 0.999621
0.849690 0.025359 0.998859
0.988326 0.000000 0.999270
0.982006 0.083114 0.962636
0.087693 0.870334 0.873793
0.069084 0.673023 0.910617
0.510742 0.415634 1.000000
0.987155 0.231276 1.000000
0.984407 0.244338 0.999950
0.099725 0.979766 0.852699
0.099725 0.979766 0.852699
0.099725 0.979766 0.852699
0.867330 0.908004 0.982168
0.982215 0.759731 0.998875
0.099725 0.979766 0.852699
0.099725 0.979766 0.852699
0.099725 0.979766 0.852699
0.347233 0.981489 0.888539
1.000000 1.000000 1.000000
