Sources/Resources/LUT/gfx-eterna-55-3d-lut-v100/33Grid/F-Log2C/FLog2C_to_CLASSIC-Neg._33grid_V.1.00.cube
#title:FLog2C_to_CLASSIC-Neg.
#model:GFX ETERNA 55
#FUJIFILM Corporation
#Gamma:F-Log2C to CLASSIC Neg.
#Gamut:F-GamutC to ITU-R BT.709
#Version:1.00
LUT_3D_SIZE 33
0.000000 0.000000 0.000000
0.000000 0.000000 0.000000
0.008406 0.000813 0.000000
0.042030 0.003389 0.000803
0.081717 0.006499 0.000633
0.131177 0.009724 0.000000
0.211918 0.015247 0.000000
0.339965 0.028038 0.000493
0.554813 0.046885 0.000000
0.753039 0.069106 0.000000
0.864456 0.094921 0.010867
0.929521 0.127360 0.075800
0.944140 0.162558 0.164602
0.947988 0.225377 0.225098
0.951060 0.281893 0.277250
0.951060 0.281893 0.277250
0.951060 0.281893 0.277250
0.951060 0.281893 0.277250
0.951060 0.281893 0.277250
0.951060 0.281893 0.277250
0.951060 0.281893 0.277250
0.951060 0.281893 0.277250
0.951060 0.281893 0.277250
0.951060 0.281893 0.277250
0.951060 0.281893 0.277250
0.951060 0.281893 0.277250
0.951060 0.281893 0.277250
0.951060 0.281893 0.277250
0.951060 0.281893 0.277250
0.951060 0.281893 0.277250
0.951060 0.281893 0.277250
0.951060 0.281893 0.277250
0.951060 0.281893 0.277250
0.000000 0.000000 0.000000
0.000000 0.000000 0.000000
0.000000 0.000000 0.000000
0.022873 0.001822 0.000000
0.062558 0.004595 0.000718
0.109281 0.009215 0.000016
0.174186 0.014425 0.000000
0.280144 0.022049 0.000000
0.459022 0.037368 0.000000
0.678168 0.058784 0.000231
0.826733 0.084786 0.000000
0.904514 0.112634 0.045887
0.941423 0.147340 0.130165
0.944887 0.198822 0.198644
0.950486 0.269257 0.266730
0.951060 0.281893 0.277250
0.951060 0.281893 0.277250
0.951060 0.281893 0.277250
0.951060 0.281893 0.277250
0.951060 0.281893 0.277250
0.951060 0.281893 0.277250
0.951060 0.281893 0.277250
0.951060 0.281893 0.277250
0.951060 0.281893 0.277250
0.951060 0.281893 0.277250
0.951060 0.281893 0.277250
0.951060 0.281893 0.277250
0.951060 0.281893 0.277250
0.951060 0.281893 0.277250
0.951060 0.281893 0.277250
0.951060 0.281893 0.277250
0.951060 0.281893 0.277250
0.951060 0.281893 0.277250
0.000000 0.000000 0.000000
0.000000 0.000000 0.000000
0.000000 0.000000 0.000000
0.010752 0.001091 0.000445
0.048092 0.003586 0.001028
0.091493 0.006614 0.000102
0.141538 0.012825 0.000000
0.228338 0.018545 0.000000
0.371637 0.028662 0.000000
0.586092 0.049184 0.000000
0.776497 0.073578 0.000247
0.876768 0.098632 0.019435
0.935381 0.131875 0.088582
0.944130 0.172545 0.173167
0.947587 0.236702 0.236372
0.951060 0.281893 0.277250
0.951060 0.281893 0.277250
0.951060 0.281893 0.277250
0.951060 0.281893 0.277250
0.951060 0.281893 0.277250
0.951060 0.281893 0.277250
0.951060 0.281893 0.277250
0.951060 0.281893 0.277250
0.951060 0.281893 0.277250
0.951060 0.281893 0.277250
0.951060 0.281893 0.277250
0.951060 0.281893 0.277250
0.951060 0.281893 0.277250
0.951060 0.281893 0.277250
0.951060 0.281893 0.277250
0.951060 0.281893 0.277250
0.951060 0.281893 0.277250
0.951060 0.281893 0.277250
0.000000 0.008681 0.000000
0.000192 0.004997 0.000000
0.000977 0.000977 0.000977
0.002347 0.000616 0.000000
0.032648 0.001600 0.000360
0.069596 0.006105 0.000187
0.116319 0.010725 0.000000
0.188653 0.015434 0.000000
0.301648 0.024231 0.000663
0.491278 0.040978 0.000000
0.705340 0.063510 0.000000
0.839830 0.086157 0.000656
0.913695 0.119413 0.055429
0.943566 0.151601 0.145429
0.947224 0.209088 0.208188
0.950477 0.279243 0.275297
0.951060 0.281893 0.277250
0.951060 0.281893 0.277250
0.951060 0.281893 0.277250
0.951060 0.281893 0.277250
0.951060 0.281893 0.277250
0.951060 0.281893 0.277250
0.951060 0.281893 0.277250
0.951060 0.281893 0.277250
0.951060 0.281893 0.277250
0.951060 0.281893 0.277250
0.951060 0.281893 0.277250
0.951060 0.281893 0.277250
0.951060 0.281893 0.277250
0.951060 0.281893 0.277250
0.951060 0.281893 0.277250
0.951060 0.281893 0.277250
0.951060 0.281893 0.277250
0.000000 0.033993 0.004934
0.000000 0.021686 0.002313
0.000000 0.013341 0.000892
0.000000 0.008681 0.000000
0.011335 0.004414 0.000000
0.052783 0.004817 0.000000
0.095208 0.006532 0.000000
0.151705 0.010930 0.000000
0.245151 0.019833 0.000167
0.400177 0.032355 0.000234
0.623039 0.053688 0.000000
0.796238 0.078805 0.000000
0.886342 0.103401 0.029731
0.941240 0.136054 0.103093
0.946467 0.182475 0.184441
0.949530 0.248643 0.246890
0.951060 0.281893 0.277250
0.951060 0.281893 0.277250
0.951060 0.281893 0.277250
0.951060 0.281893 0.277250
0.951060 0.281893 0.277250
0.951060 0.281893 0.277250
0.951060 0.281893 0.277250
0.951060 0.281893 0.277250
0.951060 0.281893 0.277250
0.951060 0.281893 0.277250
0.951060 0.281893 0.277250
0.951060 0.281893 0.277250
0.951060 0.281893 0.277250
0.951060 0.281893 0.277250
0.951060 0.281893 0.277250
0.951060 0.281893 0.277250
0.951060 0.281893 0.277250
0.001703 0.065280 0.010620
0.000737 0.052972 0.008000
0.000000 0.042339 0.006356
0.000000 0.033993 0.004934
0.000565 0.025649 0.003512
0.030092 0.019659 0.000000
0.074277 0.018666 0.000324
0.123548 0.016894 0.000153
0.199988 0.019512 0.000340
0.328236 0.025970 0.000000
0.529986 0.042776 0.000164
0.732905 0.065890 0.000000
0.855072 0.093804 0.006960
0.923270 0.123846 0.067457
0.944342 0.156559 0.160696
0.947213 0.218738 0.218484
0.951060 0.281893 0.277250
0.951060 0.281893 0.277250
0.951060 0.281893 0.277250
0.951060 0.281893 0.277250
0.951060 0.281893 0.277250
0.951060 0.281893 0.277250
0.951060 0.281893 0.277250
0.951060 0.281893 0.277250
0.951060 0.281893 0.277250
0.951060 0.281893 0.277250
0.951060 0.281893 0.277250
0.951060 0.281893 0.277250
0.951060 0.281893 0.277250
0.951060 0.281893 0.277250
0.951060 0.281893 0.277250
0.951060 0.281893 0.277250
0.951060 0.281893 0.277250
0.002650 0.100249 0.016530
0.002267 0.090928 0.014132
0.001301 0.078621 0.011512
0.001703 0.065280 0.010620
0.000737 0.052972 0.008000
0.003283 0.046917 0.006801
0.053338 0.042805 0.000000
0.101631 0.039720 0.000067
0.163999 0.039655 0.000000
0.268397 0.042979 0.000000
0.438676 0.052825 0.000000
0.658808 0.063887 0.000000
0.812658 0.081767 0.000296
0.896893 0.109818 0.037543
0.940254 0.143383 0.119336
0.945874 0.189812 0.191055
0.950104 0.260944 0.259140
0.951060 0.281893 0.277250
0.951060 0.281893 0.277250
0.951060 0.281893 0.277250
0.951060 0.281893 0.277250
0.951060 0.281893 0.277250
0.951060 0.281893 0.277250
0.951060 0.281893 0.277250
0.951060 0.281893 0.277250
0.951060 0.281893 0.277250
0.951060 0.281893 0.277250
0.951060 0.281893 0.277250
0.951060 0.281893 0.277250
0.951060 0.281893 0.277250
0.951060 0.281893 0.277250
0.951060 0.281893 0.277250
0.951060 0.281893 0.277250
0.003789 0.140217 0.021910
0.004192 0.126875 0.021019
0.002248 0.113591 0.017422
0.001866 0.104270 0.015023
0.002267 0.090928 0.014132
0.000908 0.080295 0.012488
0.023399 0.072795 0.009249
0.079513 0.069216 0.000425
0.132499 0.067363 0.000000
0.217738 0.068783 0.000000
0.359477 0.074936 0.000000
0.576086 0.090741 0.000625
0.763370 0.106874 0.000296
0.870688 0.122441 0.015577
0.932442 0.141620 0.080374
0.944332 0.166547 0.169261
0.948180 0.229366 0.229757
0.951060 0.281893 0.277250
0.951060 0.281893 0.277250
0.951060 0.281893 0.277250
0.951060 0.281893 0.277250
0.951060 0.281893 0.277250
0.951060 0.281893 0.277250
0.951060 0.281893 0.277250
0.951060 0.281893 0.277250
0.951060 0.281893 0.277250
0.951060 0.281893 0.277250
0.951060 0.281893 0.277250
0.951060 0.281893 0.277250
0.951060 0.281893 0.277250
0.951060 0.281893 0.277250
0.951060 0.281893 0.277250
0.951060 0.281893 0.277250
0.005110 0.195838 0.031863
0.005320 0.178173 0.028044
0.003770 0.162878 0.025199
0.003589 0.146550 0.024087
0.003405 0.130559 0.021242
0.002439 0.118252 0.018622
0.002057 0.108593 0.017952
0.045074 0.103308 0.009438
0.103536 0.100009 0.001590
0.174701 0.099083 0.000000
0.292198 0.104113 0.000000
0.485350 0.115445 0.000044
0.701567 0.133595 0.000000
0.836650 0.147898 0.000000
0.910334 0.165498 0.049671
0.942561 0.187643 0.133813
0.945843 0.223469 0.197718
0.951454 0.281900 0.267622
0.950668 0.283904 0.276496
0.951060 0.281893 0.277250
0.951060 0.281893 0.277250
0.951060 0.281893 0.277250
0.951060 0.281893 0.277250
0.951060 0.281893 0.277250
0.951060 0.281893 0.277250
0.951060 0.281893 0.277250
0.951060 0.281893 0.277250
0.951060 0.281893 0.277250
0.951060 0.281893 0.277250
0.951060 0.281893 0.277250
0.951060 0.281893 0.277250
0.951060 0.281893 0.277250
0.951060 0.281893 0.277250
0.007779 0.273426 0.045106
0.006238 0.246800 0.040617
0.006651 0.222464 0.036351
0.006277 0.201811 0.032308
0.005120 0.184507 0.030219
0.004354 0.165866 0.025422
0.003778 0.151547 0.023553
0.007503 0.139798 0.022886
0.073787 0.134996 0.010824
0.140654 0.132845 0.000714
0.239386 0.134298 0.000000
0.402628 0.142635 0.000000
0.622951 0.158693 0.000000
0.796744 0.174792 0.000000
0.888418 0.193365 0.023630
0.943325 0.215023 0.093616
0.947203 0.239143 0.173405
0.949893 0.283987 0.235273
0.952602 0.310536 0.271355
0.952219 0.300207 0.274149
0.951444 0.291887 0.276187
0.950275 0.285577 0.277472
0.951060 0.281893 0.277250
0.951060 0.281893 0.277250
0.951060 0.281893 0.277250
0.951060 0.281893 0.277250
0.951060 0.281893 0.277250
0.951060 0.281893 0.277250
0.951060 0.281893 0.277250
0.951060 0.281893 0.277250
0.951060 0.281893 0.277250
0.951060 0.281893 0.277250
0.951060 0.281893 0.277250
0.011597 0.379648 0.062081
0.010650 0.344342 0.057902
0.008334 0.310070 0.051992
0.008554 0.281073 0.046528
0.007991 0.255760 0.041285
0.006449 0.228798 0.038528
0.006077 0.208146 0.034485
0.005895 0.192154 0.031641
0.024087 0.182086 0.027204
0.106599 0.175923 0.013856
0.191646 0.174698 0.002684
0.325371 0.178702 0.000000
0.535729 0.189649 0.000000
0.743148 0.208998 0.000000
0.860241 0.227369 0.000000
0.924924 0.250822 0.060344
0.945030 0.272236 0.145769
0.949691 0.297042 0.202839
0.951989 0.342887 0.269146
0.951999 0.330884 0.270961
0.951615 0.320890 0.272024
0.952208 0.312210 0.272331
0.951826 0.302217 0.273395
0.951050 0.293897 0.275434
0.951252 0.286891 0.276718
0.951060 0.281893 0.277250
0.951060 0.281893 0.277250
0.951060 0.281893 0.277250
0.951060 0.281893 0.277250
0.951060 0.281893 0.277250
0.951060 0.281893 0.277250
0.951060 0.281893 0.277250
0.951060 0.281893 0.277250
0.016374 0.509174 0.085056
0.015627 0.467533 0.078699
0.013512 0.426925 0.070614
0.011981 0.388969 0.064480
0.010057 0.352687 0.059325
0.008717 0.320062 0.050930
0.008354 0.287743 0.046973
0.008373 0.265081 0.043683
0.007215 0.248113 0.039863
0.056886 0.234344 0.031879
0.144483 0.227400 0.017778
0.262573 0.226775 0.002527
0.450449 0.234898 0.000000
0.675465 0.251514 0.000054
0.824624 0.268836 0.000000
0.905344 0.291644 0.030000
0.944608 0.317314 0.103226
0.947517 0.331143 0.170012
0.951587 0.362613 0.237157
0.953922 0.369183 0.265734
0.952955 0.356203 0.266574
0.951595 0.345233 0.266659
0.951605 0.332894 0.270207
0.951807 0.325887 0.271491
0.951817 0.313884 0.273308
0.952410 0.305203 0.273617
0.951050 0.293897 0.275434
0.952229 0.288203 0.275965
0.951060 0.281893 0.277250
0.951060 0.281893 0.277250
0.951060 0.281893 0.277250
0.951060 0.281893 0.277250
0.951060 0.281893 0.277250
0.020162 0.649389 0.106965
0.018047 0.608446 0.100609
0.017693 0.565132 0.093277
0.016948 0.523491 0.086921
0.014249 0.479561 0.080343
0.013502 0.438256 0.072258
0.012363 0.398626 0.065147
0.011023 0.365330 0.060215
0.010458 0.340017 0.054972
0.009502 0.316043 0.052438
0.094954 0.301813 0.038644
0.198386 0.295518 0.022505
0.362614 0.297869 0.000000
0.597213 0.309605 0.000414
0.782543 0.323447 0.000000
0.880278 0.346250 0.003031
0.938508 0.370843 0.066320
0.949432 0.385814 0.140473
0.950782 0.397025 0.199136
0.952907 0.416220 0.257492
0.953702 0.400532 0.259085
0.954103 0.386183 0.263386
0.953530 0.371529 0.263249
0.953540 0.359189 0.266797
0.952180 0.347883 0.268612
0.952190 0.336216 0.268699
0.952198 0.324213 0.270514
0.951424 0.315894 0.272556
0.952018 0.307214 0.272863
0.951635 0.297219 0.273926
0.950860 0.289237 0.274234
0.951060 0.281893 0.277250
0.951060 0.281893 0.277250
0.024756 0.762923 0.127095
0.022631 0.733311 0.122383
0.021684 0.698342 0.116473
0.020152 0.660385 0.110340
0.019405 0.619080 0.102253
0.017291 0.578137 0.095899
0.015961 0.533509 0.089320
0.014239 0.490892 0.081989
0.014267 0.457235 0.075324
0.013512 0.426925 0.070614
0.012947 0.401612 0.065371
0.135155 0.387901 0.046746
0.279057 0.382039 0.025019
0.503498 0.389042 0.000000
0.728322 0.400998 0.000000
0.852261 0.415883 0.000648
0.919885 0.436984 0.031589
0.948790 0.458545 0.110317
0.950350 0.452089 0.165160
0.954045 0.462236 0.231723
0.954639 0.450194 0.249336
0.954457 0.432857 0.253414
0.953883 0.417196 0.258468
0.953308 0.402542 0.258332
0.953318 0.390203 0.261878
0.953137 0.373539 0.262497
0.953540 0.359525 0.265066
0.952763 0.350870 0.268836
0.951797 0.338227 0.267945
0.951807 0.326223 0.269762
0.952400 0.317542 0.270071
0.952994 0.308526 0.272109
0.952612 0.298532 0.273172
0.027034 0.842520 0.139583
0.025684 0.820556 0.136293
0.026095 0.796219 0.132028
0.024554 0.769594 0.127538
0.023406 0.741295 0.122074
0.022067 0.707999 0.117140
0.021512 0.671018 0.111984
0.019397 0.630410 0.103899
0.019234 0.591758 0.097765
0.017894 0.558461 0.092831
0.016162 0.527176 0.087145
0.052746 0.500368 0.077824
0.192158 0.486942 0.055429
0.395296 0.485429 0.027278
0.650041 0.494090 0.000000
0.820321 0.503937 0.000000
0.900466 0.516795 0.005647
0.948146 0.534299 0.064585
0.952052 0.526443 0.129058
0.953614 0.518643 0.190824
0.955959 0.510185 0.236793
0.953824 0.490560 0.240648
0.955012 0.472526 0.244725
0.955223 0.453180 0.249559
0.955042 0.436181 0.251906
0.953098 0.421552 0.255229
0.953893 0.405528 0.258554
0.954295 0.391515 0.261126
0.954698 0.377501 0.263695
0.954123 0.362512 0.265288
0.953740 0.352183 0.268082
0.952380 0.340877 0.269898
0.952390 0.328874 0.271715
0.027961 0.899816 0.150512
0.027779 0.883824 0.147667
0.027990 0.866159 0.143847
0.026832 0.848855 0.141757
0.025482 0.827226 0.136738
0.025896 0.802554 0.134203
0.023961 0.777603 0.130692
0.024183 0.748605 0.125227
0.023426 0.718296 0.120515
0.021694 0.687010 0.114829
0.020937 0.656701 0.110117
0.021159 0.627704 0.104652
0.098011 0.608002 0.090190
0.277502 0.596684 0.063187
0.544961 0.599074 0.026124
0.771165 0.603706 0.000063
0.877516 0.609319 0.000610
0.934397 0.616990 0.034652
0.953938 0.616787 0.095800
0.954732 0.591691 0.145847
0.955518 0.574564 0.214843
0.955729 0.554546 0.223138
0.956332 0.533190 0.228722
0.956544 0.513507 0.235286
0.955386 0.494859 0.240118
0.955595 0.475849 0.243218
0.955414 0.458177 0.249027
0.954257 0.439865 0.252129
0.955052 0.423841 0.255454
0.954477 0.408516 0.258778
0.953510 0.395535 0.259618
0.952935 0.380210 0.262942
0.953730 0.364522 0.264535
0.030076 0.940424 0.158598
0.028718 0.930126 0.155222
0.030096 0.918098 0.153578
0.028544 0.902803 0.150734
0.028363 0.886811 0.147891
0.026813 0.871517 0.145047
0.027024 0.853516 0.142958
0.025674 0.831887 0.137937
0.024717 0.807911 0.135401
0.023367 0.785946 0.132113
0.024756 0.762923 0.127095
0.022823 0.738308 0.121852
0.022842 0.715646 0.118562
0.148764 0.702186 0.097453
0.395112 0.699712 0.063714
0.690527 0.703481 0.023327
0.844980 0.705381 0.002492
0.916339 0.705754 0.019009
0.953870 0.704508 0.064051
0.955450 0.678416 0.100031
0.955268 0.649989 0.161216
0.956848 0.623224 0.200657
0.957452 0.601196 0.209704
0.955709 0.579225 0.216044
0.956314 0.557532 0.223359
0.955547 0.536873 0.228946
0.956150 0.515853 0.232801
0.954992 0.497205 0.237633
0.954811 0.479533 0.243442
0.954045 0.459547 0.245566
0.954840 0.443188 0.250622
0.954266 0.427525 0.255676
0.952715 0.411223 0.258023
0.030267 0.945420 0.158066
0.030267 0.945420 0.158066
0.030267 0.945420 0.158066
0.030661 0.943410 0.158821
0.029301 0.933113 0.155446
0.029702 0.919771 0.154554
0.028736 0.907464 0.151934
0.028554 0.891472 0.149090
0.028374 0.875481 0.146246
0.027215 0.858511 0.142426
0.026450 0.839534 0.139359
0.025684 0.820556 0.136293
0.026287 0.800880 0.133226
0.025129 0.783575 0.131137
0.217909 0.779297 0.101562
0.538936 0.783828 0.058606
0.791535 0.786547 0.024559
0.892814 0.784297 0.010372
0.945012 0.780750 0.037355
0.956166 0.762451 0.068058
0.955603 0.729408 0.102616
0.957968 0.693246 0.171254
0.957201 0.671916 0.180301
0.957804 0.649888 0.189347
0.957039 0.628220 0.200125
0.956666 0.605216 0.208194
0.957270 0.583187 0.217241
0.956504 0.562866 0.221098
0.957107 0.541174 0.228413
0.956342 0.520514 0.234000
0.954207 0.500553 0.239586
0.955395 0.482856 0.241934
0.955606 0.463510 0.246767
0.030267 0.945420 0.158066
0.030267 0.945420 0.158066
0.030267 0.945420 0.158066
0.030267 0.945420 0.158066
0.030267 0.945420 0.158066
0.030267 0.945420 0.158066
0.030267 0.945420 0.158066
0.029886 0.936099 0.155668
0.028917 0.923455 0.154778
0.027951 0.911148 0.152156
0.028746 0.896469 0.148559
0.028172 0.882151 0.146691
0.027990 0.866159 0.143847
0.026440 0.850865 0.141005
0.027234 0.835849 0.139136
0.312875 0.839503 0.099281
0.675935 0.848768 0.050208
0.855415 0.848444 0.026579
0.924044 0.843923 0.015493
0.957477 0.834782 0.051970
0.955936 0.805804 0.059593
0.957133 0.767364 0.108750
0.958714 0.740935 0.146461
0.957948 0.719270 0.157239
0.958159 0.698578 0.168991
0.957393 0.676912 0.179771
0.957996 0.654884 0.188816
0.957624 0.631544 0.198618
0.956858 0.610548 0.205934
0.957462 0.588856 0.213250
0.955719 0.566549 0.221321
0.956322 0.545529 0.225176
0.956925 0.523837 0.232492
0.030267 0.945420 0.158066
0.030267 0.945420 0.158066
0.030267 0.945420 0.158066
0.030267 0.945420 0.158066
0.030267 0.945420 0.158066
0.030267 0.945420 0.158066
0.030267 0.945420 0.158066
0.030267 0.945420 0.158066
0.030267 0.945420 0.158066
0.030267 0.945420 0.158066
0.030469 0.939085 0.155891
0.029109 0.928116 0.155977
0.029513 0.915111 0.153356
0.028544 0.902803 0.150734
0.027578 0.890160 0.149845
0.074120 0.880131 0.139375
0.438155 0.890373 0.091278
0.777948 0.899490 0.044019
0.896431 0.897190 0.027794
0.948246 0.890708 0.019499
0.957257 0.867475 0.038398
0.956500 0.833805 0.050993
0.957889 0.801035 0.096157
0.958684 0.782323 0.113324
0.959479 0.763611 0.130493
0.958321 0.743955 0.140515
0.957163 0.723626 0.154000
0.958742 0.701901 0.167484
0.957978 0.680571 0.176532
0.957211 0.658904 0.187308
0.956838 0.635900 0.195379
0.956465 0.612558 0.205179
0.957069 0.591203 0.210766
0.030267 0.945420 0.158066
0.030267 0.945420 0.158066
0.030267 0.945420 0.158066
0.030267 0.945420 0.158066
0.030267 0.945420 0.158066
0.030267 0.945420 0.158066
0.030267 0.945420 0.158066
0.030267 0.945420 0.158066
0.030267 0.945420 0.158066
0.030267 0.945420 0.158066
0.030267 0.945420 0.158066
0.030267 0.945420 0.158066
0.030267 0.945420 0.158066
0.030076 0.940424 0.158598
0.030671 0.932079 0.157175
0.029311 0.921781 0.153802
0.139780 0.916659 0.138858
0.575173 0.932651 0.079590
0.842823 0.939702 0.043726
0.924358 0.932225 0.031132
0.954478 0.918227 0.024211
0.956260 0.891849 0.026868
0.956873 0.857145 0.041191
0.957084 0.837128 0.049483
0.957094 0.821091 0.072066
0.957104 0.805391 0.092918
0.959268 0.785982 0.110085
0.958694 0.768303 0.125523
0.958904 0.746941 0.140739
0.957746 0.727285 0.150763
0.956588 0.706956 0.164246
0.957191 0.684591 0.175024
0.956426 0.662924 0.185801
0.030267 0.945420 0.158066
0.030267 0.945420 0.158066
0.030267 0.945420 0.158066
0.030267 0.945420 0.158066
0.030267 0.945420 0.158066
0.030267 0.945420 0.158066
0.030267 0.945420 0.158066
0.030267 0.945420 0.158066
0.030267 0.945420 0.158066
0.030267 0.945420 0.158066
0.030267 0.945420 0.158066
0.030267 0.945420 0.158066
0.030267 0.945420 0.158066
0.030267 0.945420 0.158066
0.030267 0.945420 0.158066
0.029291 0.944444 0.157090
0.029684 0.942433 0.157844
0.211118 0.945072 0.130977
0.692256 0.965042 0.068296
0.880144 0.965867 0.042406
0.944866 0.956430 0.032605
0.952899 0.936591 0.028032
0.956442 0.909186 0.022789
0.956462 0.884171 0.031613
0.957840 0.870462 0.038621
0.957267 0.855135 0.041946
0.957668 0.840450 0.047976
0.957678 0.824750 0.068827
0.956712 0.808073 0.088703
0.957506 0.789026 0.107601
0.959277 0.771626 0.124015
0.958119 0.751633 0.135770
0.956961 0.731305 0.149253
0.030267 0.945420 0.158066
0.030267 0.945420 0.158066
0.030267 0.945420 0.158066
0.030267 0.945420 0.158066
0.030267 0.945420 0.158066
0.030267 0.945420 0.158066
0.030267 0.945420 0.158066
0.030267 0.945420 0.158066
0.030267 0.945420 0.158066
0.030267 0.945420 0.158066
0.030267 0.945420 0.158066
0.030267 0.945420 0.158066
0.030267 0.945420 0.158066
0.030267 0.945420 0.158066
0.030267 0.945420 0.158066
0.029291 0.944444 0.157090
0.029291 0.944444 0.157090
0.030661 0.943410 0.158821
0.326651 0.961496 0.120300
0.770248 0.984971 0.060946
0.905543 0.984968 0.040196
0.942701 0.972479 0.032741
0.948389 0.951687 0.030652
0.953694 0.922248 0.022704
0.956050 0.911194 0.022036
0.954690 0.899889 0.023851
0.956068 0.886516 0.029128
0.957448 0.872807 0.036137
0.957850 0.858458 0.040438
0.957276 0.842460 0.047223
0.957286 0.827096 0.066343
0.957295 0.812068 0.083734
0.956721 0.793718 0.102633
0.030267 0.945420 0.158066
0.030267 0.945420 0.158066
0.030267 0.945420 0.158066
0.030267 0.945420 0.158066
0.030267 0.945420 0.158066
0.030267 0.945420 0.158066
0.030267 0.945420 0.158066
0.030267 0.945420 0.158066
0.030267 0.945420 0.158066
0.030267 0.945420 0.158066
0.030267 0.945420 0.158066
0.030267 0.945420 0.158066
0.030267 0.945420 0.158066
0.030267 0.945420 0.158066
0.030267 0.945420 0.158066
0.030267 0.945420 0.158066
0.029291 0.944444 0.157090
0.029291 0.944444 0.157090
0.034375 0.943664 0.156336
0.495762 0.970076 0.095164
0.831831 0.990270 0.052035
0.924107 0.995551 0.039801
0.938978 0.983556 0.036872
0.947403 0.961707 0.033051
0.951329 0.943958 0.028477
0.952316 0.933940 0.026079
0.954279 0.924562 0.026386
0.954287 0.913231 0.024742
0.955667 0.901202 0.023098
0.956653 0.889502 0.029352
0.957055 0.875154 0.033653
0.957456 0.860468 0.039683
0.957860 0.845782 0.045715
0.030267 0.945420 0.158066
0.030267 0.945420 0.158066
0.030267 0.945420 0.158066
0.030267 0.945420 0.158066
0.030267 0.945420 0.158066
0.030267 0.945420 0.158066
0.030267 0.945420 0.158066
0.030267 0.945420 0.158066
0.030267 0.945420 0.158066
0.030267 0.945420 0.158066
0.030267 0.945420 0.158066
0.030267 0.945420 0.158066
0.030267 0.945420 0.158066
0.030267 0.945420 0.158066
0.030267 0.945420 0.158066
0.030267 0.945420 0.158066
0.029291 0.944444 0.157090
0.029291 0.944444 0.157090
0.029291 0.944444 0.157090
0.159301 0.951218 0.141000
0.641216 0.979172 0.078012
0.869563 0.992098 0.046450
0.933883 0.995666 0.039270
0.937799 0.989249 0.036340
0.943094 0.970469 0.033497
0.945641 0.964414 0.032296
0.948973 0.954674 0.030874
0.949567 0.946329 0.029453
0.951922 0.935614 0.027055
0.952909 0.925595 0.024657
0.955263 0.914543 0.023989
0.956250 0.904525 0.021590
0.956260 0.891849 0.026868
0.030267 0.945420 0.158066
0.030267 0.945420 0.158066
0.030267 0.945420 0.158066
0.030267 0.945420 0.158066
0.030267 0.945420 0.158066
0.030267 0.945420 0.158066
0.030267 0.945420 0.158066
0.030267 0.945420 0.158066
0.030267 0.945420 0.158066
0.030267 0.945420 0.158066
0.030267 0.945420 0.158066
0.030267 0.945420 0.158066
0.030267 0.945420 0.158066
0.030267 0.945420 0.158066
0.030267 0.945420 0.158066
0.030267 0.945420 0.158066
0.030267 0.945420 0.158066
0.029291 0.944444 0.157090
0.029291 0.944444 0.157090
0.029291 0.944444 0.157090
0.262331 0.957591 0.129211
0.733493 0.984791 0.064047
0.893806 0.993559 0.043879
0.933883 0.995666 0.039270
0.936429 0.989611 0.038070
0.937215 0.986263 0.036117
0.939763 0.980208 0.034919
0.942701 0.972479 0.032741
0.945641 0.964414 0.032296
0.947212 0.957045 0.031851
0.950544 0.947642 0.028699
0.951531 0.937624 0.026301
0.953494 0.928245 0.026610
0.030267 0.945420 0.158066
0.030267 0.945420 0.158066
0.030267 0.945420 0.158066
0.030267 0.945420 0.158066
0.030267 0.945420 0.158066
0.030267 0.945420 0.158066
0.030267 0.945420 0.158066
0.030267 0.945420 0.158066
0.030267 0.945420 0.158066
0.030267 0.945420 0.158066
0.030267 0.945420 0.158066
0.030267 0.945420 0.158066
0.030267 0.945420 0.158066
0.030267 0.945420 0.158066
0.030267 0.945420 0.158066
0.030267 0.945420 0.158066
0.030267 0.945420 0.158066
0.030267 0.945420 0.158066
0.029291 0.944444 0.157090
0.029291 0.944444 0.157090
0.030661 0.943410 0.158821
0.390972 0.965400 0.111391
0.797813 0.988358 0.056866
0.911987 0.994485 0.042816
