Sources/Resources/LUT/gfx-eterna-55-3d-lut-v100/33Grid/F-Log2C/FLog2C_to_FLog2C-709_33grid_V.1.00.cube
#title:FLog2C_to_FLog2C-709
#FUJIFILM Corporation
#Gamma:F-Log2C to F-Log2C
#Gamut:F-GamutC to ITU-R BT.709
#Version:1.00
LUT_3D_SIZE 33
0.000000 0.000000 0.000000
0.067514 0.000000 0.000400
0.127521 0.000000 0.000658
0.173016 0.000000 0.000204
0.216848 0.000000 0.000000
0.260677 0.000000 0.000000
0.304506 0.000000 0.000000
0.348333 0.000000 0.000000
0.392161 0.000000 0.000000
0.435988 0.000000 0.000000
0.479814 0.000000 0.000000
0.523641 0.000000 0.000000
0.567467 0.000000 0.000000
0.611293 0.000000 0.000000
0.655119 0.000000 0.000000
0.698945 0.000000 0.000000
0.742771 0.000000 0.000000
0.786597 0.000000 0.000000
0.830422 0.000000 0.000000
0.874248 0.000000 0.000000
0.918073 0.000000 0.000000
0.961899 0.000000 0.000000
1.000000 0.000000 0.000000
1.000000 0.000000 0.000000
1.000000 0.000000 0.000000
1.000000 0.000000 0.000000
1.000000 0.000000 0.000000
1.000000 0.000000 0.000000
1.000000 0.000000 0.000000
1.000000 0.000000 0.000000
1.000000 0.000000 0.000000
1.000000 0.000000 0.000000
1.000000 0.000000 0.000000
0.000000 0.042179 0.000000
0.034165 0.035118 0.000000
0.100148 0.027514 0.000000
0.152009 0.020016 0.000000
0.199590 0.011362 0.000000
0.246081 0.001109 0.000000
0.291895 0.000000 0.000000
0.337259 0.000000 0.000000
0.382310 0.000000 0.000000
0.427133 0.000000 0.000000
0.471785 0.000000 0.000000
0.516306 0.000000 0.000000
0.560724 0.000000 0.000000
0.605060 0.000000 0.000000
0.649329 0.000000 0.000000
0.693544 0.000000 0.000000
0.737714 0.000000 0.000000
0.781846 0.000000 0.000000
0.825945 0.000000 0.000000
0.870017 0.000000 0.000000
0.914065 0.000000 0.000000
0.958093 0.000000 0.000000
1.000000 0.000000 0.000000
1.000000 0.000000 0.000000
1.000000 0.000000 0.000000
1.000000 0.000000 0.000000
1.000000 0.000000 0.000000
1.000000 0.000000 0.000000
1.000000 0.000000 0.000000
1.000000 0.000000 0.000000
1.000000 0.000000 0.000000
1.000000 0.000000 0.000000
1.000000 0.000000 0.000000
0.000000 0.084606 0.000000
0.001949 0.077448 0.000000
0.068201 0.070250 0.000000
0.128204 0.062904 0.000000
0.180713 0.054250 0.000000
0.230437 0.043997 0.000000
0.278553 0.032097 0.000000
0.325647 0.018507 0.000000
0.372044 0.003190 0.000000
0.417947 0.000000 0.000000
0.463484 0.000000 0.000000
0.508743 0.000000 0.000000
0.553786 0.000000 0.000000
0.598657 0.000000 0.000000
0.643391 0.000000 0.000000
0.688011 0.000000 0.000000
0.732538 0.000000 0.000000
0.776987 0.000000 0.000000
0.821369 0.000000 0.000000
0.865696 0.000000 0.000000
0.909973 0.000000 0.000000
0.954209 0.000000 0.000000
0.998409 0.000000 0.000000
1.000000 0.000000 0.000000
1.000000 0.000000 0.000000
1.000000 0.000000 0.000000
1.000000 0.000000 0.000000
1.000000 0.000000 0.000000
1.000000 0.000000 0.000000
1.000000 0.000000 0.000000
1.000000 0.000000 0.000000
1.000000 0.000000 0.000000
1.000000 0.000000 0.000000
0.000000 0.122387 0.000000
0.000000 0.116697 0.000000
0.034055 0.110817 0.000000
0.100407 0.104603 0.000000
0.159793 0.096971 0.000000
0.213557 0.087430 0.000000
0.264384 0.075663 0.000000
0.313439 0.062074 0.000000
0.361328 0.046756 0.000000
0.408407 0.029674 0.000000
0.454895 0.010793 0.000000
0.500941 0.000000 0.000000
0.546645 0.000000 0.000000
0.592079 0.000000 0.000000
0.637298 0.000000 0.000000
0.682341 0.000000 0.000000
0.727240 0.000000 0.000000
0.772017 0.000000 0.000000
0.816693 0.000000 0.000000
0.861282 0.000000 0.000000
0.905796 0.000000 0.000000
0.950246 0.000000 0.000000
0.994640 0.000000 0.000000
1.000000 0.000000 0.000000
1.000000 0.000000 0.000000
1.000000 0.000000 0.000000
1.000000 0.000000 0.000000
1.000000 0.000000 0.000000
1.000000 0.000000 0.000000
1.000000 0.000000 0.000000
1.000000 0.000000 0.000000
1.000000 0.000000 0.000000
1.000000 0.000000 0.000000
0.000000 0.158483 0.000000
0.000000 0.153772 0.000000
0.000000 0.148952 0.000000
0.061643 0.143912 0.000000
0.132287 0.137806 0.000000
0.192235 0.130314 0.000000
0.246866 0.121224 0.000000
0.298544 0.110250 0.000000
0.348368 0.096971 0.000000
0.396939 0.080734 0.000000
0.444618 0.061853 0.000000
0.491636 0.041142 0.000000
0.538150 0.018570 0.000000
0.584271 0.000000 0.000000
0.630078 0.000000 0.000000
0.675632 0.000000 0.000000
0.720977 0.000000 0.000000
0.766148 0.000000 0.000000
0.811174 0.000000 0.000000
0.856076 0.000000 0.000000
0.900873 0.000000 0.000000
0.945578 0.000000 0.000000
0.990204 0.000000 0.000000
1.000000 0.000000 0.000000
1.000000 0.000000 0.000000
1.000000 0.000000 0.000000
1.000000 0.000000 0.000000
1.000000 0.000000 0.000000
1.000000 0.000000 0.000000
1.000000 0.000000 0.000000
1.000000 0.000000 0.000000
1.000000 0.000000 0.000000
1.000000 0.000000 0.000000
0.000000 0.194562 0.000000
0.000000 0.190560 0.000000
0.000000 0.186489 0.000000
0.014165 0.182260 0.000000
0.093309 0.177177 0.000000
0.164164 0.171003 0.000000
0.224566 0.163613 0.000000
0.279938 0.154851 0.000000
0.332371 0.144510 0.000000
0.382900 0.132305 0.000000
0.432108 0.117829 0.000000
0.480359 0.100456 0.000000
0.527890 0.079146 0.000000
0.574864 0.054686 0.000000
0.621398 0.028310 0.000000
0.667579 0.000000 0.000000
0.713470 0.000000 0.000000
0.759122 0.000000 0.000000
0.804574 0.000000 0.000000
0.849856 0.000000 0.000000
0.894993 0.000000 0.000000
0.940006 0.000000 0.000000
0.984911 0.000000 0.000000
1.000000 0.000000 0.000000
1.000000 0.000000 0.000000
1.000000 0.000000 0.000000
1.000000 0.000000 0.000000
1.000000 0.000000 0.000000
1.000000 0.000000 0.000000
1.000000 0.000000 0.000000
1.000000 0.000000 0.000000
1.000000 0.000000 0.000000
1.000000 0.000000 0.000000
0.000000 0.230631 0.000000
0.000000 0.227163 0.000000
0.000000 0.223650 0.000000
0.000000 0.220016 0.000000
0.038652 0.215670 0.000000
0.126087 0.210423 0.000000
0.196039 0.204194 0.000000
0.256815 0.196884 0.000000
0.312827 0.188370 0.000000
0.365935 0.178497 0.000000
0.417109 0.167060 0.000000
0.466913 0.153781 0.000000
0.515707 0.138265 0.000000
0.563730 0.119915 0.000000
0.611151 0.097750 0.000000
0.658091 0.070365 0.000000
0.704642 0.040082 0.000000
0.750870 0.007810 0.000000
0.796831 0.000000 0.000000
0.842566 0.000000 0.000000
0.888109 0.000000 0.000000
0.933488 0.000000 0.000000
0.978723 0.000000 0.000000
1.000000 0.000000 0.000000
1.000000 0.000000 0.000000
1.000000 0.000000 0.000000
1.000000 0.000000 0.000000
1.000000 0.000000 0.000000
1.000000 0.000000 0.000000
1.000000 0.000000 0.000000
1.000000 0.000000 0.000000
1.000000 0.000000 0.000000
1.000000 0.000000 0.000000
0.000000 0.266693 0.000000
0.000000 0.263642 0.000000
0.000000 0.260560 0.000000
0.000000 0.257381 0.000000
0.000000 0.253591 0.000000
0.069984 0.249035 0.000000
0.158631 0.243655 0.000000
0.227912 0.237382 0.000000
0.289003 0.230135 0.000000
0.345572 0.221816 0.000000
0.399287 0.212304 0.000000
0.451052 0.201444 0.000000
0.501412 0.189035 0.000000
0.550720 0.174805 0.000000
0.599215 0.158372 0.000000
0.647068 0.139170 0.000000
0.694405 0.116287 0.000000
0.741319 0.088072 0.000000
0.787882 0.053949 0.000000
0.834150 0.017632 0.000000
0.880170 0.000000 0.000000
0.925976 0.000000 0.000000
0.971598 0.000000 0.000000
1.000000 0.000000 0.000000
1.000000 0.000000 0.000000
1.000000 0.000000 0.000000
1.000000 0.000000 0.000000
1.000000 0.000000 0.000000
1.000000 0.000000 0.000000
1.000000 0.000000 0.000000
1.000000 0.000000 0.000000
1.000000 0.000000 0.000000
1.000000 0.000000 0.000000
0.000000 0.302749 0.000000
0.000000 0.300032 0.000000
0.000000 0.297292 0.000000
0.000000 0.294472 0.000000
0.000000 0.291119 0.000000
0.000000 0.287099 0.000000
0.106265 0.282368 0.000000
0.191021 0.276877 0.000000
0.259785 0.270567 0.000000
0.321143 0.263372 0.000000
0.378202 0.255211 0.000000
0.432464 0.245985 0.000000
0.484773 0.235576 0.000000
0.535652 0.223829 0.000000
0.585445 0.210548 0.000000
0.634391 0.195467 0.000000
0.682662 0.178220 0.000000
0.730383 0.158267 0.000000
0.777653 0.134758 0.000000
0.824545 0.106206 0.000000
0.871119 0.069968 0.000000
0.917422 0.029522 0.000000
0.963491 0.000000 0.000000
1.000000 0.000000 0.000000
1.000000 0.000000 0.000000
1.000000 0.000000 0.000000
1.000000 0.000000 0.000000
1.000000 0.000000 0.000000
1.000000 0.000000 0.000000
1.000000 0.000000 0.000000
1.000000 0.000000 0.000000
1.000000 0.000000 0.000000
1.000000 0.000000 0.000000
0.000000 0.338802 0.000000
0.000000 0.336357 0.000000
0.000000 0.333896 0.000000
0.000000 0.331366 0.000000
0.000000 0.328363 0.000000
0.000000 0.324771 0.000000
0.029082 0.320555 0.000000
0.141548 0.315676 0.000000
0.223305 0.310091 0.000000
0.291656 0.303751 0.000000
0.353245 0.296599 0.000000
0.410738 0.288567 0.000000
0.465496 0.279575 0.000000
0.518307 0.269527 0.000000
0.569671 0.258303 0.000000
0.619923 0.245753 0.000000
0.669299 0.231683 0.000000
0.717970 0.215836 0.000000
0.766065 0.197857 0.000000
0.813682 0.177235 0.000000
0.860897 0.153178 0.000000
0.907772 0.124337 0.000000
0.954355 0.088033 0.000000
1.000000 0.043539 0.000000
1.000000 0.000000 0.000000
1.000000 0.000000 0.000000
1.000000 0.000000 0.000000
1.000000 0.000000 0.000000
1.000000 0.000000 0.000000
1.000000 0.000000 0.000000
1.000000 0.000000 0.000000
1.000000 0.000000 0.000000
1.000000 0.000000 0.000000
0.000000 0.374851 0.000000
0.000000 0.372633 0.000000
0.000000 0.370403 0.000000
0.000000 0.368113 0.000000
0.000000 0.365397 0.000000
0.000000 0.362155 0.000000
0.000000 0.358356 0.000000
0.066432 0.353971 0.000000
0.175958 0.348965 0.000000
0.255512 0.343300 0.000000
0.323528 0.336934 0.000000
0.385317 0.329817 0.000000
0.443198 0.321894 0.000000
0.498407 0.313096 0.000000
0.551681 0.303345 0.000000
0.603499 0.292544 0.000000
0.654184 0.280576 0.000000
0.703970 0.267292 0.000000
0.753027 0.252503 0.000000
0.801483 0.235960 0.000000
0.849437 0.217321 0.000000
0.896969 0.196100 0.000000
0.944139 0.171557 0.000000
0.990999 0.142465 0.000000
1.000000 0.106488 0.000000
1.000000 0.059736 0.000000
1.000000 0.008636 0.000000
1.000000 0.000000 0.000000
1.000000 0.000000 0.000000
1.000000 0.000000 0.000000
1.000000 0.000000 0.000000
1.000000 0.000000 0.000000
1.000000 0.000000 0.000000
0.000000 0.410899 0.000000
0.000000 0.408872 0.000000
0.000000 0.406835 0.000000
0.000000 0.404746 0.000000
0.000000 0.402271 0.000000
0.000000 0.399319 0.000000
0.000000 0.395867 0.000000
0.000000 0.391888 0.000000
0.108588 0.387355 0.000000
0.209798 0.382238 0.000000
0.287663 0.376504 0.000000
0.355399 0.370115 0.000000
0.417363 0.363029 0.000000
0.475593 0.355198 0.000000
0.531214 0.346564 0.000000
0.584918 0.337061 0.000000
0.637160 0.326610 0.000000
0.688256 0.315117 0.000000
0.738433 0.302464 0.000000
0.787859 0.288506 0.000000
0.836664 0.273059 0.000000
0.884946 0.255880 0.000000
0.932786 0.236641 0.000000
0.980246 0.214879 0.000000
1.000000 0.189903 0.000000
1.000000 0.160590 0.000000
1.000000 0.124885 0.000000
1.000000 0.078162 0.000000
1.000000 0.022679 0.000000
1.000000 0.000000 0.000000
1.000000 0.000000 0.000000
1.000000 0.000000 0.000000
1.000000 0.000000 0.000000
0.000000 0.446945 0.000000
0.000000 0.445081 0.000000
0.000000 0.443209 0.000000
0.000000 0.441290 0.000000
0.000000 0.439019 0.000000
0.000000 0.436313 0.000000
0.000000 0.433152 0.000000
0.000000 0.429513 0.000000
0.006215 0.425375 0.000000
0.147969 0.420712 0.000000
0.243246 0.415498 0.000000
0.319769 0.409704 0.000000
0.387269 0.403296 0.000000
0.449390 0.396237 0.000000
0.507933 0.388484 0.000000
0.563933 0.379990 0.000000
0.618036 0.370698 0.000000
0.670677 0.360542 0.000000
0.722161 0.349444 0.000000
0.772710 0.337309 0.000000
0.822491 0.324023 0.000000
0.871632 0.309443 0.000000
0.920232 0.293389 0.000000
0.968372 0.275626 0.000000
1.000000 0.255838 0.000000
1.000000 0.233586 0.000000
1.000000 0.208221 0.000000
1.000000 0.178713 0.000000
1.000000 0.143238 0.000000
1.000000 0.097913 0.000000
1.000000 0.038933 0.000000
1.000000 0.000000 0.000000
1.000000 0.000000 0.000000
0.000000 0.482989 0.000000
0.000000 0.481266 0.000000
0.000000 0.479536 0.000000
0.000000 0.477764 0.000000
0.000000 0.475668 0.000000
0.000000 0.473172 0.000000
0.000000 0.470259 0.000000
0.000000 0.466910 0.000000
0.000000 0.463106 0.000000
0.049683 0.458826 0.000000
0.185344 0.454048 0.000000
0.276408 0.448749 0.000000
0.351841 0.442901 0.000000
0.419139 0.436476 0.000000
0.481399 0.429440 0.000000
0.540228 0.421757 0.000000
0.596575 0.413384 0.000000
0.651049 0.404273 0.000000
0.704065 0.394368 0.000000
0.755917 0.383604 0.000000
0.806821 0.371902 0.000000
0.856943 0.359171 0.000000
0.906408 0.345297 0.000000
0.955316 0.330140 0.000000
1.000000 0.313525 0.000000
1.000000 0.295223 0.000000
1.000000 0.274932 0.000000
1.000000 0.252233 0.000000
1.000000 0.226516 0.000000
1.000000 0.196834 0.000000
1.000000 0.161557 0.000000
1.000000 0.117393 0.000000
1.000000 0.060004 0.000000
0.000000 0.519033 0.000000
0.000000 0.517431 0.000000
0.000000 0.515825 0.000000
0.000000 0.514180 0.000000
0.000000 0.512236 0.000000
0.000000 0.509922 0.000000
0.000000 0.507224 0.000000
0.000000 0.504124 0.000000
0.000000 0.500606 0.000000
0.000000 0.496654 0.000000
0.099613 0.492247 0.000000
0.221458 0.487367 0.000000
0.309358 0.481991 0.000000
0.383886 0.476096 0.000000
0.451009 0.469655 0.000000
0.513394 0.462640 0.000000
0.572482 0.455017 0.000000
0.629151 0.446750 0.000000
0.683972 0.437797 0.000000
0.737340 0.428109 0.000000
0.789540 0.417631 0.000000
0.840784 0.406298 0.000000
0.891232 0.394033 0.000000
0.941009 0.380745 0.000000
0.990216 0.366322 0.000000
1.000000 0.350628 0.000000
1.000000 0.333492 0.000000
1.000000 0.314692 0.000000
1.000000 0.293937 0.000000
1.000000 0.270828 0.000000
1.000000 0.244792 0.000000
1.000000 0.214954 0.000000
1.000000 0.181345 0.000000
0.000000 0.555075 0.000000
0.000000 0.553581 0.000000
0.000000 0.552083 0.000000
0.000000 0.550550 0.000000
0.000000 0.548738 0.000000
0.000000 0.546583 0.000000
0.000000 0.544072 0.000000
0.000000 0.541189 0.000000
0.000000 0.537920 0.000000
0.000000 0.534250 0.000000
0.000000 0.530163 0.000000
0.145370 0.525642 0.000000
0.256714 0.520670 0.000000
0.342144 0.515226 0.000000
0.415909 0.509288 0.000000
0.482879 0.502834 0.000000
0.545376 0.495837 0.000000
0.604702 0.488268 0.000000
0.661668 0.480094 0.000000
0.716813 0.471279 0.000000
0.770514 0.461780 0.000000
0.823045 0.451551 0.000000
0.874612 0.440535 0.000000
0.925373 0.428669 0.000000
0.975452 0.415876 0.000000
1.000000 0.402066 0.000000
1.000000 0.387130 0.000000
1.000000 0.370934 0.000000
1.000000 0.353311 0.000000
1.000000 0.334048 0.000000
1.000000 0.312864 0.000000
1.000000 0.289379 0.000000
1.000000 0.264143 0.000000
0.000000 0.591117 0.000000
0.000000 0.589718 0.000000
0.000000 0.588315 0.000000
0.000000 0.586880 0.000000
0.000000 0.585186 0.000000
0.000000 0.583171 0.000000
0.000000 0.580823 0.000000
0.000000 0.578130 0.000000
0.000000 0.575079 0.000000
0.000000 0.571656 0.000000
0.000000 0.567848 0.000000
0.018721 0.563640 0.000000
0.187060 0.559016 0.000000
0.291358 0.553960 0.000000
0.374801 0.548455 0.000000
0.447913 0.542479 0.000000
0.514749 0.536013 0.000000
0.577348 0.529032 0.000000
0.636892 0.521510 0.000000
0.694135 0.513419 0.000000
0.749583 0.504726 0.000000
0.803598 0.495395 0.000000
0.856443 0.485383 0.000000
0.908319 0.474643 0.000000
0.959381 0.463121 0.000000
1.000000 0.450752 0.000000
1.000000 0.437462 0.000000
1.000000 0.423161 0.000000
1.000000 0.407744 0.000000
1.000000 0.391078 0.000000
1.000000 0.373001 0.000000
1.000000 0.353306 0.000000
1.000000 0.332606 0.000000
0.000000 0.627158 0.000000
0.000000 0.625843 0.000000
0.000000 0.624526 0.000000
0.000000 0.623178 0.000000
0.000000 0.621587 0.000000
0.000000 0.619696 0.000000
0.000000 0.617494 0.000000
0.000000 0.614969 0.000000
0.000000 0.612110 0.000000
0.000000 0.608905 0.000000
0.000000 0.605342 0.000000
0.000000 0.601407 0.000000
0.076257 0.597088 0.000000
0.226362 0.592371 0.000000
0.325546 0.587240 0.000000
0.407355 0.581678 0.000000
0.479902 0.575668 0.000000
0.546619 0.569191 0.000000
0.609310 0.562225 0.000000
0.669056 0.554746 0.000000
0.726556 0.546729 0.000000
0.782289 0.538145 0.000000
0.836601 0.528961 0.000000
0.889745 0.519141 0.000000
0.941916 0.508644 0.000000
0.993267 0.497422 0.000000
1.000000 0.485421 0.000000
1.000000 0.472578 0.000000
1.000000 0.458819 0.000000
1.000000 0.444057 0.000000
1.000000 0.428186 0.000000
1.000000 0.411078 0.000000
1.000000 0.393326 0.000000
0.000000 0.663198 0.000000
0.000000 0.661959 0.000000
0.000000 0.660718 0.000000
0.000000 0.659449 0.000000
0.000000 0.657950 0.000000
0.000000 0.656170 0.000000
0.000000 0.654098 0.000000
0.000000 0.651722 0.000000
0.000000 0.649034 0.000000
0.000000 0.646022 0.000000
0.000000 0.642675 0.000000
0.000000 0.638983 0.000000
0.000000 0.634933 0.000000
0.132655 0.630513 0.000000
0.264103 0.625710 0.000000
0.359385 0.620510 0.000000
0.439825 0.614897 0.000000
0.511879 0.608856 0.000000
0.578488 0.602369 0.000000
0.641265 0.595416 0.000000
0.701197 0.587976 0.000000
0.758937 0.580026 0.000000
0.814938 0.571539 0.000000
0.869530 0.562487 0.000000
0.922959 0.552838 0.000000
0.975413 0.542556 0.000000
1.000000 0.531599 0.000000
1.000000 0.519920 0.000000
1.000000 0.507466 0.000000
1.000000 0.494174 0.000000
1.000000 0.479972 0.000000
1.000000 0.464773 0.000000
1.000000 0.449133 0.000000
0.000000 0.699238 0.000000
0.000000 0.698067 0.000000
0.000000 0.696894 0.000000
0.000000 0.695695 0.000000
0.000000 0.694280 0.000000
0.000000 0.692599 0.000000
0.000000 0.690643 0.000000
0.000000 0.688402 0.000000
0.000000 0.685866 0.000000
0.000000 0.683027 0.000000
0.000000 0.679873 0.000000
0.000000 0.676396 0.000000
0.000000 0.672585 0.000000
0.000000 0.668429 0.000000
0.180714 0.663916 0.000000
0.300755 0.659035 0.000000
0.392950 0.653772 0.000000
0.472225 0.648113 0.000000
0.543845 0.642043 0.000000
0.610357 0.635547 0.000000
0.673212 0.628606 0.000000
0.733317 0.621201 0.000000
0.791281 0.613311 0.000000
0.847535 0.604912 0.000000
0.902394 0.595979 0.000000
0.956093 0.586483 0.000000
1.000000 0.576392 0.000000
1.000000 0.565670 0.000000
1.000000 0.554276 0.000000
1.000000 0.542164 0.000000
1.000000 0.529280 0.000000
1.000000 0.515563 0.000000
1.000000 0.501529 0.000000
0.000000 0.735277 0.000000
0.000000 0.734168 0.000000
0.000000 0.733057 0.000000
0.000000 0.731922 0.000000
0.000000 0.730582 0.000000
0.000000 0.728990 0.000000
0.000000 0.727139 0.000000
0.000000 0.725019 0.000000
0.000000 0.722620 0.000000
0.000000 0.719936 0.000000
0.000000 0.716956 0.000000
0.000000 0.713672 0.000000
0.000000 0.710074 0.000000
0.000000 0.706153 0.000000
0.036789 0.701899 0.000000
0.224423 0.697301 0.000000
0.336608 0.692347 0.000000
0.426295 0.687026 0.000000
0.504568 0.681325 0.000000
0.575801 0.675229 0.000000
0.642227 0.668724 0.000000
0.705153 0.661794 0.000000
0.765419 0.654421 0.000000
0.823594 0.646586 0.000000
0.880086 0.638267 0.000000
0.935197 0.629441 0.000000
0.989155 0.620083 0.000000
1.000000 0.610164 0.000000
1.000000 0.599653 0.000000
1.000000 0.588512 0.000000
1.000000 0.576702 0.000000
1.000000 0.564177 0.000000
1.000000 0.551419 0.000000
0.000000 0.771316 0.000000
0.000000 0.770263 0.000000
0.000000 0.769208 0.000000
0.000000 0.768131 0.000000
0.000000 0.766859 0.000000
0.000000 0.765349 0.000000
0.000000 0.763592 0.000000
0.000000 0.761581 0.000000
0.000000 0.759307 0.000000
0.000000 0.756762 0.000000
0.000000 0.753939 0.000000
0.000000 0.750829 0.000000
0.000000 0.747423 0.000000
0.000000 0.743714 0.000000
0.000000 0.739691 0.000000
0.106814 0.735347 0.000000
0.265471 0.730669 0.000000
0.371854 0.725649 0.000000
0.459461 0.720275 0.000000
0.536861 0.714534 0.000000
0.607749 0.708414 0.000000
0.674096 0.701902 0.000000
0.737089 0.694982 0.000000
0.797504 0.687638 0.000000
0.855877 0.679852 0.000000
0.912595 0.671606 0.000000
0.967946 0.662878 0.000000
1.000000 0.653645 0.000000
1.000000 0.643881 0.000000
1.000000 0.633559 0.000000
1.000000 0.622645 0.000000
1.000000 0.611105 0.000000
1.000000 0.599389 0.000000
0.000000 0.807355 0.000000
0.000000 0.806353 0.000000
0.000000 0.805349 0.000000
0.000000 0.804324 0.000000
0.000000 0.803114 0.000000
0.000000 0.801678 0.000000
0.000000 0.800008 0.000000
0.000000 0.798096 0.000000
0.000000 0.795935 0.000000
0.000000 0.793517 0.000000
0.000000 0.790836 0.000000
0.000000 0.787883 0.000000
0.000000 0.784651 0.000000
0.000000 0.781133 0.000000
0.000000 0.777319 0.000000
0.000000 0.773203 0.000000
0.165082 0.768774 0.000000
0.304731 0.764023 0.000000
0.406628 0.758941 0.000000
0.492480 0.753517 0.000000
0.569113 0.747740 0.000000
0.639691 0.741599 0.000000
0.705965 0.735079 0.000000
0.769020 0.728168 0.000000
0.829575 0.720851 0.000000
0.888134 0.713111 0.000000
0.945065 0.704931 0.000000
1.000000 0.696292 0.000000
1.000000 0.687173 0.000000
1.000000 0.677550 0.000000
1.000000 0.667399 0.000000
1.000000 0.656690 0.000000
1.000000 0.645846 0.000000
0.000000 0.843394 0.000000
0.000000 0.842438 0.000000
0.000000 0.841481 0.000000
0.000000 0.840504 0.000000
0.000000 0.839351 0.000000
0.000000 0.837983 0.000000
0.000000 0.836391 0.000000
0.000000 0.834570 0.000000
0.000000 0.832512 0.000000
0.000000 0.830210 0.000000
0.000000 0.827658 0.000000
0.000000 0.824848 0.000000
0.000000 0.821774 0.000000
0.000000 0.818429 0.000000
0.000000 0.814805 0.000000
0.000000 0.810895 0.000000
0.000000 0.806690 0.000000
0.215079 0.802183 0.000000
0.342712 0.797364 0.000000
0.441026 0.792225 0.000000
0.525375 0.786755 0.000000
0.601329 0.780945 0.000000
0.671626 0.774782 0.000000
0.737834 0.768256 0.000000
0.800946 0.761354 0.000000
0.861632 0.754061 0.000000
0.920367 0.746364 0.000000
0.977500 0.738245 0.000000
1.000000 0.729687 0.000000
1.000000 0.720672 0.000000
1.000000 0.711177 0.000000
1.000000 0.701181 0.000000
1.000000 0.691080 0.000000
0.000000 0.879432 0.000000
0.000000 0.878519 0.000000
0.000000 0.877606 0.000000
0.000000 0.876672 0.000000
0.000000 0.875571 0.000000
0.000000 0.874265 0.000000
0.000000 0.872746 0.000000
0.000000 0.871008 0.000000
0.000000 0.869044 0.000000
0.000000 0.866848 0.000000
0.000000 0.864414 0.000000
0.000000 0.861735 0.000000
0.000000 0.858805 0.000000
0.000000 0.855618 0.000000
0.000000 0.852166 0.000000
0.000000 0.848444 0.000000
0.000000 0.844443 0.000000
0.060729 0.840156 0.000000
0.260562 0.835575 0.000000
0.379740 0.830693 0.000000
0.475117 0.825501 0.000000
0.558165 0.819988 0.000000
0.633514 0.814147 0.000000
0.703556 0.807965 0.000000
0.769703 0.801433 0.000000
0.832869 0.794539 0.000000
0.893677 0.787269 0.000000
0.952578 0.779610 0.000000
1.000000 0.771547 0.000000
1.000000 0.763064 0.000000
1.000000 0.754144 0.000000
1.000000 0.744768 0.000000
1.000000 0.735308 0.000000
0.000000 0.915470 0.000000
0.000000 0.914597 0.000000
0.000000 0.913723 0.000000
0.000000 0.912830 0.000000
0.000000 0.911777 0.000000
0.000000 0.910527 0.000000
0.000000 0.909075 0.000000
0.000000 0.907413 0.000000
0.000000 0.905536 0.000000
0.000000 0.903438 0.000000
0.000000 0.901112 0.000000
0.000000 0.898553 0.000000
0.000000 0.895755 0.000000
0.000000 0.892712 0.000000
0.000000 0.889418 0.000000
0.000000 0.885867 0.000000
0.000000 0.882052 0.000000
0.000000 0.877966 0.000000
0.137385 0.873602 0.000000
0.303190 0.868954 0.000000
0.416032 0.864012 0.000000
0.508956 0.858770 0.000000
0.590867 0.853218 0.000000
0.665672 0.847347 0.000000
0.735481 0.841148 0.000000
0.801572 0.834610 0.000000
0.864788 0.827723 0.000000
0.925712 0.820474 0.000000
0.984769 0.812851 0.000000
1.000000 0.804840 0.000000
1.000000 0.796427 0.000000
1.000000 0.787594 0.000000
1.000000 0.778696 0.000000
0.000000 0.951508 0.000000
0.000000 0.950671 0.000000
0.000000 0.949834 0.000000
0.000000 0.948978 0.000000
0.000000 0.947970 0.000000
0.000000 0.946773 0.000000
0.000000 0.945382 0.000000
0.000000 0.943790 0.000000
0.000000 0.941993 0.000000
0.000000 0.939984 0.000000
0.000000 0.937758 0.000000
0.000000 0.935310 0.000000
0.000000 0.932633 0.000000
0.000000 0.929723 0.000000
0.000000 0.926574 0.000000
0.000000 0.923180 0.000000
0.000000 0.919535 0.000000
0.000000 0.915633 0.000000
0.000000 0.911467 0.000000
0.197087 0.907031 0.000000
0.343854 0.902319 0.000000
0.451742 0.897322 0.000000
0.542584 0.892032 0.000000
0.623492 0.886443 0.000000
0.697807 0.880546 0.000000
