Sources/Resources/LUT/gfx-eterna-55-3d-lut-v100/33Grid/F-Log2C/FLog2C_to_CLASSIC-CHROME_33grid_V.1.00.cube
#title:FLog2C_to_CLASSIC-CHROME
#model:GFX ETERNA 55
#FUJIFILM Corporation
#Gamma:F-Log2C to CLASSIC CHROME
#Gamut:F-GamutC to ITU-R BT.709
#Version:1.00
LUT_3D_SIZE 9
0.000000 0.000000 0.000000
0.076441 0.002282 0.001918
0.573004 0.025728 0.052214
0.962417 0.244490 0.371536
0.958776 0.374451 0.448598
0.958776 0.374451 0.448598
0.958776 0.374451 0.448598
0.958776 0.374451 0.448598
0.958776 0.374451 0.448598
0.000765 0.019651 0.000000
0.008991 0.003799 0.000000
0.298336 0.007947 0.016101
0.893934 0.110971 0.193559
0.958776 0.374451 0.448598
0.958776 0.374451 0.448598
0.958776 0.374451 0.448598
0.958776 0.374451 0.448598
0.958776 0.374451 0.448598
0.000800 0.210986 0.000000
0.000000 0.120356 0.000000
0.127404 0.079810 0.000167
0.691408 0.113406 0.052605
0.960203 0.315850 0.386817
0.958776 0.374451 0.448598
0.958776 0.374451 0.448598
0.958776 0.374451 0.448598
0.958776 0.374451 0.448598
0.014293 0.673682 0.005845
0.003658 0.533927 0.000000
0.000644 0.397326 0.000000
0.479094 0.346912 0.006753
0.956018 0.452280 0.175011
0.958689 0.487859 0.404562
0.956965 0.439864 0.424917
0.957387 0.400164 0.439773
0.958776 0.374451 0.448598
0.048257 0.965212 0.034672
0.039327 0.893090 0.026843
0.027667 0.811704 0.013909
0.168306 0.729543 0.016703
0.825229 0.698379 0.073219
0.951513 0.683297 0.230844
0.951553 0.616799 0.333285
0.955508 0.555649 0.372230
0.958093 0.497547 0.399062
0.047866 0.967222 0.033919
0.047866 0.967222 0.033919
0.047866 0.967222 0.033919
0.047866 0.967222 0.033919
0.576350 0.923260 0.099156
0.956432 0.892287 0.169794
0.950842 0.804471 0.131211
0.952251 0.749375 0.171356
0.951505 0.689587 0.258445
0.047866 0.967222 0.033919
0.047866 0.967222 0.033919
0.047866 0.967222 0.033919
0.047866 0.967222 0.033919
0.047866 0.967222 0.033919
0.801528 0.967776 0.161672
0.962051 0.948125 0.193058
0.958960 0.908558 0.173613
0.954307 0.864355 0.156429
0.047866 0.967222 0.033919
0.047866 0.967222 0.033919
0.047866 0.967222 0.033919
0.047866 0.967222 0.033919
0.047866 0.967222 0.033919
0.193128 0.965272 0.048445
0.910809 0.970942 0.192837
0.964568 0.973038 0.212368
0.964568 0.973038 0.212368
0.047866 0.967222 0.033919
0.047866 0.967222 0.033919
0.047866 0.967222 0.033919
0.047866 0.967222 0.033919
0.047866 0.967222 0.033919
0.047866 0.967222 0.033919
0.734278 0.964639 0.148616
0.964568 0.973038 0.212368
0.964568 0.973038 0.212368
0.000000 0.000000 0.003461
0.059236 0.002668 0.002226
0.519244 0.021280 0.044797
0.962828 0.223178 0.351695
0.958776 0.374451 0.448598
0.958776 0.374451 0.448598
0.958776 0.374451 0.448598
0.958776 0.374451 0.448598
0.958776 0.374451 0.448598
0.000000 0.019302 0.020593
0.004883 0.004883 0.004883
0.258258 0.007184 0.013788
0.860519 0.094762 0.167637
0.958776 0.374451 0.448598
0.958776 0.374451 0.448598
0.958776 0.374451 0.448598
0.958776 0.374451 0.448598
0.958776 0.374451 0.448598
0.000000 0.250630 0.029259
0.000667 0.135987 0.000476
0.104521 0.089991 0.000000
0.647615 0.115412 0.037204
0.959821 0.309217 0.370573
0.958776 0.374451 0.448598
0.958776 0.374451 0.448598
0.958776 0.374451 0.448598
0.958776 0.374451 0.448598
0.017586 0.710275 0.005808
0.006951 0.570521 0.000000
0.000232 0.422334 0.000591
0.435874 0.360884 0.005331
0.935692 0.452133 0.134852
0.957702 0.499893 0.396579
0.958323 0.451506 0.421371
0.958162 0.408820 0.436003
0.958776 0.374451 0.448598
0.047866 0.967222 0.033919
0.038532 0.908441 0.026981
0.029217 0.826999 0.016754
0.105143 0.745631 0.013858
0.797262 0.709341 0.072996
0.951112 0.700671 0.210970
0.952520 0.631796 0.322063
0.953152 0.568381 0.364246
0.958083 0.510559 0.392054
0.047866 0.967222 0.033919
0.047866 0.967222 0.033919
0.047866 0.967222 0.033919
0.047866 0.967222 0.033919
0.497553 0.933710 0.089253
0.957007 0.906268 0.173391
0.952201 0.814433 0.136316
0.950680 0.761449 0.147575
0.951886 0.702941 0.240077
0.047866 0.967222 0.033919
0.047866 0.967222 0.033919
0.047866 0.967222 0.033919
0.047866 0.967222 0.033919
0.047866 0.967222 0.033919
0.754804 0.964837 0.153723
0.963018 0.959759 0.199141
0.957973 0.918240 0.177742
0.955667 0.874652 0.159804
0.047866 0.967222 0.033919
0.047866 0.967222 0.033919
0.047866 0.967222 0.033919
0.047866 0.967222 0.033919
0.047866 0.967222 0.033919
0.114924 0.966706 0.040582
0.878553 0.969683 0.181118
0.964568 0.973038 0.212368
0.964568 0.973038 0.212368
0.065596 0.964210 0.422671
0.050795 0.966790 0.054152
0.047866 0.967222 0.033919
0.047866 0.967222 0.033919
0.047866 0.967222 0.033919
0.047866 0.967222 0.033919
0.692247 0.963266 0.137429
0.964568 0.973038 0.212368
0.964568 0.973038 0.212368
0.000000 0.000000 0.070109
0.048676 0.000860 0.030668
0.472522 0.015987 0.048961
0.965988 0.192502 0.312905
0.958776 0.374451 0.448598
0.958776 0.374451 0.448598
0.958776 0.374451 0.448598
0.958776 0.374451 0.448598
0.958776 0.374451 0.448598
0.000000 0.016422 0.155399
0.001158 0.002181 0.079962
0.241245 0.001812 0.068942
0.831013 0.076410 0.176771
0.958585 0.369792 0.447399
0.958776 0.374451 0.448598
0.958776 0.374451 0.448598
0.958776 0.374451 0.448598
0.958776 0.374451 0.448598
0.001076 0.289835 0.303715
0.000000 0.161755 0.161735
0.097656 0.097656 0.097656
0.628245 0.113362 0.132825
0.960213 0.300822 0.404208
0.958776 0.374788 0.446867
0.958776 0.374451 0.448598
0.958776 0.374451 0.448598
0.958776 0.374451 0.448598
0.029429 0.734053 0.400558
0.014303 0.614964 0.248196
0.002520 0.468755 0.123914
0.417655 0.386798 0.108149
0.917681 0.452315 0.275379
0.955136 0.518193 0.454711
0.957730 0.461195 0.415871
0.958938 0.417475 0.432235
0.958967 0.380121 0.444605
0.054681 0.965801 0.203246
0.045156 0.922189 0.093011
0.032328 0.846256 0.020796
0.038064 0.768136 0.013946
0.773785 0.722826 0.099397
0.951656 0.717055 0.382164
0.951907 0.648016 0.402915
0.953334 0.583365 0.372281
0.956705 0.523595 0.388508
0.047866 0.967222 0.033919
0.047866 0.967222 0.033919
0.047866 0.967222 0.033919
0.047866 0.967222 0.033919
0.397253 0.942650 0.075000
0.958175 0.912241 0.173836
0.954910 0.824515 0.257191
0.953389 0.773547 0.258067
0.952068 0.716244 0.256766
0.059364 0.964919 0.272602
0.047866 0.967222 0.033919
0.047866 0.967222 0.033919
0.047866 0.967222 0.033919
0.047866 0.967222 0.033919
0.700653 0.963743 0.138629
0.963008 0.970082 0.205977
0.960118 0.924517 0.182625
0.956050 0.883301 0.165663
0.081009 0.960533 0.632468
0.059546 0.966124 0.351586
0.047866 0.967222 0.033919
0.047866 0.967222 0.033919
0.047866 0.967222 0.033919
0.053927 0.967419 0.034141
0.854704 0.967894 0.175789
0.964568 0.973038 0.212368
0.964568 0.973038 0.212368
0.088410 0.959411 0.815863
0.080416 0.960812 0.675421
0.065596 0.963874 0.424402
0.050795 0.966790 0.054152
0.047866 0.967222 0.033919
0.047866 0.967222 0.033919
0.649823 0.962895 0.130680
0.964568 0.973038 0.212368
0.964568 0.973038 0.212368
0.000545 0.000000 0.257718
0.043572 0.000440 0.157574
0.464105 0.004997 0.161887
0.968353 0.158020 0.372891
0.960336 0.375055 0.467102
0.958776 0.374451 0.448598
0.958776 0.374451 0.448598
0.958776 0.374451 0.448598
0.958776 0.374451 0.448598
0.001099 0.002282 0.439383
0.000000 0.000000 0.284875
0.255883 0.000000 0.228863
0.815961 0.043848 0.323946
0.959943 0.366646 0.519991
0.960135 0.379708 0.477930
0.958776 0.374451 0.448598
0.958776 0.374451 0.448598
0.958776 0.374451 0.448598
0.002568 0.307245 0.655597
0.003098 0.174830 0.487969
0.090771 0.099418 0.346500
0.628025 0.103039 0.340753
0.961583 0.274919 0.533993
0.958344 0.405319 0.539216
0.959349 0.381376 0.488535
0.958776 0.374451 0.448598
0.958776 0.374451 0.448598
0.042849 0.745853 0.758609
0.028490 0.639021 0.643922
0.012398 0.505273 0.501051
0.409180 0.409180 0.409180
0.902602 0.444336 0.475942
0.954895 0.546663 0.582868
0.958275 0.488670 0.529960
0.957740 0.436421 0.483445
0.958766 0.387127 0.443321
0.081986 0.941682 0.735543
0.065012 0.912829 0.671637
0.053735 0.858912 0.567656
0.038177 0.782789 0.443613
0.756905 0.735994 0.444222
0.955523 0.729990 0.579539
0.953236 0.664077 0.556582
0.953295 0.604156 0.505185
0.956092 0.541832 0.458977
0.070076 0.962606 0.530542
0.062666 0.964640 0.402438
0.059554 0.964540 0.299757
0.054490 0.965846 0.177821
0.260972 0.941582 0.155255
0.946798 0.913159 0.387402
0.959945 0.832332 0.512116
0.955887 0.784155 0.471016
0.953982 0.730923 0.433153
0.088420 0.958161 0.762304
0.073781 0.963101 0.586809
0.059364 0.964583 0.274331
0.047866 0.967222 0.033919
0.047866 0.967222 0.033919
0.620889 0.962557 0.122644
0.963592 0.972062 0.211392
0.960310 0.925817 0.201129
0.957993 0.887511 0.215985
0.095438 0.958137 0.889656
0.089589 0.958758 0.790438
0.081009 0.960196 0.634200
0.059546 0.965788 0.353317
0.047866 0.967222 0.033919
0.047866 0.967222 0.033919
0.828115 0.967499 0.170461
0.964568 0.973038 0.212368
0.964568 0.973038 0.212368
0.100321 0.955962 0.930879
0.098368 0.958378 0.906431
0.088410 0.959411 0.815863
0.080416 0.960812 0.675421
0.065596 0.963538 0.426132
0.054300 0.965890 0.152394
0.599385 0.961383 0.116563
0.964568 0.973038 0.212368
0.964568 0.973038 0.212368
0.002640 0.000341 0.590961
0.038641 0.000122 0.429137
0.479518 0.000000 0.380335
0.964074 0.103215 0.520684
0.959522 0.394920 0.563973
0.958947 0.389341 0.517113
0.960336 0.375055 0.467102
0.958776 0.374451 0.448598
0.958776 0.374451 0.448598
0.004957 0.000335 0.773379
0.003809 0.000000 0.624285
0.280861 0.000000 0.514629
0.811461 0.007285 0.532578
0.959973 0.315178 0.605044
0.960307 0.389892 0.570673
0.960115 0.392961 0.529671
0.960135 0.379708 0.477930
0.958776 0.374451 0.448598
0.004138 0.251148 0.906071
0.005031 0.139961 0.799504
0.086635 0.072659 0.675031
0.639542 0.071690 0.609028
0.963756 0.218302 0.682762
0.958927 0.392175 0.622500
0.960307 0.387875 0.581055
0.960307 0.395605 0.541254
0.959349 0.381376 0.488535
0.044994 0.717179 0.943462
0.033343 0.633537 0.882160
0.018994 0.509661 0.795246
0.399154 0.415596 0.710829
0.891830 0.423899 0.695095
0.954864 0.561165 0.688167
0.955498 0.514889 0.642098
0.959453 0.469869 0.597980
0.958525 0.419966 0.548981
0.082379 0.904047 0.919726
0.070085 0.881372 0.888836
0.059564 0.846674 0.846673
0.049455 0.791336 0.781206
0.743164 0.743164 0.743164
0.957055 0.735685 0.751797
0.953782 0.685838 0.700090
0.954425 0.628904 0.648914
0.953506 0.569014 0.591347
0.093293 0.958580 0.850164
0.088219 0.959456 0.790438
0.088420 0.958497 0.760575
0.085299 0.955948 0.730489
0.140074 0.925796 0.682121
0.924068 0.909809 0.721261
0.964990 0.837558 0.720407
0.960540 0.793070 0.669898
0.955897 0.744258 0.616462
0.100321 0.955962 0.930879
0.093485 0.959208 0.872129
0.088420 0.958161 0.762304
0.073781 0.962765 0.588540
0.065596 0.964210 0.422671
0.556510 0.961106 0.478862
0.975846 0.980241 0.556882
0.970801 0.932000 0.570094
0.965756 0.892831 0.536581
0.100321 0.955962 0.930879
0.100321 0.955962 0.930879
0.095438 0.958137 0.889656
0.088219 0.959456 0.790438
0.079640 0.959886 0.639390
0.066763 0.963798 0.455996
0.797200 0.967946 0.326340
0.964177 0.974376 0.215074
0.964568 0.973038 0.212368
0.100321 0.955962 0.930879
0.100321 0.955962 0.930879
0.100321 0.955962 0.930879
0.098368 0.958042 0.908160
0.088410 0.959411 0.815863
0.080999 0.961110 0.689488
0.594021 0.964711 0.618909
0.975070 0.981668 0.508737
0.963783 0.975378 0.219511
0.005723 0.000157 0.875082
0.011803 0.000208 0.756075
0.515250 0.000000 0.673469
0.954721 0.031809 0.698734
0.959933 0.353444 0.647961
0.959138 0.377533 0.603104
0.958545 0.393943 0.562996
0.958947 0.389341 0.517113
0.959943 0.377064 0.466347
0.004726 0.000000 0.989876
0.004937 0.000000 0.896071
0.290980 0.000203 0.803410
0.815529 0.008173 0.757195
0.963362 0.211910 0.725270
0.960135 0.344757 0.657898
0.959532 0.373507 0.614242
0.959913 0.391566 0.571649
0.960115 0.392961 0.529671
0.006459 0.030276 1.000000
0.005702 0.000000 0.997773
0.071210 0.000289 0.916801
0.655399 0.002625 0.845964
0.967922 0.117976 0.828637
0.960910 0.341314 0.716426
0.960920 0.339057 0.668058
0.958947 0.369176 0.620941
0.960307 0.387875 0.581055
0.026939 0.560546 0.966407
0.023262 0.513287 0.970964
0.017262 0.441743 0.978181
0.373169 0.354188 0.915282
0.883644 0.359811 0.866668
0.956464 0.501319 0.777964
0.957864 0.475367 0.728040
0.959855 0.440397 0.680153
0.958717 0.408496 0.633242
0.062494 0.829104 0.955161
0.058406 0.807862 0.955332
0.054318 0.786619 0.955504
0.047702 0.749442 0.950125
0.706207 0.718399 0.907645
0.959995 0.704430 0.870754
0.955140 0.679669 0.788259
0.954405 0.633419 0.745649
0.955429 0.585469 0.698602
0.100321 0.955962 0.930879
0.096021 0.953058 0.931410
0.091731 0.937478 0.937218
0.084322 0.918676 0.916401
0.075744 0.895246 0.888219
0.885742 0.885742 0.885742
0.969269 0.839599 0.844297
0.963248 0.801135 0.801155
0.958405 0.756641 0.760277
0.100321 0.955962 0.930879
0.100321 0.955962 0.930879
0.100321 0.955962 0.930879
0.093485 0.959208 0.872129
0.088612 0.958453 0.786000
0.413545 0.960169 0.781559
0.986750 0.980907 0.824675
0.977608 0.930484 0.799903
0.972171 0.893998 0.762175
0.100321 0.955962 0.930879
0.100321 0.955962 0.930879
0.100321 0.955962 0.930879
0.100321 0.955962 0.930879
0.095438 0.957800 0.891387
0.089195 0.958415 0.801796
0.785977 0.974153 0.777837
0.982662 0.988231 0.677758
0.979158 0.984762 0.602011
0.100321 0.955962 0.930879
0.100321 0.955962 0.930879
0.100321 0.955962 0.930879
0.100321 0.955962 0.930879
0.100321 0.955962 0.930879
0.098368 0.957706 0.909892
0.451268 0.960223 0.845105
0.965820 0.991025 0.836035
0.982461 0.988516 0.711082
0.005702 0.000000 0.997773
0.006487 0.000000 0.976785
0.526748 0.000000 0.898310
0.950996 0.012639 0.858604
0.963899 0.268863 0.747558
0.958977 0.319723 0.695609
0.959933 0.353444 0.647961
0.959532 0.375859 0.602128
0.958545 0.393943 0.562996
0.005702 0.000000 0.997773
0.005702 0.000000 0.997773
0.241289 0.000674 0.999843
0.816870 0.008870 0.929985
0.969933 0.044886 0.857063
0.961169 0.256911 0.756296
0.960547 0.310339 0.705548
0.960135 0.344757 0.657898
0.959532 0.373507 0.614242
0.005702 0.000000 0.997773
0.005702 0.000000 0.997773
0.005702 0.000000 0.997773
0.645402 0.003278 0.997321
0.971111 0.017346 0.970075
0.963334 0.229099 0.816727
0.963917 0.241496 0.768497
0.960747 0.301316 0.717215
0.960920 0.339057 0.668058
0.010301 0.345887 0.984590
0.005546 0.185633 0.999859
0.005776 0.143961 0.999672
0.312730 0.138080 0.995848
0.868931 0.164294 0.978261
0.961636 0.374026 0.888734
0.960067 0.394501 0.821692
0.961263 0.374546 0.775673
0.961092 0.355626 0.727922
0.062101 0.830777 0.956137
0.048297 0.738745 0.960816
0.036455 0.638006 0.962344
0.032962 0.607748 0.964556
0.620854 0.608228 0.962098
0.955955 0.607040 0.963071
0.956157 0.619525 0.863989
0.954826 0.580948 0.826261
0.955258 0.541007 0.782367
0.100321 0.955962 0.930879
0.099344 0.954985 0.929902
0.083737 0.909977 0.945598
0.063260 0.848418 0.956496
0.068947 0.827290 0.956137
0.820867 0.830407 0.963905
0.967326 0.812536 0.911649
0.962473 0.779038 0.874146
0.959381 0.742830 0.837394
0.100321 0.955962 0.930879
0.100321 0.955962 0.930879
0.100321 0.955962 0.930879
0.100321 0.955962 0.930879
0.098951 0.956660 0.930879
0.140016 0.946061 0.937715
0.951172 0.951172 0.951172
0.981313 0.918880 0.918465
0.975674 0.888394 0.884644
0.100321 0.955962 0.930879
0.100321 0.955962 0.930879
0.100321 0.955962 0.930879
0.100321 0.955962 0.930879
0.100321 0.955962 0.930879
0.098951 0.956324 0.932611
0.696217 0.971603 0.923590
0.992006 0.994008 0.897628
0.990255 0.993114 0.855431
0.100321 0.955962 0.930879
0.100321 0.955962 0.930879
0.100321 0.955962 0.930879
0.100321 0.955962 0.930879
0.100321 0.955962 0.930879
0.098951 0.956660 0.930879
0.220947 0.956579 0.936840
0.935689 0.992494 0.967464
0.992198 0.995644 0.914403
0.005702 0.000000 0.997773
0.005702 0.000000 0.997773
0.468860 0.000000 0.999737
0.942762 0.014953 0.988218
0.967338 0.110284 0.852642
0.965709 0.198074 0.798925
0.963899 0.268863 0.747558
0.959369 0.318049 0.694632
0.959933 0.353108 0.649690
0.005702 0.000000 0.997773
0.005702 0.000000 0.997773
0.094657 0.000296 1.000000
0.777758 0.008315 0.992590
0.970719 0.017003 0.981433
0.968918 0.088897 0.864395
0.966504 0.180370 0.810902
0.961169 0.256911 0.756296
0.960547 0.310339 0.705548
0.005702 0.000000 0.997773
0.005702 0.000000 0.997773
0.005702 0.000000 0.997773
0.493103 0.000357 1.000000
0.959967 0.014904 0.986180
0.970326 0.029768 0.925306
0.968534 0.076887 0.875839
0.964561 0.164398 0.821148
0.963917 0.241496 0.768497
0.014755 0.401129 0.979723
0.006371 0.135281 0.999982
0.005702 0.000000 0.997773
0.166801 0.000346 0.999880
0.785187 0.008151 0.991083
0.968314 0.086391 0.981671
0.963334 0.208599 0.922285
0.961956 0.230037 0.875477
0.962539 0.242434 0.827245
0.062867 0.850428 0.955742
0.050624 0.763031 0.958160
0.035085 0.638704 0.962344
0.017836 0.457069 0.974856
0.487143 0.353542 0.970895
0.918570 0.423868 0.967770
0.958026 0.470667 0.957403
0.958044 0.455735 0.914312
0.958457 0.438456 0.873708
0.100321 0.955962 0.930879
0.100321 0.955962 0.930879
0.086074 0.922931 0.941298
0.067941 0.861316 0.954903
0.063902 0.781737 0.955504
0.734346 0.726023 0.957348
0.960549 0.724271 0.964164
0.959390 0.708982 0.951692
0.957467 0.679422 0.911926
0.100321 0.955962 0.930879
0.100321 0.955962 0.930879
0.100321 0.955962 0.930879
0.100321 0.955962 0.930879
0.100321 0.955962 0.930879
0.164076 0.929512 0.942683
0.896464 0.904696 0.974184
0.976641 0.882888 0.978981
0.974124 0.858984 0.954480
0.100321 0.955962 0.930879
0.100321 0.955962 0.930879
0.100321 0.955962 0.930879
0.100321 0.955962 0.930879
0.100321 0.955962 0.930879
0.098951 0.956324 0.932611
0.606869 0.966562 0.952598
1.000000 1.000000 1.000000
0.992781 0.986196 0.978652
0.100321 0.955962 0.930879
0.100321 0.955962 0.930879
0.100321 0.955962 0.930879
0.100321 0.955962 0.930879
0.100321 0.955962 0.930879
0.098951 0.956660 0.930879
0.131599 0.957252 0.936429
0.906363 0.989461 0.982902
1.000000 1.000000 1.000000
0.005702 0.000000 0.997773
0.005702 0.000000 0.997773
0.268269 0.000068 1.000000
0.866319 0.012336 0.988031
0.971504 0.016680 0.963906
0.972882 0.014398 0.912077
0.967338 0.109948 0.854371
0.965709 0.198074 0.798925
0.963899 0.268863 0.747558
0.005702 0.000000 0.997773
0.005702 0.000000 0.997773
0.005702 0.000000 0.997773
0.625851 0.003383 0.996653
0.971696 0.016972 0.987602
0.970134 0.016369 0.969098
0.973465 0.015368 0.922683
0.968918 0.088897 0.864395
0.966504 0.180370 0.810902
0.005702 0.000000 0.997773
0.005702 0.000000 0.997773
0.005702 0.000000 0.997773
0.295249 0.000000 0.999894
0.859284 0.010490 0.990294
0.971696 0.016972 0.987602
0.969743 0.016699 0.976996
0.973074 0.015698 0.930581
0.969521 0.066196 0.876903
0.018228 0.455058 0.975609
0.006513 0.198614 0.999019
0.005702 0.000000 0.997773
0.099742 0.000000 1.000000
0.658892 0.003311 0.996035
0.971696 0.016972 0.987602
0.971696 0.016972 0.987602
0.970719 0.016331 0.984894
0.969541 0.031435 0.935910
0.069502 0.865614 0.954371
0.054712 0.784609 0.956258
0.039163 0.671614 0.962086
0.022881 0.503630 0.970297
0.433382 0.347414 0.972130
0.861089 0.190140 0.977113
0.967289 0.143752 0.980266
0.964149 0.159495 0.975965
0.965287 0.200470 0.976152
0.100321 0.955962 0.930879
0.100321 0.955962 0.930879
0.092125 0.935468 0.937973
0.071837 0.877898 0.953531
0.055870 0.801913 0.958349
0.707939 0.741284 0.956593
0.959793 0.693289 0.962915
0.954252 0.540416 0.959370
0.956828 0.498352 0.963621
0.100321 0.955962 0.930879
0.100321 0.955962 0.930879
0.100321 0.955962 0.930879
0.100321 0.955962 0.930879
0.100321 0.955962 0.930879
0.092900 0.942779 0.941125
0.874558 0.915854 0.974184
0.975090 0.867594 0.976137
0.966158 0.795473 0.968308
0.100321 0.955962 0.930879
0.100321 0.955962 0.930879
0.100321 0.955962 0.930879
0.100321 0.955962 0.930879
0.100321 0.955962 0.930879
0.098951 0.956324 0.932611
0.535511 0.963500 0.949926
1.000000 1.000000 1.000000
0.993757 0.984147 0.995202
0.100321 0.955962 0.930879
0.100321 0.955962 0.930879
0.100321 0.955962 0.930879
0.100321 0.955962 0.930879
0.100321 0.955962 0.930879
0.098951 0.956660 0.930879
0.099927 0.956964 0.935316
0.881537 0.986023 0.980058
1.000000 1.000000 1.000000
