Sources/Resources/LUT/gfx-eterna-55-3d-lut-v100/33Grid/F-Log2C/FLog2C_to_CLASSIC-CHROME_33grid_V.1.00.cube
#title:FLog2C_to_CLASSIC-CHROME
#model:GFX ETERNA 55
#FUJIFILM Corporation
#Gamma:F-Log2C to CLASSIC CHROME
#Gamut:F-GamutC to ITU-R BT.709
#Version:1.00
LUT_3D_SIZE 5
0.000000 0.000000 0.000000
0.573004 0.025728 0.052214
0.958776 0.374451 0.448598
0.958776 0.374451 0.448598
0.958776 0.374451 0.448598
0.000800 0.210986 0.000000
0.127404 0.079810 0.000167
0.960203 0.315850 0.386817
0.958776 0.374451 0.448598
0.958776 0.374451 0.448598
0.048257 0.965212 0.034672
0.027667 0.811704 0.013909
0.825229 0.698379 0.073219
0.951553 0.616799 0.333285
0.958093 0.497547 0.399062
0.047866 0.967222 0.033919
0.047866 0.967222 0.033919
0.047866 0.967222 0.033919
0.962051 0.948125 0.193058
0.954307 0.864355 0.156429
0.047866 0.967222 0.033919
0.047866 0.967222 0.033919
0.047866 0.967222 0.033919
0.734278 0.964639 0.148616
0.964568 0.973038 0.212368
0.000000 0.000000 0.070109
0.472522 0.015987 0.048961
0.958776 0.374451 0.448598
0.958776 0.374451 0.448598
0.958776 0.374451 0.448598
0.001076 0.289835 0.303715
0.097656 0.097656 0.097656
0.960213 0.300822 0.404208
0.958776 0.374451 0.448598
0.958776 0.374451 0.448598
0.054681 0.965801 0.203246
0.032328 0.846256 0.020796
0.773785 0.722826 0.099397
0.951907 0.648016 0.402915
0.956705 0.523595 0.388508
0.059364 0.964919 0.272602
0.047866 0.967222 0.033919
0.047866 0.967222 0.033919
0.963008 0.970082 0.205977
0.956050 0.883301 0.165663
0.088410 0.959411 0.815863
0.065596 0.963874 0.424402
0.047866 0.967222 0.033919
0.649823 0.962895 0.130680
0.964568 0.973038 0.212368
0.002640 0.000341 0.590961
0.479518 0.000000 0.380335
0.959522 0.394920 0.563973
0.960336 0.375055 0.467102
0.958776 0.374451 0.448598
0.004138 0.251148 0.906071
0.086635 0.072659 0.675031
0.963756 0.218302 0.682762
0.960307 0.387875 0.581055
0.959349 0.381376 0.488535
0.082379 0.904047 0.919726
0.059564 0.846674 0.846673
0.743164 0.743164 0.743164
0.953782 0.685838 0.700090
0.953506 0.569014 0.591347
0.100321 0.955962 0.930879
0.088420 0.958161 0.762304
0.065596 0.964210 0.422671
0.975846 0.980241 0.556882
0.965756 0.892831 0.536581
0.100321 0.955962 0.930879
0.100321 0.955962 0.930879
0.088410 0.959411 0.815863
0.594021 0.964711 0.618909
0.963783 0.975378 0.219511
0.005702 0.000000 0.997773
0.526748 0.000000 0.898310
0.963899 0.268863 0.747558
0.959933 0.353444 0.647961
0.958545 0.393943 0.562996
0.005702 0.000000 0.997773
0.005702 0.000000 0.997773
0.971111 0.017346 0.970075
0.963917 0.241496 0.768497
0.960920 0.339057 0.668058
0.062101 0.830777 0.956137
0.036455 0.638006 0.962344
0.620854 0.608228 0.962098
0.956157 0.619525 0.863989
0.955258 0.541007 0.782367
0.100321 0.955962 0.930879
0.100321 0.955962 0.930879
0.098951 0.956660 0.930879
0.951172 0.951172 0.951172
0.975674 0.888394 0.884644
0.100321 0.955962 0.930879
0.100321 0.955962 0.930879
0.100321 0.955962 0.930879
0.220947 0.956579 0.936840
0.992198 0.995644 0.914403
0.005702 0.000000 0.997773
0.268269 0.000068 1.000000
0.971504 0.016680 0.963906
0.967338 0.109948 0.854371
0.963899 0.268863 0.747558
0.005702 0.000000 0.997773
0.005702 0.000000 0.997773
0.859284 0.010490 0.990294
0.969743 0.016699 0.976996
0.969521 0.066196 0.876903
0.069502 0.865614 0.954371
0.039163 0.671614 0.962086
0.433382 0.347414 0.972130
0.967289 0.143752 0.980266
0.965287 0.200470 0.976152
0.100321 0.955962 0.930879
0.100321 0.955962 0.930879
0.100321 0.955962 0.930879
0.874558 0.915854 0.974184
0.966158 0.795473 0.968308
0.100321 0.955962 0.930879
0.100321 0.955962 0.930879
0.100321 0.955962 0.930879
0.099927 0.956964 0.935316
1.000000 1.000000 1.000000
