Sources/Resources/LUT/gfx-eterna-55-3d-lut-v100/33Grid/F-Log2C/FLog2C_to_ETERNA-BB_33grid_V.1.00.cube
#title:FLog2C_to_ETERNA-BB
#model:GFX ETERNA 55
#FUJIFILM Corporation
#Gamma:F-Log2C to ETERNA BLEACH BYPASS
#Gamut:F-GamutC to ITU-R BT.709
#Version:1.00
LUT_3D_SIZE 5
0.000000 0.000000 0.000000
0.353416 0.058272 0.083657
0.753503 0.376840 0.375047
0.753503 0.376840 0.375047
0.753503 0.376840 0.375047
0.036015 0.174795 0.042023
0.110955 0.103783 0.039797
0.712515 0.305864 0.308331
0.753503 0.376840 0.375047
0.753503 0.376840 0.375047
0.257525 0.829461 0.279027
0.224965 0.729914 0.243102
0.799912 0.752458 0.383706
0.884436 0.665474 0.438585
0.831568 0.530345 0.424968
0.259872 0.829741 0.280004
0.259872 0.829741 0.280004
0.347630 0.856074 0.299722
0.942261 0.957881 0.417454
0.939369 0.908619 0.413136
0.263183 0.835271 0.319941
0.259872 0.829741 0.280004
0.259872 0.829741 0.280004
0.797591 0.954174 0.387660
0.938536 0.969630 0.418121
0.010934 0.005993 0.060394
0.291059 0.047342 0.080761
0.753503 0.376840 0.375047
0.753503 0.376840 0.375047
0.753503 0.376840 0.375047
0.073076 0.239658 0.236175
0.118164 0.118164 0.118164
0.707834 0.292966 0.309926
0.753503 0.376840 0.375047
0.753503 0.376840 0.375047
0.276625 0.854991 0.517231
0.245443 0.767947 0.353335
0.776427 0.775595 0.420407
0.903364 0.701656 0.476758
0.841123 0.559121 0.431633
0.276615 0.861281 0.544833
0.259872 0.829741 0.280004
0.308930 0.843954 0.292305
0.940297 0.966923 0.418875
0.939359 0.919950 0.414782
0.308812 0.890197 0.774074
0.282465 0.868053 0.605980
0.263183 0.834598 0.323402
0.745594 0.947691 0.377535
0.938536 0.969630 0.418121
0.081055 0.027956 0.354469
0.307661 0.035378 0.244454
0.787662 0.418559 0.490387
0.757599 0.383056 0.392265
0.753503 0.376840 0.375047
0.211022 0.267314 0.605739
0.182617 0.129854 0.454300
0.733818 0.270356 0.538090
0.787662 0.415870 0.504230
0.763650 0.390887 0.413168
0.336397 0.863865 0.803048
0.312596 0.812477 0.753157
0.807617 0.807617 0.807617
0.950209 0.742868 0.732762
0.895982 0.619623 0.601558
0.345942 0.901284 0.825200
0.296308 0.884514 0.750465
0.378437 0.890202 0.625700
0.962336 0.978338 0.687782
0.953394 0.927965 0.627953
0.345942 0.901284 0.825200
0.345942 0.901284 0.825200
0.307835 0.888884 0.774828
0.781879 0.963569 0.783114
0.946147 0.970335 0.497328
0.190880 0.037088 0.610473
0.428208 0.063128 0.590628
0.764465 0.313889 0.610477
0.781621 0.382929 0.552632
0.789616 0.420513 0.492341
0.215707 0.041198 0.609856
0.266729 0.047377 0.615542
0.687013 0.110557 0.652750
0.758222 0.295347 0.619523
0.778893 0.369968 0.566562
0.399377 0.829096 0.816890
0.401295 0.650804 0.761913
0.755516 0.676680 0.873207
0.939285 0.685888 0.874918
0.902416 0.605857 0.784064
0.345942 0.901284 0.825200
0.345942 0.901284 0.825200
0.405168 0.912594 0.842914
0.970703 0.970703 0.970703
0.980326 0.928226 0.924324
0.345942 0.901284 0.825200
0.345942 0.901284 0.825200
0.345942 0.901284 0.825200
0.745487 0.967142 0.937262
0.991604 0.995922 0.957355
0.193226 0.037702 0.609719
0.377178 0.060549 0.626387
0.688774 0.108857 0.648313
0.725834 0.212704 0.641731
0.764465 0.313889 0.610477
0.215707 0.041198 0.609856
0.220398 0.041756 0.611809
0.632084 0.098118 0.655270
0.688966 0.112173 0.656434
0.711396 0.177365 0.638836
0.391535 0.853597 0.822664
0.406934 0.685324 0.774969
0.572373 0.411663 0.739336
0.766628 0.271963 0.743587
0.780481 0.303306 0.751449
0.345942 0.901284 0.825200
0.345942 0.901284 0.825200
0.387380 0.910664 0.839539
0.941194 0.953359 0.974644
0.970208 0.863384 0.967794
0.345942 0.901284 0.825200
0.345942 0.901284 0.825200
0.345942 0.901284 0.825200
0.687819 0.959459 0.922477
1.000000 1.000000 1.000000
