Sources/Resources/LUT/gfx-eterna-55-3d-lut-v100/33Grid/F-Log2C/FLog2C_to_CLASSIC-CHROME_33grid_V.1.00.cube
#title:FLog2C_to_CLASSIC-CHROME
#model:GFX ETERNA 55
#FUJIFILM Corporation
#Gamma:F-Log2C to CLASSIC CHROME
#Gamut:F-GamutC to ITU-R BT.709
#Version:1.00
LUT_3D_SIZE 33
0.000000 0.000000 0.000000
0.000000 0.000000 0.000000
0.004691 0.000895 0.000222
0.028934 0.002019 0.000000
0.076441 0.002282 0.001918
0.149169 0.004310 0.006320
0.254543 0.007265 0.014543
0.396866 0.014390 0.024325
0.573004 0.025728 0.052214
0.733489 0.050729 0.093641
0.860519 0.095434 0.164175
0.961719 0.163333 0.268704
0.962417 0.244490 0.371536
0.959026 0.316166 0.413973
0.958776 0.374451 0.448598
0.958776 0.374451 0.448598
0.958776 0.374451 0.448598
0.958776 0.374451 0.448598
0.958776 0.374451 0.448598
0.958776 0.374451 0.448598
0.958776 0.374451 0.448598
0.958776 0.374451 0.448598
0.958776 0.374451 0.448598
0.958776 0.374451 0.448598
0.958776 0.374451 0.448598
0.958776 0.374451 0.448598
0.958776 0.374451 0.448598
0.958776 0.374451 0.448598
0.958776 0.374451 0.448598
0.958776 0.374451 0.448598
0.958776 0.374451 0.448598
0.958776 0.374451 0.448598
0.958776 0.374451 0.448598
0.000000 0.000000 0.000000
0.000000 0.000000 0.000000
0.000000 0.000000 0.000000
0.015443 0.001985 0.000667
0.052200 0.001158 0.002757
0.112806 0.003464 0.003254
0.207428 0.006000 0.007570
0.337045 0.009072 0.020144
0.498133 0.018095 0.039468
0.667617 0.036571 0.073749
0.810101 0.074620 0.129464
0.923240 0.129274 0.219481
0.964993 0.210490 0.334253
0.962186 0.281793 0.394218
0.959178 0.362455 0.440786
0.958776 0.374451 0.448598
0.958776 0.374451 0.448598
0.958776 0.374451 0.448598
0.958776 0.374451 0.448598
0.958776 0.374451 0.448598
0.958776 0.374451 0.448598
0.958776 0.374451 0.448598
0.958776 0.374451 0.448598
0.958776 0.374451 0.448598
0.958776 0.374451 0.448598
0.958776 0.374451 0.448598
0.958776 0.374451 0.448598
0.958776 0.374451 0.448598
0.958776 0.374451 0.448598
0.958776 0.374451 0.448598
0.958776 0.374451 0.448598
0.958776 0.374451 0.448598
0.958776 0.374451 0.448598
0.000000 0.000000 0.000000
0.000000 0.000000 0.000000
0.000000 0.000000 0.000000
0.006061 0.000197 0.000222
0.032648 0.001600 0.000360
0.086217 0.002061 0.003117
0.161289 0.004704 0.006765
0.278786 0.008054 0.015434
0.423453 0.015122 0.027922
0.595485 0.028551 0.055813
0.756160 0.057540 0.101898
0.878107 0.102017 0.178379
0.967376 0.173847 0.285390
0.961823 0.251826 0.378148
0.960384 0.326128 0.419078
0.958776 0.374451 0.448598
0.958776 0.374451 0.448598
0.958776 0.374451 0.448598
0.958776 0.374451 0.448598
0.958776 0.374451 0.448598
0.958776 0.374451 0.448598
0.958776 0.374451 0.448598
0.958776 0.374451 0.448598
0.958776 0.374451 0.448598
0.958776 0.374451 0.448598
0.958776 0.374451 0.448598
0.958776 0.374451 0.448598
0.958776 0.374451 0.448598
0.958776 0.374451 0.448598
0.958776 0.374451 0.448598
0.958776 0.374451 0.448598
0.958776 0.374451 0.448598
0.958776 0.374451 0.448598
0.000775 0.007984 0.000000
0.000000 0.003684 0.000222
0.000977 0.000977 0.000977
0.002347 0.000616 0.000000
0.020528 0.001206 0.000000
0.059236 0.002668 0.002226
0.122580 0.002907 0.006184
0.222872 0.007651 0.009970
0.358550 0.011255 0.021035
0.524328 0.020499 0.044043
0.691658 0.042686 0.082007
0.829059 0.080841 0.141937
0.936912 0.141938 0.238343
0.962435 0.224852 0.352672
0.960021 0.296834 0.399547
0.959561 0.370768 0.448375
0.958776 0.374451 0.448598
0.958776 0.374451 0.448598
0.958776 0.374451 0.448598
0.958776 0.374451 0.448598
0.958776 0.374451 0.448598
0.958776 0.374451 0.448598
0.958776 0.374451 0.448598
0.958776 0.374451 0.448598
0.958776 0.374451 0.448598
0.958776 0.374451 0.448598
0.958776 0.374451 0.448598
0.958776 0.374451 0.448598
0.958776 0.374451 0.448598
0.958776 0.374451 0.448598
0.958776 0.374451 0.448598
0.958776 0.374451 0.448598
0.958776 0.374451 0.448598
0.000765 0.019651 0.000000
0.000000 0.013678 0.000000
0.000000 0.008681 0.000000
0.000775 0.007984 0.000000
0.008991 0.003799 0.000000
0.043400 0.002691 0.000803
0.092278 0.002257 0.003341
0.177126 0.004680 0.008187
0.298336 0.007947 0.016101
0.451018 0.016494 0.034227
0.620311 0.031318 0.062118
0.777857 0.063040 0.110910
0.893934 0.110971 0.193559
0.966581 0.185501 0.304562
0.963766 0.265110 0.381747
0.959589 0.340135 0.426137
0.958776 0.374451 0.448598
0.958776 0.374451 0.448598
0.958776 0.374451 0.448598
0.958776 0.374451 0.448598
0.958776 0.374451 0.448598
0.958776 0.374451 0.448598
0.958776 0.374451 0.448598
0.958776 0.374451 0.448598
0.958776 0.374451 0.448598
0.958776 0.374451 0.448598
0.958776 0.374451 0.448598
0.958776 0.374451 0.448598
0.958776 0.374451 0.448598
0.958776 0.374451 0.448598
0.958776 0.374451 0.448598
0.958776 0.374451 0.448598
0.958776 0.374451 0.448598
0.000000 0.043683 0.000000
0.000000 0.034025 0.000000
0.000000 0.025344 0.000000
0.000765 0.019651 0.000000
0.000000 0.015351 0.000136
0.021886 0.012177 0.000000
0.067441 0.010486 0.000411
0.137238 0.009249 0.003613
0.243006 0.010194 0.012590
0.385137 0.011986 0.024632
0.551892 0.022543 0.046888
0.717461 0.046764 0.087559
0.847622 0.089074 0.153656
0.953323 0.153542 0.255477
0.964379 0.235784 0.368382
0.961381 0.306123 0.408114
0.958776 0.374451 0.448598
0.958776 0.374451 0.448598
0.958776 0.374451 0.448598
0.958776 0.374451 0.448598
0.958776 0.374451 0.448598
0.958776 0.374451 0.448598
0.958776 0.374451 0.448598
0.958776 0.374451 0.448598
0.958776 0.374451 0.448598
0.958776 0.374451 0.448598
0.958776 0.374451 0.448598
0.958776 0.374451 0.448598
0.958776 0.374451 0.448598
0.958776 0.374451 0.448598
0.958776 0.374451 0.448598
0.958776 0.374451 0.448598
0.958776 0.374451 0.448598
0.000324 0.079660 0.000153
0.000918 0.070980 0.000460
0.000928 0.059312 0.000547
0.000000 0.043683 0.000000
0.000000 0.034025 0.000000
0.007209 0.029504 0.000496
0.048465 0.025247 0.000000
0.106141 0.024286 0.000000
0.198811 0.024535 0.003270
0.331558 0.024873 0.013137
0.484633 0.031409 0.032015
0.651972 0.042600 0.066606
0.796813 0.069597 0.121652
0.911712 0.122551 0.207231
0.965001 0.200839 0.323956
0.961410 0.274818 0.389335
0.958794 0.353806 0.434926
0.958776 0.374451 0.448598
0.958776 0.374451 0.448598
0.958776 0.374451 0.448598
0.958776 0.374451 0.448598
0.958776 0.374451 0.448598
0.958776 0.374451 0.448598
0.958776 0.374451 0.448598
0.958776 0.374451 0.448598
0.958776 0.374451 0.448598
0.958776 0.374451 0.448598
0.958776 0.374451 0.448598
0.958776 0.374451 0.448598
0.958776 0.374451 0.448598
0.958776 0.374451 0.448598
0.958776 0.374451 0.448598
0.958776 0.374451 0.448598
0.000084 0.133000 0.000254
0.000879 0.117649 0.000116
0.000506 0.096325 0.000000
0.000000 0.083344 0.000374
0.000918 0.070980 0.000460
0.000535 0.061323 0.000000
0.025371 0.053767 0.000000
0.081486 0.048507 0.000000
0.161059 0.047720 0.000031
0.279341 0.048731 0.001555
0.425769 0.053091 0.014797
0.594479 0.065264 0.040733
0.745581 0.087805 0.085176
0.865384 0.124995 0.161965
0.964830 0.182591 0.272746
0.962608 0.249151 0.372734
0.958239 0.320186 0.412465
0.958776 0.374451 0.448598
0.958776 0.374451 0.448598
0.958776 0.374451 0.448598
0.958776 0.374451 0.448598
0.958776 0.374451 0.448598
0.958776 0.374451 0.448598
0.958776 0.374451 0.448598
0.958776 0.374451 0.448598
0.958776 0.374451 0.448598
0.958776 0.374451 0.448598
0.958776 0.374451 0.448598
0.958776 0.374451 0.448598
0.958776 0.374451 0.448598
0.958776 0.374451 0.448598
0.958776 0.374451 0.448598
0.958776 0.374451 0.448598
0.000800 0.210986 0.000000
0.000237 0.184329 0.001109
0.000000 0.163005 0.000527
0.000467 0.142656 0.000922
0.000000 0.120356 0.000000
0.000304 0.102995 0.000000
0.005983 0.093535 0.000000
0.052714 0.086487 0.000000
0.127404 0.079810 0.000167
0.231611 0.078472 0.000000
0.372373 0.082978 0.000952
0.530139 0.091080 0.016594
0.691408 0.113406 0.052605
0.822557 0.145360 0.118035
0.927682 0.197191 0.209335
0.962990 0.267882 0.326679
0.960203 0.315850 0.386817
0.958776 0.376468 0.438214
0.958383 0.376462 0.447844
0.958776 0.374451 0.448598
0.958776 0.374451 0.448598
0.958776 0.374451 0.448598
0.958776 0.374451 0.448598
0.958776 0.374451 0.448598
0.958776 0.374451 0.448598
0.958776 0.374451 0.448598
0.958776 0.374451 0.448598
0.958776 0.374451 0.448598
0.958776 0.374451 0.448598
0.958776 0.374451 0.448598
0.958776 0.374451 0.448598
0.958776 0.374451 0.448598
0.958776 0.374451 0.448598
0.000000 0.314342 0.001140
0.000000 0.284338 0.000867
0.000000 0.251346 0.000371
0.000000 0.221341 0.000098
0.000000 0.193346 0.000000
0.000054 0.168002 0.000000
0.000266 0.149664 0.000000
0.021195 0.137193 0.000391
0.091979 0.126273 0.000000
0.189149 0.123425 0.000000
0.324636 0.124051 0.000336
0.474779 0.130009 0.004171
0.637226 0.150337 0.021680
0.776982 0.178450 0.075749
0.886024 0.225880 0.153738
0.962397 0.288325 0.265805
0.958431 0.335602 0.358289
0.959168 0.380508 0.407821
0.957579 0.405496 0.437513
0.957195 0.394831 0.442035
0.959159 0.385117 0.444074
0.959359 0.377775 0.447089
0.958776 0.374451 0.448598
0.958776 0.374451 0.448598
0.958776 0.374451 0.448598
0.958776 0.374451 0.448598
0.958776 0.374451 0.448598
0.958776 0.374451 0.448598
0.958776 0.374451 0.448598
0.958776 0.374451 0.448598
0.958776 0.374451 0.448598
0.958776 0.374451 0.448598
0.958776 0.374451 0.448598
0.000000 0.436011 0.000000
0.000644 0.397326 0.000000
0.000090 0.359338 0.000000
0.000120 0.324336 0.000078
0.000733 0.292321 0.000558
0.000370 0.259329 0.000062
0.000781 0.233984 0.000989
0.000000 0.209674 0.000184
0.054772 0.198442 0.000000
0.150582 0.184625 0.000000
0.278448 0.181090 0.000000
0.420970 0.183224 0.000000
0.583035 0.196584 0.002782
0.726898 0.226973 0.034355
0.842987 0.266935 0.098054
0.944981 0.320154 0.198984
0.958794 0.375651 0.322445
0.959943 0.395211 0.372902
0.957750 0.435844 0.426426
0.957367 0.425515 0.429218
0.959330 0.415465 0.432988
0.957579 0.405833 0.435782
0.957780 0.398155 0.440528
0.958766 0.387127 0.443321
0.958967 0.379784 0.446336
0.958776 0.374451 0.448598
0.958776 0.374451 0.448598
0.958776 0.374451 0.448598
0.958776 0.374451 0.448598
0.958776 0.374451 0.448598
0.958776 0.374451 0.448598
0.958776 0.374451 0.448598
0.958776 0.374451 0.448598
0.005200 0.561225 0.000536
0.004645 0.523237 0.000571
0.002722 0.485946 0.000605
0.000000 0.449353 0.000640
0.000000 0.407680 0.000453
0.000080 0.371004 0.000000
0.000503 0.333993 0.000745
0.000000 0.308008 0.000000
0.017746 0.286938 0.000782
0.099482 0.270440 0.000000
0.226179 0.260931 0.000000
0.373203 0.258963 0.000640
0.531755 0.266070 0.002215
0.678758 0.286092 0.010401
0.799748 0.313316 0.049739
0.906837 0.357449 0.132696
0.957215 0.408802 0.250125
0.959138 0.430296 0.331421
0.956955 0.458252 0.390222
0.956754 0.459883 0.416625
0.958717 0.449496 0.422126
0.957357 0.437855 0.425672
0.958344 0.426828 0.428466
0.958938 0.417475 0.432235
0.958162 0.408820 0.436003
0.957780 0.398155 0.440528
0.959743 0.388440 0.442567
0.958967 0.380121 0.444605
0.958776 0.374451 0.448598
0.958776 0.374451 0.448598
0.958776 0.374451 0.448598
0.958776 0.374451 0.448598
0.958776 0.374451 0.448598
0.014293 0.673682 0.005845
0.012561 0.642058 0.001887
0.008875 0.607812 0.000000
0.006559 0.572195 0.000449
0.003658 0.533927 0.000000
0.000759 0.495324 0.000296
0.000204 0.457336 0.000333
0.000232 0.422334 0.000591
0.000644 0.397326 0.000000
0.050911 0.373532 0.000000
0.169403 0.356205 0.000196
0.317996 0.347204 0.000000
0.479094 0.346912 0.006753
0.633146 0.356441 0.016227
0.761383 0.373222 0.021793
0.867897 0.408751 0.073466
0.956018 0.452280 0.175011
0.957539 0.482077 0.283156
0.958697 0.487282 0.347543
0.957309 0.501904 0.395824
0.958689 0.487859 0.404562
0.958697 0.475184 0.409840
0.957339 0.463541 0.413388
0.958323 0.451506 0.421371
0.956965 0.439864 0.424917
0.957951 0.429174 0.425981
0.958938 0.417811 0.430504
0.958162 0.408820 0.436003
0.957387 0.400164 0.439773
0.958373 0.389138 0.442567
0.958967 0.380121 0.444605
0.958776 0.374788 0.446867
0.958776 0.374451 0.448598
0.024574 0.768776 0.011769
0.021664 0.742175 0.010741
0.018171 0.713261 0.006032
0.014676 0.683675 0.004780
0.011966 0.650404 0.003309
0.010626 0.616771 0.000105
0.006942 0.581852 0.001118
0.005018 0.544897 0.000000
0.004261 0.513579 0.000000
0.002328 0.487955 0.000000
0.104794 0.465656 0.000126
0.258671 0.448534 0.001649
0.423103 0.438502 0.007523
0.585176 0.439185 0.015797
0.721044 0.447787 0.026332
0.830900 0.469975 0.035137
0.927638 0.503037 0.099452
0.956917 0.539537 0.211640
0.955537 0.536106 0.292886
0.955910 0.543652 0.364417
0.955136 0.531972 0.383762
0.956514 0.518600 0.389039
0.957894 0.504890 0.396048
0.958295 0.489868 0.403809
0.956935 0.477890 0.409086
0.956945 0.465215 0.414364
0.956955 0.452539 0.419639
0.957549 0.443188 0.423410
0.957559 0.430848 0.426958
0.957175 0.420182 0.431480
0.959138 0.410468 0.433519
0.956995 0.402846 0.435560
0.957588 0.392822 0.442788
0.033113 0.842908 0.018843
0.030395 0.821304 0.017285
0.027675 0.799701 0.015726
0.024372 0.775110 0.013946
0.021463 0.749183 0.009458
0.018946 0.720909 0.007454
0.016821 0.690624 0.006203
0.013720 0.659364 0.003977
0.010616 0.628439 0.000019
0.008683 0.602815 0.000000
0.031385 0.576305 0.000000
0.186050 0.554827 0.004593
0.359086 0.538601 0.011224
0.531138 0.531720 0.023712
0.678351 0.533069 0.033269
0.797016 0.542727 0.040652
0.894750 0.564186 0.050742
0.954149 0.591729 0.130051
0.952760 0.596941 0.226786
0.954512 0.590777 0.305323
0.953536 0.579719 0.356262
0.954915 0.565337 0.366731
0.955317 0.549979 0.376223
0.955719 0.535295 0.382254
0.956122 0.520273 0.390015
0.957500 0.506900 0.395293
0.957902 0.491879 0.403055
0.957912 0.479204 0.408332
0.957528 0.468202 0.414585
0.957932 0.453852 0.418887
0.958525 0.444499 0.422657
0.957165 0.432858 0.426203
0.957760 0.423168 0.431702
0.038532 0.908441 0.026981
0.039527 0.886419 0.026399
0.036025 0.868836 0.023332
0.031937 0.848266 0.020044
0.030193 0.827975 0.017730
0.026499 0.805394 0.015195
0.024172 0.781780 0.014391
0.020869 0.757526 0.010879
0.018351 0.729252 0.008875
0.017395 0.705278 0.006341
0.015069 0.682000 0.003803
0.089577 0.658323 0.007403
0.278842 0.640062 0.016207
0.466930 0.627159 0.026210
0.632527 0.622092 0.037723
0.760191 0.622874 0.050075
0.860281 0.632608 0.062957
0.944727 0.646354 0.079078
0.950173 0.662772 0.160152
0.951936 0.646622 0.230125
0.953305 0.629457 0.314918
0.951945 0.614454 0.335770
0.953716 0.598063 0.346992
0.953726 0.584379 0.357461
0.953152 0.567709 0.367707
0.954924 0.552663 0.372008
0.956304 0.538617 0.380746
0.955729 0.522283 0.389263
0.957107 0.509247 0.392809
0.957117 0.495563 0.403278
0.957127 0.482887 0.408554
0.957137 0.470548 0.412102
0.958515 0.457175 0.417379
0.048257 0.965212 0.034672
0.045731 0.948941 0.030851
0.043596 0.930323 0.029516
0.041461 0.911706 0.028179
0.039327 0.893090 0.026843
0.036215 0.873832 0.022800
0.033105 0.854238 0.020489
0.030385 0.832971 0.017199
0.027667 0.811704 0.013909
0.026317 0.788730 0.015811
0.024574 0.768776 0.011769
0.021463 0.748847 0.011187
0.168306 0.729543 0.016703
0.382396 0.714384 0.030081
0.573414 0.704411 0.043015
0.719461 0.699114 0.055590
0.825229 0.698379 0.073219
0.912221 0.705399 0.091602
0.949943 0.716206 0.099774
0.950728 0.703112 0.148004
0.951513 0.683297 0.230844
0.952108 0.663525 0.288258
0.952118 0.648497 0.305649
0.952520 0.632469 0.318601
0.951553 0.616799 0.333285
0.954301 0.601721 0.343753
0.953726 0.585051 0.354000
0.952760 0.570391 0.363492
0.955508 0.555649 0.372230
0.956304 0.538953 0.379015
0.956313 0.525941 0.386024
0.957692 0.512233 0.393031
0.958093 0.497547 0.399062
0.047866 0.967222 0.033919
0.047866 0.967222 0.033919
0.047866 0.967222 0.033919
0.047866 0.967222 0.033919
0.045922 0.953265 0.033780
0.043788 0.934984 0.030715
0.042045 0.914693 0.028403
0.039518 0.898422 0.024582
0.036406 0.878493 0.024001
0.033295 0.859236 0.019958
0.032136 0.841595 0.019597
0.029025 0.822002 0.017285
0.035296 0.804197 0.015419
0.261902 0.787422 0.029996
0.487330 0.776342 0.044042
0.666811 0.766945 0.067137
0.787830 0.763199 0.085965
0.880108 0.762432 0.104878
0.950680 0.767162 0.118156
0.951858 0.762139 0.115226
0.949723 0.739489 0.134655
0.950710 0.710987 0.227433
0.951697 0.696600 0.247532
0.951705 0.681572 0.264923
0.951715 0.666208 0.284043
0.951725 0.650844 0.303165
0.953103 0.635455 0.318824
0.952530 0.618785 0.329070
0.953908 0.604068 0.341269
0.952941 0.588735 0.354222
0.953344 0.573714 0.361984
0.955115 0.557995 0.369745
0.956887 0.542276 0.377507
0.047866 0.967222 0.033919
0.047866 0.967222 0.033919
0.047866 0.967222 0.033919
0.047866 0.967222 0.033919
0.047866 0.967222 0.033919
0.047866 0.967222 0.033919
0.047866 0.967222 0.033919
0.046114 0.958261 0.033249
0.046717 0.938249 0.031914
0.042236 0.919690 0.027870
0.039316 0.904757 0.026757
0.037183 0.886476 0.023692
0.036025 0.868836 0.023332
0.094102 0.853863 0.025199
0.365084 0.840085 0.045019
0.590119 0.828325 0.072155
0.742227 0.820873 0.097066
0.847411 0.816480 0.117934
0.929520 0.818281 0.133165
0.952785 0.817419 0.136539
0.950459 0.794814 0.130544
0.950680 0.764809 0.130269
0.950690 0.743396 0.180540
0.951677 0.728673 0.202368
0.949925 0.715343 0.224196
0.949933 0.699308 0.246777
0.952290 0.684895 0.263415
0.952300 0.669867 0.280804
0.952308 0.654167 0.301655
0.952712 0.638137 0.314609
0.953113 0.622107 0.327562
0.953517 0.606414 0.338785
0.953918 0.590720 0.350007
0.047866 0.967222 0.033919
0.047866 0.967222 0.033919
0.047866 0.967222 0.033919
0.047866 0.967222 0.033919
0.047866 0.967222 0.033919
0.047866 0.967222 0.033919
0.047866 0.967222 0.033919
0.047866 0.967222 0.033919
0.047866 0.967222 0.033919
0.047866 0.967222 0.033919
0.048067 0.960214 0.035202
0.046516 0.944921 0.032359
0.043988 0.928314 0.030269
0.042438 0.912683 0.029156
0.175004 0.897031 0.036179
0.473551 0.882944 0.070957
0.679619 0.873606 0.101109
0.808068 0.867680 0.128812
0.899369 0.865936 0.146750
0.955283 0.865331 0.157405
0.954910 0.845687 0.148171
0.953178 0.815746 0.135563
0.952030 0.788118 0.126638
0.951063 0.774466 0.130936
0.950680 0.760441 0.152765
0.950298 0.746414 0.174593
0.949915 0.732052 0.198152
0.950902 0.716992 0.221712
0.950910 0.701629 0.240832
0.951896 0.687577 0.259199
0.951907 0.671877 0.280051
0.952308 0.654839 0.298195
0.952318 0.640483 0.312125
0.047866 0.967222 0.033919
0.047866 0.967222 0.033919
0.047866 0.967222 0.033919
0.047866 0.967222 0.033919
0.047866 0.967222 0.033919
0.047866 0.967222 0.033919
0.047866 0.967222 0.033919
0.047866 0.967222 0.033919
0.047866 0.967222 0.033919
0.047866 0.967222 0.033919
0.047866 0.967222 0.033919
0.047866 0.967222 0.033919
0.047866 0.967222 0.033919
0.049234 0.966189 0.035649
0.046899 0.954577 0.033028
0.280541 0.937969 0.053996
0.576350 0.923260 0.099156
0.752306 0.917261 0.131125
0.863550 0.912393 0.155676
0.944885 0.906209 0.171215
0.956432 0.892287 0.169794
0.955283 0.865331 0.157405
0.952574 0.834750 0.142090
0.952785 0.817419 0.136539
0.950842 0.804471 0.131211
0.952614 0.790768 0.128591
0.950670 0.776813 0.128453
0.950287 0.763458 0.146819
0.952251 0.749375 0.171356
0.950892 0.734373 0.192208
0.950508 0.719674 0.217496
0.951495 0.705287 0.237593
0.951505 0.689587 0.258445
0.047866 0.967222 0.033919
0.047866 0.967222 0.033919
0.047866 0.967222 0.033919
0.047866 0.967222 0.033919
0.047866 0.967222 0.033919
0.047866 0.967222 0.033919
0.047866 0.967222 0.033919
0.047866 0.967222 0.033919
0.047866 0.967222 0.033919
0.047866 0.967222 0.033919
0.047866 0.967222 0.033919
0.047866 0.967222 0.033919
0.047866 0.967222 0.033919
0.047866 0.967222 0.033919
0.047866 0.967222 0.033919
0.047866 0.967222 0.033919
0.384528 0.961933 0.077621
0.660192 0.955002 0.126996
0.807216 0.947993 0.154391
0.904384 0.941113 0.174812
0.960893 0.931493 0.187508
0.958566 0.910231 0.174589
0.955465 0.880651 0.163710
0.954509 0.858356 0.152523
0.953934 0.844711 0.147195
0.952967 0.832739 0.142844
0.952001 0.820432 0.140223
0.952796 0.806089 0.134894
0.950852 0.793475 0.127835
0.951646 0.778797 0.124238
0.951264 0.765779 0.140875
0.951858 0.752729 0.163679
0.950498 0.737055 0.187992
0.047866 0.967222 0.033919
0.047866 0.967222 0.033919
0.047866 0.967222 0.033919
0.047866 0.967222 0.033919
0.047866 0.967222 0.033919
0.047866 0.967222 0.033919
0.047866 0.967222 0.033919
0.047866 0.967222 0.033919
0.047866 0.967222 0.033919
0.047866 0.967222 0.033919
0.047866 0.967222 0.033919
0.047866 0.967222 0.033919
0.047866 0.967222 0.033919
0.047866 0.967222 0.033919
0.047866 0.967222 0.033919
0.047866 0.967222 0.033919
0.124700 0.967157 0.038320
0.485211 0.961977 0.096004
0.716096 0.964720 0.144488
0.846297 0.968090 0.171128
0.934668 0.962073 0.193058
0.962051 0.948125 0.193058
0.960118 0.924517 0.182625
0.957408 0.893599 0.169039
0.956050 0.883301 0.165663
0.956452 0.871305 0.157851
0.954115 0.860366 0.151770
0.954519 0.847697 0.147418
0.953550 0.835726 0.143066
0.952977 0.822080 0.137738
0.951034 0.808795 0.134141
0.951436 0.795791 0.131521
0.950862 0.782146 0.126192
0.047866 0.967222 0.033919
0.047866 0.967222 0.033919
0.047866 0.967222 0.033919
0.047866 0.967222 0.033919
0.047866 0.967222 0.033919
0.047866 0.967222 0.033919
0.047866 0.967222 0.033919
0.047866 0.967222 0.033919
0.047866 0.967222 0.033919
0.047866 0.967222 0.033919
0.047866 0.967222 0.033919
0.047866 0.967222 0.033919
0.047866 0.967222 0.033919
0.047866 0.967222 0.033919
0.047866 0.967222 0.033919
0.047866 0.967222 0.033919
0.047866 0.967222 0.033919
0.246696 0.965060 0.054664
0.572797 0.960652 0.112966
0.765557 0.965929 0.154169
0.877184 0.970381 0.181118
0.958509 0.973177 0.210415
0.964972 0.962049 0.199364
0.960108 0.935177 0.187730
0.957973 0.918240 0.177742
0.957983 0.907244 0.174367
0.957017 0.895273 0.170016
0.955657 0.884976 0.166640
0.956058 0.872642 0.160559
0.954700 0.862680 0.155452
0.953732 0.850710 0.151101
0.954135 0.838039 0.146750
0.952192 0.825091 0.141422
0.047866 0.967222 0.033919
0.047866 0.967222 0.033919
0.047866 0.967222 0.033919
0.047866 0.967222 0.033919
0.047866 0.967222 0.033919
0.047866 0.967222 0.033919
0.047866 0.967222 0.033919
0.047866 0.967222 0.033919
0.047866 0.967222 0.033919
0.047866 0.967222 0.033919
0.047866 0.967222 0.033919
0.047866 0.967222 0.033919
0.047866 0.967222 0.033919
0.047866 0.967222 0.033919
0.047866 0.967222 0.033919
0.047866 0.967222 0.033919
0.047866 0.967222 0.033919
0.047866 0.967222 0.033919
0.356571 0.961899 0.074024
0.639071 0.962813 0.125043
0.801528 0.967776 0.161672
0.903771 0.970776 0.186446
0.964568 0.973038 0.212368
0.963985 0.970387 0.210415
0.962051 0.948125 0.193058
0.961669 0.939139 0.188931
0.960310 0.929178 0.183824
0.958950 0.919217 0.178719
0.958960 0.908558 0.173613
0.957600 0.897924 0.171969
0.955263 0.886985 0.165887
0.956643 0.875628 0.160780
0.954307 0.864355 0.156429
0.047866 0.967222 0.033919
0.047866 0.967222 0.033919
0.047866 0.967222 0.033919
0.047866 0.967222 0.033919
0.047866 0.967222 0.033919
0.047866 0.967222 0.033919
0.047866 0.967222 0.033919
0.047866 0.967222 0.033919
0.047866 0.967222 0.033919
0.047866 0.967222 0.033919
0.047866 0.967222 0.033919
0.047866 0.967222 0.033919
0.047866 0.967222 0.033919
0.047866 0.967222 0.033919
0.047866 0.967222 0.033919
0.047866 0.967222 0.033919
0.047866 0.967222 0.033919
0.047866 0.967222 0.033919
0.102803 0.966312 0.040136
0.446503 0.961524 0.088501
0.692247 0.963266 0.137429
0.831831 0.967081 0.171438
0.927622 0.971557 0.196964
0.964568 0.973038 0.212368
0.964568 0.973038 0.212368
0.963401 0.968409 0.205001
0.963018 0.960095 0.197410
0.961659 0.950135 0.192306
0.961276 0.941149 0.188175
0.959916 0.931188 0.183071
0.958557 0.920554 0.181425
0.958566 0.910231 0.174589
0.957208 0.899933 0.171215
0.047866 0.967222 0.033919
0.047866 0.967222 0.033919
0.047866 0.967222 0.033919
0.047866 0.967222 0.033919
0.047866 0.967222 0.033919
0.047866 0.967222 0.033919
0.047866 0.967222 0.033919
0.047866 0.967222 0.033919
0.047866 0.967222 0.033919
0.047866 0.967222 0.033919
0.047866 0.967222 0.033919
0.047866 0.967222 0.033919
0.047866 0.967222 0.033919
0.047866 0.967222 0.033919
0.047866 0.967222 0.033919
0.047866 0.967222 0.033919
0.047866 0.967222 0.033919
0.047866 0.967222 0.033919
0.047866 0.967222 0.033919
0.219715 0.966004 0.052043
0.532720 0.960896 0.105461
0.740339 0.964836 0.148841
0.861741 0.968396 0.180449
0.947757 0.973430 0.203048
