Sources/Resources/LUT/gfx-eterna-55-3d-lut-v100/33Grid/F-Log2C/FLog2C_to_ETERNA_33grid_V.1.00.cube
#title:FLog2C_to_ETERNA
#model:GFX ETERNA 55
#FUJIFILM Corporation
#Gamma:F-Log2C to ETERNA
#Gamut:F-GamutC to ITU-R BT.709
#Version:1.00
LUT_3D_SIZE 33
0.005859 0.005859 0.005859
0.005859 0.005859 0.005859
0.031078 0.007287 0.009456
0.089922 0.010621 0.017851
0.144074 0.013396 0.024292
0.201549 0.017763 0.030957
0.276813 0.023722 0.042727
0.377285 0.043449 0.054547
0.506299 0.065860 0.071918
0.642542 0.095787 0.083035
0.777213 0.132409 0.098058
0.907576 0.177121 0.116989
0.937054 0.225434 0.133554
0.943641 0.280808 0.225200
0.943984 0.328397 0.270514
0.943984 0.328397 0.270514
0.943984 0.328397 0.270514
0.943984 0.328397 0.270514
0.943984 0.328397 0.270514
0.943984 0.328397 0.270514
0.943984 0.328397 0.270514
0.943984 0.328397 0.270514
0.943984 0.328397 0.270514
0.943984 0.328397 0.270514
0.943984 0.328397 0.270514
0.943984 0.328397 0.270514
0.943984 0.328397 0.270514
0.943984 0.328397 0.270514
0.943984 0.328397 0.270514
0.943984 0.328397 0.270514
0.943984 0.328397 0.270514
0.943984 0.328397 0.270514
0.943984 0.328397 0.270514
0.005859 0.005859 0.005859
0.005859 0.005859 0.005859
0.010551 0.006755 0.006082
0.063334 0.010226 0.012522
0.118272 0.008645 0.022203
0.175937 0.018008 0.028336
0.244558 0.021120 0.037930
0.331740 0.034144 0.050590
0.451180 0.050778 0.062856
0.586053 0.080393 0.079163
0.720142 0.113692 0.095696
0.855005 0.154974 0.111919
0.934728 0.205182 0.115445
0.940148 0.257272 0.192801
0.945362 0.318049 0.260218
0.943984 0.328397 0.270514
0.943984 0.328397 0.270514
0.943984 0.328397 0.270514
0.943984 0.328397 0.270514
0.943984 0.328397 0.270514
0.943984 0.328397 0.270514
0.943984 0.328397 0.270514
0.943984 0.328397 0.270514
0.943984 0.328397 0.270514
0.943984 0.328397 0.270514
0.943984 0.328397 0.270514
0.943984 0.328397 0.270514
0.943984 0.328397 0.270514
0.943984 0.328397 0.270514
0.943984 0.328397 0.270514
0.943984 0.328397 0.270514
0.943984 0.328397 0.270514
0.943984 0.328397 0.270514
0.005859 0.005859 0.005859
0.005859 0.005859 0.005859
0.005859 0.005859 0.005859
0.038508 0.006788 0.009681
0.093637 0.010203 0.018828
0.152480 0.013873 0.025493
0.211516 0.022202 0.033356
0.292448 0.030368 0.044595
0.399574 0.041612 0.056946
0.526435 0.068741 0.072809
0.664237 0.101958 0.088585
0.800670 0.135536 0.106094
0.927319 0.182347 0.115394
0.938021 0.235054 0.150019
0.943631 0.290796 0.233765
0.943984 0.328397 0.270514
0.943984 0.328397 0.270514
0.943984 0.328397 0.270514
0.943984 0.328397 0.270514
0.943984 0.328397 0.270514
0.943984 0.328397 0.270514
0.943984 0.328397 0.270514
0.943984 0.328397 0.270514
0.943984 0.328397 0.270514
0.943984 0.328397 0.270514
0.943984 0.328397 0.270514
0.943984 0.328397 0.270514
0.943984 0.328397 0.270514
0.943984 0.328397 0.270514
0.943984 0.328397 0.270514
0.943984 0.328397 0.270514
0.943984 0.328397 0.270514
0.943984 0.328397 0.270514
0.005448 0.031876 0.001473
0.005064 0.021882 0.002535
0.003705 0.010578 0.004352
0.017980 0.005918 0.008035
0.076824 0.009586 0.014699
0.125893 0.013141 0.021896
0.182975 0.018845 0.031266
0.255500 0.026872 0.039574
0.347768 0.039453 0.049750
0.469553 0.055693 0.066453
0.605986 0.089608 0.082231
0.741253 0.117885 0.095832
0.874938 0.164862 0.111524
0.935505 0.213500 0.113406
0.942482 0.267202 0.204074
0.943401 0.325747 0.268561
0.943984 0.328397 0.270514
0.943984 0.328397 0.270514
0.943984 0.328397 0.270514
0.943984 0.328397 0.270514
0.943984 0.328397 0.270514
0.943984 0.328397 0.270514
0.943984 0.328397 0.270514
0.943984 0.328397 0.270514
0.943984 0.328397 0.270514
0.943984 0.328397 0.270514
0.943984 0.328397 0.270514
0.943984 0.328397 0.270514
0.943984 0.328397 0.270514
0.943984 0.328397 0.270514
0.943984 0.328397 0.270514
0.943984 0.328397 0.270514
0.943984 0.328397 0.270514
0.005016 0.080555 0.000374
0.006596 0.061520 0.000016
0.005438 0.043880 0.000000
0.005448 0.031876 0.001473
0.045535 0.019964 0.009062
0.104973 0.014617 0.017765
0.158934 0.012058 0.026469
0.222660 0.021620 0.032825
0.304961 0.029088 0.044061
0.416579 0.046889 0.062273
0.548522 0.073910 0.073922
0.685349 0.105815 0.090453
0.821388 0.141403 0.107207
0.935131 0.191167 0.118016
0.940357 0.243303 0.169945
0.945967 0.300391 0.246770
0.943984 0.328397 0.270514
0.943984 0.328397 0.270514
0.943984 0.328397 0.270514
0.943984 0.328397 0.270514
0.943984 0.328397 0.270514
0.943984 0.328397 0.270514
0.943984 0.328397 0.270514
0.943984 0.328397 0.270514
0.943984 0.328397 0.270514
0.943984 0.328397 0.270514
0.943984 0.328397 0.270514
0.943984 0.328397 0.270514
0.943984 0.328397 0.270514
0.943984 0.328397 0.270514
0.943984 0.328397 0.270514
0.943984 0.328397 0.270514
0.943984 0.328397 0.270514
0.006154 0.121530 0.000562
0.005580 0.106876 0.000425
0.005983 0.093535 0.000000
0.005016 0.080555 0.000374
0.013824 0.068025 0.000000
0.083238 0.056123 0.006680
0.135638 0.049266 0.015914
0.194492 0.040595 0.026125
0.268003 0.037259 0.038957
0.367319 0.038674 0.053878
0.492033 0.059189 0.066590
0.627491 0.092127 0.081391
0.762556 0.127075 0.095438
0.895264 0.172739 0.111882
0.937650 0.219442 0.120021
0.942865 0.274506 0.216854
0.943984 0.328397 0.270514
0.943984 0.328397 0.270514
0.943984 0.328397 0.270514
0.943984 0.328397 0.270514
0.943984 0.328397 0.270514
0.943984 0.328397 0.270514
0.943984 0.328397 0.270514
0.943984 0.328397 0.270514
0.943984 0.328397 0.270514
0.943984 0.328397 0.270514
0.943984 0.328397 0.270514
0.943984 0.328397 0.270514
0.943984 0.328397 0.270514
0.943984 0.328397 0.270514
0.943984 0.328397 0.270514
0.943984 0.328397 0.270514
0.943984 0.328397 0.270514
0.005532 0.165212 0.000000
0.005542 0.153545 0.000082
0.006335 0.138194 0.000000
0.006154 0.121530 0.000562
0.005580 0.106876 0.000425
0.042537 0.099713 0.000340
0.112143 0.093142 0.005805
0.171973 0.085450 0.016993
0.239031 0.084598 0.025386
0.327402 0.079925 0.040395
0.440400 0.086033 0.055231
0.571576 0.092059 0.074194
0.706460 0.110008 0.090589
0.839953 0.152323 0.105083
0.935513 0.200826 0.118684
0.941717 0.250912 0.187163
0.945958 0.310377 0.255336
0.943984 0.328397 0.270514
0.943984 0.328397 0.270514
0.943984 0.328397 0.270514
0.943984 0.328397 0.270514
0.943984 0.328397 0.270514
0.943984 0.328397 0.270514
0.943984 0.328397 0.270514
0.943984 0.328397 0.270514
0.943984 0.328397 0.270514
0.943984 0.328397 0.270514
0.943984 0.328397 0.270514
0.943984 0.328397 0.270514
0.943984 0.328397 0.270514
0.943984 0.328397 0.270514
0.943984 0.328397 0.270514
0.943984 0.328397 0.270514
0.005492 0.211882 0.000000
0.005895 0.198203 0.000493
0.005713 0.181875 0.000000
0.005724 0.169873 0.001195
0.005542 0.153545 0.000082
0.005550 0.141878 0.000167
0.088456 0.131352 0.000000
0.151024 0.123271 0.005683
0.211439 0.118900 0.015363
0.291987 0.116737 0.029395
0.395016 0.118070 0.043563
0.523062 0.127837 0.060043
0.656777 0.139476 0.077722
0.788529 0.160829 0.093364
0.914604 0.191979 0.107718
0.938616 0.228725 0.138215
0.943832 0.285134 0.228130
0.943984 0.328397 0.270514
0.943984 0.328397 0.270514
0.943984 0.328397 0.270514
0.943984 0.328397 0.270514
0.943984 0.328397 0.270514
0.943984 0.328397 0.270514
0.943984 0.328397 0.270514
0.943984 0.328397 0.270514
0.943984 0.328397 0.270514
0.943984 0.328397 0.270514
0.943984 0.328397 0.270514
0.943984 0.328397 0.270514
0.943984 0.328397 0.270514
0.943984 0.328397 0.270514
0.943984 0.328397 0.270514
0.943984 0.328397 0.270514
0.006027 0.273203 0.000000
0.006631 0.252856 0.000000
0.005080 0.236890 0.000456
0.005292 0.218551 0.000098
0.005502 0.200214 0.000000
0.005905 0.186536 0.000578
0.039931 0.176108 0.000000
0.122050 0.168930 0.000765
0.184620 0.161186 0.005032
0.259893 0.155477 0.016886
0.355492 0.157310 0.030831
0.476704 0.158562 0.049130
0.605335 0.171317 0.065832
0.739633 0.185942 0.083735
0.867469 0.214719 0.097113
0.935475 0.250855 0.101035
0.940127 0.283631 0.177053
0.941638 0.330807 0.255695
0.943591 0.330744 0.268031
0.943984 0.328397 0.270514
0.943984 0.328397 0.270514
0.943984 0.328397 0.270514
0.943984 0.328397 0.270514
0.943984 0.328397 0.270514
0.943984 0.328397 0.270514
0.943984 0.328397 0.270514
0.943984 0.328397 0.270514
0.943984 0.328397 0.270514
0.943984 0.328397 0.270514
0.943984 0.328397 0.270514
0.943984 0.328397 0.270514
0.943984 0.328397 0.270514
0.943984 0.328397 0.270514
0.006552 0.345857 0.000883
0.006572 0.322523 0.001054
0.006592 0.299524 0.000000
0.007587 0.277167 0.000645
0.006430 0.259526 0.000285
0.007033 0.239178 0.000680
0.005090 0.225222 0.000543
0.085648 0.214416 0.000000
0.158778 0.203439 0.000867
0.230729 0.197484 0.005577
0.320076 0.194123 0.019833
0.431511 0.195932 0.035200
0.559952 0.203690 0.052434
0.690927 0.216388 0.071843
0.819549 0.241480 0.085000
0.935455 0.274860 0.097402
0.936604 0.305177 0.092484
0.943793 0.335500 0.208750
0.941620 0.355150 0.250333
0.943189 0.346437 0.256808
0.943783 0.336413 0.264039
0.944568 0.332057 0.267278
0.943984 0.328397 0.270514
0.943984 0.328397 0.270514
0.943984 0.328397 0.270514
0.943984 0.328397 0.270514
0.943984 0.328397 0.270514
0.943984 0.328397 0.270514
0.943984 0.328397 0.270514
0.943984 0.328397 0.270514
0.943984 0.328397 0.270514
0.943984 0.328397 0.270514
0.943984 0.328397 0.270514
0.007058 0.442182 0.000418
0.007672 0.410503 0.000000
0.007501 0.382172 0.000000
0.005959 0.354538 0.000574
0.007347 0.330506 0.000745
0.006784 0.304185 0.000694
0.006017 0.284870 0.000000
0.031447 0.268634 0.000000
0.126472 0.258501 0.000000
0.204293 0.248418 0.001105
0.286021 0.242242 0.007016
0.390810 0.241203 0.020207
0.514367 0.242733 0.039480
0.645344 0.255766 0.057160
0.773381 0.277203 0.073555
0.896526 0.305421 0.084980
0.937360 0.337502 0.086811
0.938317 0.354421 0.125687
0.941208 0.383854 0.232101
0.941801 0.373829 0.239332
0.942003 0.365478 0.247539
0.941226 0.356823 0.251309
0.944166 0.347414 0.257785
0.943391 0.338758 0.261555
0.944568 0.332057 0.267278
0.943984 0.328397 0.270514
0.943984 0.328397 0.270514
0.943984 0.328397 0.270514
0.943984 0.328397 0.270514
0.943984 0.328397 0.270514
0.943984 0.328397 0.270514
0.943984 0.328397 0.270514
0.943984 0.328397 0.270514
0.007554 0.550173 0.000000
0.007191 0.517182 0.000000
0.008198 0.483156 0.000605
0.007441 0.452175 0.000000
0.006685 0.420857 0.000000
0.006906 0.390851 0.000000
0.005757 0.361545 0.000000
0.006362 0.341196 0.000000
0.084383 0.324779 0.000000
0.168073 0.310233 0.000540
0.254691 0.299625 0.000000
0.353230 0.294401 0.007614
0.474835 0.293978 0.024934
0.599559 0.302154 0.041191
0.728190 0.314908 0.057895
0.852311 0.343768 0.072027
0.934592 0.375244 0.079632
0.933797 0.391267 0.076309
0.936114 0.409073 0.167012
0.937865 0.409294 0.212672
0.939828 0.398236 0.221632
0.940815 0.386201 0.229617
0.941408 0.376512 0.235117
0.941610 0.367825 0.245055
0.940835 0.358497 0.252286
0.944166 0.347750 0.256055
0.944368 0.339735 0.262532
0.943200 0.333090 0.265547
0.943984 0.328397 0.270514
0.943984 0.328397 0.270514
0.943984 0.328397 0.270514
0.943984 0.328397 0.270514
0.943984 0.328397 0.270514
0.007850 0.664835 0.000000
0.009248 0.629136 0.000019
0.007515 0.596506 0.001254
0.007545 0.561840 0.000000
0.006598 0.525862 0.000000
0.007605 0.491837 0.000296
0.008216 0.459822 0.000778
0.006676 0.432524 0.000000
0.006696 0.409191 0.000000
0.129295 0.389770 0.001085
0.219831 0.372073 0.000384
0.314855 0.361941 0.000347
0.434315 0.356249 0.007594
0.558456 0.361102 0.025359
0.685525 0.369558 0.042594
0.809848 0.391075 0.059743
0.919502 0.418925 0.074184
0.931996 0.440642 0.075211
0.931212 0.445000 0.071973
0.935883 0.449064 0.175852
0.936869 0.436021 0.189027
0.936487 0.423675 0.202203
0.937865 0.409967 0.209211
0.939828 0.398236 0.221632
0.939053 0.388908 0.228862
0.941016 0.378521 0.234363
0.940633 0.367184 0.242347
0.942788 0.361459 0.249047
0.943381 0.352106 0.252816
0.943974 0.342081 0.260047
0.944176 0.334402 0.264793
0.943984 0.328397 0.270514
0.943984 0.328397 0.270514
0.008346 0.772827 0.000000
0.008959 0.740811 0.000000
0.009572 0.708796 0.000172
0.009602 0.673795 0.000431
0.009632 0.638793 0.000687
0.008292 0.604489 0.000945
0.006951 0.570521 0.000000
0.008349 0.534822 0.000000
0.009154 0.507803 0.000000
0.059420 0.483674 0.000656
0.174983 0.463417 0.000000
0.275877 0.448485 0.000000
0.391822 0.437548 0.000241
0.521640 0.434621 0.008910
0.648520 0.438081 0.026676
0.769721 0.451671 0.041426
0.880554 0.473156 0.059859
0.928233 0.500743 0.066882
0.928433 0.493399 0.069899
0.930780 0.492334 0.077797
0.933518 0.478504 0.141825
0.933528 0.463476 0.159215
0.935490 0.451746 0.171636
0.936869 0.436356 0.187297
0.937463 0.425996 0.196257
0.938450 0.412953 0.209433
0.938067 0.401616 0.217419
0.938660 0.391255 0.226379
0.940623 0.380532 0.233609
0.941216 0.370171 0.242571
0.940441 0.361515 0.246340
0.943381 0.352442 0.251085
0.943974 0.342417 0.258316
0.010614 0.866444 0.000000
0.008681 0.840484 0.001180
0.008901 0.810479 0.000907
0.009121 0.780475 0.000633
0.009342 0.750468 0.000359
0.008979 0.717477 0.000000
0.009008 0.682475 0.000121
0.008645 0.649484 0.000000
0.007888 0.618166 0.000105
0.007717 0.590171 0.000000
0.119958 0.567650 0.000551
0.235912 0.545383 0.000000
0.348928 0.530846 0.000703
0.480710 0.520557 0.000000
0.609159 0.518328 0.007965
0.728215 0.523624 0.028214
0.838665 0.535116 0.047711
0.928970 0.555730 0.064499
0.928778 0.551069 0.063301
0.928395 0.540740 0.066094
0.930167 0.526702 0.065204
0.929200 0.510697 0.081618
0.929793 0.495967 0.113075
0.933124 0.481522 0.135879
0.933135 0.466159 0.155000
0.935098 0.454428 0.167423
0.936477 0.439039 0.183082
0.937071 0.427670 0.197234
0.939033 0.416276 0.207925
0.939043 0.403264 0.214934
0.939636 0.392903 0.223894
0.941600 0.381509 0.234586
0.940825 0.372517 0.240087
0.016414 0.943315 0.000000
0.013696 0.921374 0.000000
0.011369 0.897424 0.000750
0.010412 0.873114 0.000000
0.009848 0.846793 0.000000
0.008699 0.817486 0.000000
0.008527 0.789154 0.000324
0.009141 0.757140 0.000805
0.009362 0.727135 0.000531
0.009190 0.699139 0.000000
0.009018 0.670808 0.000206
0.174827 0.649756 0.000000
0.298795 0.629638 0.000410
0.435077 0.615248 0.000000
0.568810 0.606913 0.000305
0.690223 0.602502 0.012965
0.800873 0.606314 0.037206
0.901940 0.615680 0.057989
0.926374 0.620458 0.063540
0.927370 0.598099 0.064687
0.926997 0.577111 0.062376
0.926815 0.560111 0.064723
0.928978 0.543727 0.066316
0.929382 0.530386 0.065426
0.929783 0.513683 0.081839
0.930770 0.498624 0.105399
0.932733 0.483869 0.133394
0.933720 0.469146 0.155222
0.935098 0.454428 0.167423
0.935692 0.443059 0.181575
0.937655 0.430992 0.195727
0.937664 0.417981 0.202733
0.939627 0.405914 0.216887
0.021450 1.000000 0.000199
0.020484 0.987555 0.001040
0.019717 0.968241 0.000000
0.015237 0.948671 0.000852
0.013888 0.926035 0.001023
0.012144 0.905408 0.000441
0.011580 0.879087 0.000390
0.008671 0.852151 0.001094
0.008499 0.824156 0.000066
0.009302 0.797138 0.000016
0.008346 0.772827 0.000000
0.073472 0.747696 0.000633
0.235565 0.726725 0.000426
0.376346 0.708233 0.000526
0.522796 0.691947 0.000097
0.651838 0.682718 0.000421
0.764059 0.679163 0.024219
0.865327 0.681522 0.046285
0.926516 0.684798 0.057387
0.925751 0.665147 0.057782
0.925971 0.634807 0.059238
0.926967 0.612450 0.060386
0.927762 0.596426 0.063711
0.927580 0.580098 0.062597
0.927398 0.563098 0.064945
0.928193 0.548083 0.063077
0.929382 0.530386 0.065426
0.930760 0.516005 0.075895
0.929985 0.502980 0.102160
0.933710 0.486526 0.125720
0.934696 0.471130 0.151008
0.934313 0.458112 0.167645
0.936668 0.444707 0.179090
0.022818 0.999838 0.000199
0.022818 0.999838 0.000199
0.022818 0.999838 0.000199
0.022818 0.999838 0.000199
0.022043 0.991854 0.000508
0.017170 0.974295 0.000902
0.016797 0.952971 0.000321
0.016424 0.931647 0.000000
0.012729 0.908394 0.000664
0.010403 0.884781 0.000000
0.010030 0.863121 0.001009
0.008681 0.840484 0.001180
0.144579 0.816436 0.000000
0.305695 0.794153 0.000406
0.463290 0.777286 0.000000
0.606607 0.764069 0.000000
0.725482 0.754382 0.012207
0.829690 0.748003 0.037288
0.922360 0.745899 0.053496
0.926084 0.733477 0.056288
0.925721 0.700150 0.057523
0.926728 0.666460 0.057027
0.926545 0.649125 0.061106
0.926363 0.632797 0.059991
0.926182 0.615797 0.062339
0.927370 0.598771 0.061226
0.927189 0.582108 0.061845
0.927590 0.568095 0.064414
0.928778 0.551069 0.063301
0.928203 0.535407 0.068355
0.930368 0.518686 0.071679
0.929592 0.506671 0.092755
0.931948 0.489905 0.121504
0.022818 0.999838 0.000199
0.022818 0.999838 0.000199
0.022818 0.999838 0.000199
0.022818 0.999838 0.000199
0.022818 0.999838 0.000199
0.022818 0.999838 0.000199
0.022818 0.999838 0.000199
0.019888 0.996236 0.000730
0.017362 0.979292 0.000372
0.019727 0.956574 0.000000
0.016222 0.938318 0.000183
0.013504 0.916378 0.000355
0.010393 0.896448 0.000000
0.207874 0.875683 0.000000
0.384434 0.855387 0.001142
0.547112 0.837738 0.000000
0.680654 0.824407 0.000504
0.789362 0.814263 0.024610
0.887901 0.806687 0.045032
0.926811 0.800469 0.052090
0.926447 0.766805 0.055053
0.925893 0.728481 0.056820
0.926306 0.703136 0.057745
0.926122 0.686808 0.056632
0.925941 0.669809 0.058980
0.925759 0.653144 0.059598
0.925579 0.636481 0.060215
0.926766 0.618783 0.062563
0.926584 0.602455 0.061449
0.927380 0.586432 0.064774
0.927199 0.570105 0.063660
0.928385 0.552743 0.064278
0.928787 0.538731 0.066848
0.022818 0.999838 0.000199
0.022818 0.999838 0.000199
0.022818 0.999838 0.000199
0.022818 0.999838 0.000199
0.022818 0.999838 0.000199
0.022818 0.999838 0.000199
0.022818 0.999838 0.000199
0.022818 0.999838 0.000199
0.022818 0.999838 0.000199
0.022818 0.999838 0.000199
0.020473 0.999558 0.000000
0.020292 0.982894 0.000000
0.017764 0.965952 0.000000
0.016999 0.946301 0.000000
0.274893 0.923181 0.000000
0.466505 0.906880 0.000454
0.619990 0.892104 0.000000
0.744735 0.877618 0.012462
0.849727 0.867892 0.035590
0.927738 0.859109 0.056098
0.926198 0.831811 0.055070
0.927011 0.793462 0.053375
0.926065 0.756811 0.056118
0.927252 0.739786 0.055004
0.924333 0.724182 0.057351
0.925519 0.706820 0.057969
0.925338 0.690829 0.055125
0.926526 0.672795 0.059204
0.926344 0.656131 0.059820
0.927532 0.638771 0.060437
0.925981 0.622803 0.061055
0.927168 0.605442 0.061671
0.926987 0.588779 0.062288
0.022818 0.999838 0.000199
0.022818 0.999838 0.000199
0.022818 0.999838 0.000199
0.022818 0.999838 0.000199
0.022818 0.999838 0.000199
0.022818 0.999838 0.000199
0.022818 0.999838 0.000199
0.022818 0.999838 0.000199
0.022818 0.999838 0.000199
0.022818 0.999838 0.000199
0.022818 0.999838 0.000199
0.022818 0.999838 0.000199
0.022818 0.999838 0.000199
0.021450 1.000000 0.000199
0.112176 0.987498 0.000695
0.348366 0.968867 0.000000
0.543692 0.952483 0.000074
0.687010 0.939266 0.000621
0.801586 0.924322 0.025480
0.894850 0.912529 0.047187
0.928103 0.892772 0.053133
0.927155 0.856122 0.055876
0.927385 0.814451 0.055687
0.927988 0.794439 0.054352
0.926438 0.777799 0.058429
0.927626 0.761111 0.055587
0.927444 0.744447 0.056203
0.926286 0.726470 0.057574
0.926104 0.710478 0.054730
0.925923 0.693479 0.057078
0.925741 0.676479 0.059426
0.926927 0.659118 0.060042
0.926746 0.642454 0.060661
0.022818 0.999838 0.000199
0.022818 0.999838 0.000199
0.022818 0.999838 0.000199
0.022818 0.999838 0.000199
0.022818 0.999838 0.000199
0.022818 0.999838 0.000199
0.022818 0.999838 0.000199
0.022818 0.999838 0.000199
0.022818 0.999838 0.000199
0.022818 0.999838 0.000199
0.022818 0.999838 0.000199
0.022818 0.999838 0.000199
0.022818 0.999838 0.000199
0.022818 0.999838 0.000199
0.022818 0.999838 0.000199
0.186655 0.999494 0.000574
0.418919 0.999282 0.000692
0.603685 0.986804 0.000090
0.739573 0.972407 0.009066
0.844958 0.960336 0.034681
0.930993 0.942372 0.055720
0.929451 0.914738 0.056421
0.927920 0.876110 0.053750
0.928141 0.846103 0.053477
0.927960 0.828768 0.057554
0.926408 0.813474 0.054710
0.926227 0.797146 0.053598
0.926045 0.779810 0.057676
0.927232 0.763121 0.054832
0.927051 0.746458 0.055449
0.925501 0.730490 0.056067
0.925319 0.714162 0.054953
0.925138 0.696827 0.059031
0.022818 0.999838 0.000199
0.022818 0.999838 0.000199
0.022818 0.999838 0.000199
0.022818 0.999838 0.000199
0.022818 0.999838 0.000199
0.022818 0.999838 0.000199
0.022818 0.999838 0.000199
0.022818 0.999838 0.000199
0.022818 0.999838 0.000199
0.022818 0.999838 0.000199
0.022818 0.999838 0.000199
0.022818 0.999838 0.000199
0.022818 0.999838 0.000199
0.022818 0.999838 0.000199
0.022818 0.999838 0.000199
0.022818 0.999838 0.000199
0.264858 0.999741 0.000000
0.483631 0.999832 0.000000
0.657242 0.999604 0.000000
0.782168 1.000000 0.020305
0.882279 0.984484 0.043743
0.933318 0.965649 0.058254
0.930610 0.932377 0.056781
0.928103 0.892772 0.053133
0.928505 0.879432 0.052242
0.927930 0.864106 0.055567
0.926380 0.849147 0.050993
0.926198 0.831811 0.055070
0.926993 0.816460 0.054933
0.926811 0.800469 0.052090
0.926629 0.783133 0.056168
0.926447 0.766805 0.055053
0.926266 0.750141 0.055672
0.022818 0.999838 0.000199
0.022818 0.999838 0.000199
0.022818 0.999838 0.000199
0.022818 0.999838 0.000199
0.022818 0.999838 0.000199
0.022818 0.999838 0.000199
0.022818 0.999838 0.000199
0.022818 0.999838 0.000199
0.022818 0.999838 0.000199
0.022818 0.999838 0.000199
0.022818 0.999838 0.000199
0.022818 0.999838 0.000199
0.022818 0.999838 0.000199
0.022818 0.999838 0.000199
0.022818 0.999838 0.000199
0.022818 0.999838 0.000199
0.085186 0.999773 0.000000
0.333285 0.999872 0.000000
0.542283 0.999849 0.000000
0.700059 0.999308 0.000000
0.817163 0.999627 0.033755
0.910024 0.999159 0.066734
0.931155 0.982369 0.054930
0.930792 0.949378 0.054434
0.931203 0.924369 0.053629
0.927891 0.910774 0.055222
0.928686 0.895759 0.053355
0.928111 0.880769 0.054950
0.927538 0.866115 0.054812
0.926963 0.852134 0.051215
0.926782 0.834798 0.055294
0.927576 0.819446 0.055155
0.927395 0.802783 0.055774
0.022818 0.999838 0.000199
0.022818 0.999838 0.000199
0.022818 0.999838 0.000199
0.022818 0.999838 0.000199
0.022818 0.999838 0.000199
0.022818 0.999838 0.000199
0.022818 0.999838 0.000199
0.022818 0.999838 0.000199
0.022818 0.999838 0.000199
0.022818 0.999838 0.000199
0.022818 0.999838 0.000199
0.022818 0.999838 0.000199
0.022818 0.999838 0.000199
0.022818 0.999838 0.000199
0.022818 0.999838 0.000199
0.022818 0.999838 0.000199
0.022818 0.999838 0.000199
0.182941 0.999912 0.000000
0.401714 0.999667 0.000999
0.591161 0.999751 0.000535
0.737399 1.000000 0.009117
0.848442 0.999237 0.047957
0.932505 0.999629 0.082445
0.932122 0.992997 0.066204
0.933318 0.965649 0.058254
0.930983 0.954375 0.053903
0.930409 0.939385 0.055496
0.930811 0.926044 0.054606
0.928475 0.913762 0.055445
0.927901 0.899443 0.053578
0.928696 0.883756 0.055171
0.928121 0.869438 0.053304
0.927548 0.854448 0.054899
0.022818 0.999838 0.000199
0.022818 0.999838 0.000199
0.022818 0.999838 0.000199
0.022818 0.999838 0.000199
0.022818 0.999838 0.000199
0.022818 0.999838 0.000199
0.022818 0.999838 0.000199
0.022818 0.999838 0.000199
0.022818 0.999838 0.000199
0.022818 0.999838 0.000199
0.022818 0.999838 0.000199
0.022818 0.999838 0.000199
0.022818 0.999838 0.000199
0.022818 0.999838 0.000199
0.022818 0.999838 0.000199
0.022818 0.999838 0.000199
0.022818 0.999838 0.000199
0.022818 0.999838 0.000199
0.251367 1.000000 0.000000
0.458020 0.999406 0.000297
0.633976 0.999793 0.000000
0.769071 0.999738 0.013690
0.874638 1.000000 0.059453
0.932505 0.999629 0.082445
0.932896 0.999635 0.072817
0.933883 0.990625 0.065227
0.931547 0.980696 0.053954
0.930580 0.967716 0.054793
0.931959 0.955688 0.053148
0.930993 0.942372 0.055720
0.931395 0.929030 0.054828
0.930428 0.916051 0.055669
0.928485 0.902431 0.053801
0.022818 0.999838 0.000199
0.022818 0.999838 0.000199
0.022818 0.999838 0.000199
0.022818 0.999838 0.000199
0.022818 0.999838 0.000199
0.022818 0.999838 0.000199
0.022818 0.999838 0.000199
0.022818 0.999838 0.000199
0.022818 0.999838 0.000199
0.022818 0.999838 0.000199
0.022818 0.999838 0.000199
0.022818 0.999838 0.000199
0.022818 0.999838 0.000199
0.022818 0.999838 0.000199
0.022818 0.999838 0.000199
0.022818 0.999838 0.000199
0.022818 0.999838 0.000199
0.022818 0.999838 0.000199
0.098676 0.999469 0.000165
0.322141 1.000000 0.000059
0.519018 1.000000 0.000000
0.676794 0.999498 0.000000
0.801326 1.000000 0.028872
0.898880 0.999741 0.067265
0.932505 0.999629 0.082445
