Sources/Resources/LUT/gfx-eterna-55-3d-lut-v100/33Grid/F-Log2C/FLog2C_to_PRO-Neg.Std_33grid_V.1.00.cube
#title:FLog2C_to_PRO-Neg.Std
#model:GFX ETERNA 55
#FUJIFILM Corporation
#Gamma:F-Log2C to PRO Neg.Std
#Gamut:F-GamutC to ITU-R BT.709
#Version:1.00
LUT_3D_SIZE 5
0.000000 0.000000 0.000000
0.471506 0.045884 0.128973
0.966102 0.257228 0.484735
0.966102 0.257228 0.484735
0.966102 0.257228 0.484735
0.022477 0.241501 0.000000
0.143010 0.121793 0.000047
0.956586 0.190523 0.433421
0.966102 0.257228 0.484735
0.966102 0.257228 0.484735
0.000000 1.000000 0.000285
0.002207 0.865631 0.000032
0.785937 0.707711 0.000000
0.974314 0.538771 0.238488
0.971280 0.397946 0.380492
0.000000 1.000000 0.000285
0.000000 1.000000 0.000285
0.000000 1.000000 0.000285
0.955608 0.975574 0.000085
0.958233 0.876180 0.000000
0.000000 1.000000 0.000285
0.000000 1.000000 0.000285
0.000000 1.000000 0.000285
0.635346 0.999095 0.000000
0.950505 0.999688 0.000668
0.008196 0.001002 0.093274
0.387837 0.038105 0.122925
0.966102 0.257228 0.484735
0.966102 0.257228 0.484735
0.966102 0.257228 0.484735
0.034098 0.313432 0.301196
0.140625 0.140625 0.140625
0.956596 0.173814 0.459465
0.966102 0.257228 0.484735
0.966102 0.257228 0.484735
0.000000 0.999163 0.124707
0.004715 0.905908 0.000219
0.729408 0.737978 0.000710
0.978381 0.570576 0.303903
0.973606 0.426600 0.355339
0.000000 0.999404 0.183457
0.000000 1.000000 0.000285
0.000000 1.000000 0.000285
0.954219 0.999606 0.000000
0.957237 0.898203 0.000157
0.009403 0.999625 0.747485
0.001458 0.999486 0.315024
0.000000 1.000000 0.000285
0.538569 0.999931 0.000484
0.950505 0.999688 0.000668
0.054840 0.008892 0.555648
0.424955 0.006414 0.454300
0.974861 0.276822 0.617859
0.966293 0.257857 0.506700
0.966102 0.257228 0.484735
0.054518 0.312918 0.969855
0.201343 0.129354 0.716148
0.970479 0.100589 0.825792
0.977016 0.268072 0.640132
0.970390 0.262727 0.530839
0.020174 0.946128 0.909035
0.024550 0.873506 0.817476
0.725586 0.725586 0.725586
0.996284 0.597577 0.683301
0.984872 0.467652 0.585559
0.013481 0.999264 0.918544
0.008435 1.000000 0.679105
0.001458 0.999822 0.313293
0.972342 0.999289 0.365195
0.978289 0.905857 0.342410
0.013481 0.999264 0.918544
0.013481 0.999264 0.918544
0.010379 1.000000 0.750191
0.529107 0.999397 0.473499
0.958710 0.999442 0.040384
0.132725 0.084233 0.922864
0.550779 0.000000 0.999926
0.978443 0.145952 0.905410
0.978202 0.230882 0.742848
0.976231 0.276125 0.617859
0.181208 0.080432 0.952332
0.270165 0.072360 1.000000
0.982265 0.000000 0.999047
0.981392 0.118154 0.946582
0.980166 0.215120 0.776035
0.030601 0.852771 0.985468
0.047972 0.651355 1.000000
0.672077 0.601351 1.000000
1.000000 0.514675 0.989011
0.997368 0.431902 0.882497
0.013481 0.999264 0.918544
0.013481 0.999264 0.918544
0.014457 1.000000 0.919520
0.947266 0.947266 0.947266
0.994077 0.862004 0.869465
0.013481 0.999264 0.918544
0.013481 0.999264 0.918544
0.013481 0.999264 0.918544
0.338605 0.999927 0.944718
0.991029 0.999752 0.862042
0.137416 0.084119 0.928277
0.444570 0.056780 1.000000
0.979527 0.000779 0.999047
0.977182 0.000162 0.999801
0.978443 0.145952 0.905410
0.182185 0.080737 0.956769
0.190984 0.079203 0.958722
0.869652 0.000000 1.000000
0.980897 0.000081 0.999047
0.973465 0.000245 1.000000
0.024704 0.894253 0.975805
0.042668 0.682476 0.999763
0.552783 0.407693 0.999625
0.998386 0.126024 0.998548
0.997984 0.139366 0.999437
0.013481 0.999264 0.918544
0.013481 0.999264 0.918544
0.013481 0.999264 0.918544
0.869867 0.909919 0.999918
0.999047 0.737684 0.999715
0.013481 0.999264 0.918544
0.013481 0.999264 0.918544
0.013481 0.999264 0.918544
0.202142 0.999334 0.937336
1.000000 1.000000 1.000000
