Sources/Resources/LUT/gfx-eterna-55-3d-lut-v100/33Grid/F-Log2C/FLog2C_to_REALA-ACE_33grid_V.1.00.cube
#title:FLog2C_to_REALA-ACE
#model:GFX ETERNA 55
#FUJIFILM Corporation
#Gamma:F-Log2C to REALA ACE
#Gamut:F-GamutC to ITU-R BT.709
#Version:1.00
LUT_3D_SIZE 5
0.000000 0.000000 0.000000
0.583585 0.000169 0.044711
0.940825 0.327148 0.473700
0.940825 0.327148 0.473700
0.940825 0.327148 0.473700
0.000000 0.291344 0.000000
0.185233 0.130179 0.000320
0.926808 0.266224 0.412981
0.940825 0.327148 0.473700
0.940825 0.327148 0.473700
0.663656 0.929187 0.593484
0.577105 0.875602 0.505336
0.852994 0.708539 0.000000
0.982106 0.583361 0.176910
0.969086 0.452021 0.364798
0.663656 0.929187 0.593484
0.663656 0.929187 0.593484
0.663656 0.929187 0.593484
0.997600 0.970181 0.286074
0.988737 0.870496 0.000243
0.663656 0.929187 0.593484
0.663656 0.929187 0.593484
0.663656 0.929187 0.593484
0.815351 0.954137 0.581129
0.996976 0.986641 0.425675
0.000000 0.000000 0.105164
0.508703 0.000000 0.054374
0.940825 0.327148 0.473700
0.940825 0.327148 0.473700
0.940825 0.327148 0.473700
0.000502 0.279213 0.282812
0.150391 0.150391 0.150391
0.924080 0.251246 0.437293
0.940825 0.327148 0.473700
0.940825 0.327148 0.473700
0.663656 0.929187 0.593484
0.662680 0.928211 0.592508
0.785303 0.763060 0.000000
0.990473 0.615046 0.257366
0.974150 0.480625 0.332722
0.662287 0.929212 0.596944
0.663656 0.929187 0.593484
0.663656 0.929187 0.593484
0.997771 0.980700 0.377085
0.987740 0.892517 0.000824
0.650902 0.935749 0.841575
0.659348 0.930893 0.630270
0.663656 0.929187 0.593484
0.766676 0.945885 0.588531
0.996976 0.986641 0.425675
0.043101 0.000000 0.651046
0.488873 0.013915 0.496466
0.939991 0.361274 0.617121
0.941600 0.330426 0.497618
0.940825 0.327148 0.473700
0.170933 0.242257 0.788499
0.149212 0.054255 0.674191
0.856683 0.355567 0.770773
0.930990 0.365446 0.636379
0.942566 0.337020 0.529657
0.595400 0.896221 0.907985
0.533465 0.859034 0.850726
0.769531 0.769531 0.769531
0.997222 0.642534 0.697777
0.981109 0.523717 0.597996
0.647963 0.928690 0.919891
0.651104 0.936136 0.804790
0.659348 0.930221 0.633731
0.995396 0.989208 0.510828
0.998415 0.933847 0.273997
0.647963 0.928690 0.919891
0.647963 0.928690 0.919891
0.650902 0.935749 0.841575
0.743391 0.947226 0.702655
0.997168 0.988277 0.442449
0.121859 0.029506 0.693484
0.547894 0.215791 0.792711
0.856645 0.393834 0.813691
0.894598 0.383134 0.717848
0.939991 0.361274 0.617121
0.154105 0.042766 0.703386
0.235793 0.079225 0.729718
0.841020 0.372832 0.825754
0.848038 0.395996 0.833703
0.884621 0.385992 0.737859
0.454132 0.803122 0.866988
0.212672 0.584236 0.845562
0.645316 0.590100 0.905610
0.909817 0.617170 0.903430
0.911062 0.543584 0.833613
0.647963 0.928690 0.919891
0.647963 0.928690 0.919891
0.646986 0.927378 0.920644
0.972073 0.970005 0.970703
0.999333 0.886194 0.885313
0.647963 0.928690 0.919891
0.647963 0.928690 0.919891
0.647963 0.928690 0.919891
0.660276 0.932737 0.926727
0.997482 0.998612 0.859559
0.124205 0.029784 0.694460
0.411289 0.154891 0.770714
0.841020 0.372832 0.825754
0.841020 0.372832 0.825754
0.856645 0.393834 0.813691
0.154105 0.042766 0.703386
0.164073 0.046869 0.707516
0.819526 0.359318 0.823219
0.841020 0.372832 0.825754
0.841020 0.372832 0.825754
0.510601 0.839833 0.881071
0.225740 0.619936 0.850188
0.506310 0.369993 0.835918
0.844142 0.380758 0.828153
0.844916 0.388405 0.829574
0.647963 0.928690 0.919891
0.647963 0.928690 0.919891
0.646986 0.927378 0.920644
0.878848 0.925721 0.997793
0.951711 0.774825 0.949753
0.647963 0.928690 0.919891
0.647963 0.928690 0.919891
0.647963 0.928690 0.919891
0.652262 0.930588 0.924551
0.998047 0.998047 0.998047
