Sources/Resources/LUT/gfx-eterna-55-3d-lut-v100/33Grid/F-Log2C/FLog2C_to_Velvia_33grid_V.1.00.cube
#title:FLog2C_to_Velvia
#model:GFX ETERNA 55
#FUJIFILM Corporation
#Gamma:F-Log2C to Velvia
#Gamut:F-GamutC to ITU-R BT.709
#Version:1.00
LUT_3D_SIZE 9
0.000000 0.000000 0.000000
0.065690 0.001526 0.000000
0.657881 0.000206 0.020981
0.999652 0.115475 0.484171
0.999899 0.286792 0.492290
0.999899 0.286792 0.492290
0.999899 0.286792 0.492290
0.999899 0.286792 0.492290
0.999899 0.286792 0.492290
0.000383 0.009657 0.000667
0.002347 0.000616 0.000000
0.353284 0.000000 0.000000
0.999386 0.013196 0.240539
0.999899 0.286792 0.492290
0.999899 0.286792 0.492290
0.999899 0.286792 0.492290
0.999899 0.286792 0.492290
0.999899 0.286792 0.492290
0.000000 0.265023 0.000000
0.000000 0.128003 0.000785
0.099649 0.072433 0.000000
0.792352 0.050556 0.000109
0.999575 0.215870 0.447144
0.999899 0.286792 0.492290
0.999899 0.286792 0.492290
0.999899 0.286792 0.492290
0.999899 0.286792 0.492290
0.000000 0.795013 0.001301
0.000000 0.649369 0.000155
0.000000 0.507689 0.000211
0.491166 0.406986 0.000000
0.999467 0.430915 0.000000
0.999217 0.430388 0.337196
1.000000 0.371254 0.407734
1.000000 0.320836 0.462168
0.999899 0.286792 0.492290
0.000000 1.000000 0.000285
0.000000 1.000000 0.000285
0.000367 0.961340 0.000321
0.000063 0.858345 0.000339
0.870804 0.687807 0.000000
0.999856 0.666910 0.000000
0.998938 0.576774 0.098149
0.998977 0.505236 0.226548
0.999993 0.440724 0.324773
0.000000 1.000000 0.000285
0.000000 1.000000 0.000285
0.000000 1.000000 0.000285
0.000000 1.000000 0.000285
0.000000 1.000000 0.000285
0.999076 0.896931 0.000000
0.999576 0.766918 0.000000
0.998841 0.712266 0.000383
0.999071 0.670594 0.000196
0.000000 1.000000 0.000285
0.000000 1.000000 0.000285
0.000000 1.000000 0.000285
0.000000 1.000000 0.000285
0.000000 1.000000 0.000285
0.499468 0.999808 0.000879
0.999219 0.959928 0.000532
0.999450 0.918592 0.000000
0.998915 0.856933 0.000552
0.000000 1.000000 0.000285
0.000000 1.000000 0.000285
0.000000 1.000000 0.000285
0.000000 1.000000 0.000285
0.000000 1.000000 0.000285
0.000000 1.000000 0.000285
0.840438 0.994157 0.000875
0.998626 0.968945 0.000000
0.998626 0.968609 0.000223
0.000000 1.000000 0.000285
0.000000 1.000000 0.000285
0.000000 1.000000 0.000285
0.000000 1.000000 0.000285
0.000000 1.000000 0.000285
0.000000 1.000000 0.000285
0.203860 0.999108 0.000266
0.998626 0.968945 0.000000
0.998626 0.968945 0.000000
0.000000 0.000000 0.000000
0.043793 0.001018 0.000000
0.599621 0.000000 0.012808
0.999480 0.090504 0.467569
0.999899 0.286792 0.492290
0.999899 0.286792 0.492290
0.999899 0.286792 0.492290
0.999899 0.286792 0.492290
0.999899 0.286792 0.492290
0.000383 0.008312 0.007590
0.000977 0.000977 0.000977
0.303037 0.000199 0.000836
1.000000 0.000000 0.194965
0.999899 0.286792 0.492290
0.999899 0.286792 0.492290
0.999899 0.286792 0.492290
0.999899 0.286792 0.492290
0.999899 0.286792 0.492290
0.000521 0.310658 0.000918
0.000266 0.149664 0.000000
0.072659 0.084370 0.000340
0.741512 0.060032 0.000000
0.999191 0.209909 0.427441
0.999899 0.286792 0.492290
0.999899 0.286792 0.492290
0.999899 0.286792 0.492290
0.999899 0.286792 0.492290
0.000475 0.833001 0.001265
0.000000 0.685347 0.000874
0.000000 0.536019 0.000000
0.432886 0.428294 0.000155
0.999065 0.444256 0.000628
0.999600 0.443742 0.318828
1.000000 0.386281 0.390343
0.999477 0.332206 0.448015
0.999899 0.286792 0.492290
0.000000 1.000000 0.000285
0.000000 1.000000 0.000285
0.000000 0.983361 0.000902
0.000000 0.875707 0.000000
0.805486 0.707604 0.000403
0.999263 0.675591 0.000000
0.999712 0.591478 0.063230
0.999359 0.520606 0.197796
0.999007 0.456119 0.299484
0.000000 1.000000 0.000285
0.000000 1.000000 0.000285
0.000000 1.000000 0.000285
0.000000 1.000000 0.000285
0.000000 1.000000 0.000285
0.998866 0.915270 0.000121
0.999365 0.785256 0.000090
0.999616 0.720250 0.000074
0.999646 0.685247 0.000332
0.000000 1.000000 0.000285
0.000000 1.000000 0.000285
0.000000 1.000000 0.000285
0.000000 1.000000 0.000285
0.000000 1.000000 0.000285
0.310020 1.000000 0.000000
0.999019 0.966934 0.000000
0.999441 0.929923 0.000257
0.999489 0.871923 0.000000
0.000000 1.000000 0.000285
0.000000 1.000000 0.000285
0.000000 1.000000 0.000285
0.000000 1.000000 0.000285
0.000000 1.000000 0.000285
0.000000 1.000000 0.000285
0.737791 1.000000 0.000000
0.998626 0.968945 0.000000
0.998626 0.968609 0.000223
0.000329 0.999607 0.043239
0.000000 1.000000 0.000285
0.000000 1.000000 0.000285
0.000000 1.000000 0.000285
0.000000 1.000000 0.000285
0.000000 1.000000 0.000285
0.000000 1.000000 0.000285
0.998626 0.968945 0.000000
0.998626 0.968945 0.000000
0.000000 0.000571 0.066649
0.040662 0.000389 0.019840
0.554067 0.000000 0.024340
0.999309 0.071583 0.419820
0.999899 0.286792 0.492290
0.999899 0.286792 0.492290
0.999899 0.286792 0.492290
0.999899 0.286792 0.492290
0.999899 0.286792 0.492290
0.000555 0.000000 0.198968
0.000182 0.000533 0.082446
0.297944 0.000000 0.068992
0.999205 0.000000 0.225582
0.999707 0.281796 0.492820
0.999899 0.286792 0.492290
0.999899 0.286792 0.492290
0.999899 0.286792 0.492290
0.999899 0.286792 0.492290
0.000000 0.328463 0.348364
0.000000 0.167088 0.159473
0.082031 0.082031 0.082031
0.723129 0.043595 0.114714
0.999976 0.194463 0.487785
0.999506 0.288466 0.493266
0.999899 0.286792 0.492290
0.999899 0.286792 0.492290
0.999899 0.286792 0.492290
0.000646 0.815962 0.234176
0.000000 0.696628 0.037574
0.000000 0.566025 0.000000
0.415863 0.445343 0.000000
0.999850 0.419399 0.109425
0.999188 0.454299 0.394044
0.999628 0.397986 0.374461
0.998884 0.343239 0.435594
1.000000 0.297457 0.487765
0.000000 1.000000 0.000285
0.000000 1.000000 0.000285
0.000000 1.000000 0.000285
0.000000 0.900017 0.000526
0.761674 0.729921 0.000403
0.999242 0.682121 0.086014
0.999099 0.598289 0.192535
0.998958 0.533611 0.200419
1.000000 0.470786 0.280364
0.000000 1.000000 0.000285
0.000000 1.000000 0.000285
0.000000 1.000000 0.000285
0.000000 1.000000 0.000285
0.000000 1.000000 0.000285
0.998664 0.921940 0.000566
0.998943 0.822268 0.000000
1.000000 0.758238 0.000039
0.999434 0.703921 0.000000
0.000000 1.000000 0.000285
0.000000 1.000000 0.000285
0.000000 1.000000 0.000285
0.000000 1.000000 0.000285
0.000000 1.000000 0.000285
0.013044 0.999722 0.000730
0.998626 0.968609 0.000223
0.999239 0.936930 0.000000
0.999479 0.883254 0.000601
0.000000 1.000000 0.383403
0.000000 1.000000 0.000285
0.000000 1.000000 0.000285
0.000000 1.000000 0.000285
0.000000 1.000000 0.000285
0.000000 1.000000 0.000285
0.665648 1.000000 0.000501
0.998626 0.968945 0.000000
0.998626 0.968945 0.000000
0.000000 1.000000 0.768250
0.000000 0.999981 0.455242
0.000000 0.999633 0.046700
0.000000 1.000000 0.000285
0.000000 1.000000 0.000285
0.000000 1.000000 0.000285
0.000000 1.000000 0.000285
0.998626 0.968945 0.000000
0.998626 0.968945 0.000000
0.002287 0.000000 0.365589
0.056076 0.000074 0.212333
0.563611 0.000000 0.238575
1.000000 0.022346 0.549778
1.000000 0.286075 0.521175
0.999899 0.286792 0.492290
0.999899 0.286792 0.492290
0.999899 0.286792 0.492290
0.999899 0.286792 0.492290
0.019252 0.000234 0.633606
0.010100 0.000000 0.411474
0.347163 0.000316 0.355649
0.980583 0.000000 0.531754
0.999899 0.264612 0.606500
1.000000 0.288047 0.536218
0.999899 0.286792 0.492290
0.999899 0.286792 0.492290
0.999899 0.286792 0.492290
0.000394 0.289928 0.887530
0.000000 0.138914 0.689679
0.121677 0.047793 0.514133
0.726423 0.000000 0.528263
0.999996 0.128447 0.707726
0.999860 0.311616 0.604425
0.999496 0.289043 0.550285
0.999899 0.286792 0.492290
0.999899 0.286792 0.492290
0.000186 0.786724 0.814258
0.000000 0.672962 0.674145
0.000037 0.551497 0.535317
0.421875 0.421875 0.421875
0.998843 0.383186 0.469859
0.999934 0.464013 0.564793
1.000000 0.410389 0.531366
0.999055 0.358798 0.500649
0.999496 0.303494 0.475875
0.000633 1.000000 0.571013
0.000000 0.999606 0.472769
0.000000 0.990469 0.359038
0.000000 0.886619 0.259085
0.715295 0.741636 0.207356
0.999786 0.668932 0.409492
0.999846 0.593888 0.435965
0.999704 0.536267 0.407508
0.999561 0.478312 0.380781
0.000000 0.999353 0.218511
0.000000 1.000000 0.008185
0.000000 1.000000 0.000285
0.000000 1.000000 0.000285
0.000000 1.000000 0.000285
0.999009 0.978602 0.000000
0.998704 0.843344 0.165305
0.999748 0.762986 0.165153
0.999806 0.693319 0.163938
0.000000 0.999701 0.627055
0.000000 0.999214 0.304418
0.000000 1.000000 0.000285
0.000000 1.000000 0.000285
0.000000 1.000000 0.000285
0.000000 1.000000 0.000285
0.998626 0.968609 0.000223
0.998454 0.940613 0.000000
0.998684 0.898941 0.000000
0.000000 0.996157 0.970457
0.000220 1.000000 0.699871
0.000000 1.000000 0.383403
0.000000 1.000000 0.000285
0.000000 1.000000 0.000285
0.000000 1.000000 0.000285
0.594875 0.999669 0.000000
0.999602 0.969921 0.000000
0.999602 0.969921 0.000000
0.000573 0.986758 0.999653
0.000765 0.991419 1.000000
0.000000 1.000000 0.768250
0.000000 0.999981 0.455242
0.000000 0.999937 0.051136
0.000000 1.000000 0.000285
0.000000 1.000000 0.000285
0.998626 0.968609 0.000223
0.999602 0.969921 0.000000
0.058908 0.000035 0.830449
0.110553 0.000507 0.641160
0.604800 0.000099 0.631902
0.999501 0.000000 0.813836
0.999477 0.293557 0.647019
1.000000 0.294629 0.587517
1.000000 0.286075 0.521175
0.999899 0.286792 0.492290
0.999899 0.286792 0.492290
0.178931 0.000835 0.939844
0.082365 0.000137 0.854058
0.434872 0.000296 0.811015
0.977009 0.000061 0.855144
0.999948 0.172332 0.781707
0.999868 0.288187 0.665077
0.999285 0.298307 0.597367
1.000000 0.288047 0.536218
0.999899 0.286792 0.492290
0.114081 0.151864 1.000000
0.070185 0.046222 0.974231
0.259279 0.000301 0.980277
0.759978 0.000096 0.961613
1.000000 0.006321 0.982634
0.999083 0.277083 0.741442
1.000000 0.282150 0.676969
0.999477 0.299270 0.617602
0.999496 0.289043 0.550285
0.000033 0.699098 1.000000
0.000000 0.612768 0.999696
0.000783 0.504078 1.000000
0.478736 0.369199 0.886633
1.000000 0.317582 0.829265
0.999521 0.458104 0.724801
0.999952 0.418162 0.680906
0.999993 0.378551 0.644910
1.000000 0.327608 0.607269
0.000210 0.953431 1.000000
0.000000 0.932107 1.000000
0.000068 0.902197 0.939550
0.000520 0.851692 0.830072
0.705078 0.705078 0.705078
1.000000 0.645127 0.702438
0.999615 0.594223 0.649000
0.999472 0.539292 0.606699
1.000000 0.485674 0.563644
0.000583 1.000000 0.869953
0.000220 1.000000 0.699871
0.000000 1.000000 0.625324
0.000050 0.999803 0.556946
0.000000 0.999936 0.480669
0.941667 0.966897 0.415414
0.999259 0.813110 0.516554
1.000000 0.746144 0.482238
0.999183 0.680878 0.452359
0.000573 0.986758 0.999653
0.000967 0.999872 0.922536
0.000623 1.000000 0.631493
0.000481 0.999517 0.308855
0.000000 0.999633 0.046700
0.000000 0.999930 0.060766
0.998787 0.999197 0.047887
0.998778 0.999437 0.106637
0.999400 0.954411 0.114125
0.000573 0.986758 0.999653
0.000573 0.986758 0.999653
0.000000 0.996157 0.970457
0.000220 1.000000 0.699871
0.000000 1.000000 0.393031
0.000319 0.999512 0.103719
0.530163 0.999454 0.000000
0.999602 0.969921 0.000000
0.998626 0.968609 0.000223
0.000573 0.986758 0.999653
0.000573 0.986758 0.999653
0.000573 0.986758 0.999653
0.000765 0.991419 1.000000
0.000000 1.000000 0.769981
0.000000 0.999601 0.482398
0.000000 0.999556 0.293059
0.999180 0.999539 0.036527
0.999602 0.969921 0.000000
0.262209 0.000000 1.000000
0.252241 0.000136 0.973886
0.671799 0.000000 0.999719
1.000000 0.000000 0.999715
1.000000 0.217949 0.811980
0.999295 0.262442 0.722047
0.999477 0.292885 0.650480
1.000000 0.294629 0.587517
0.999697 0.288086 0.520423
0.435821 0.000000 1.000000
0.301311 0.000000 1.000000
0.549409 0.000094 0.999926
1.000000 0.000000 0.999715
1.000000 0.000000 0.999715
1.000000 0.204562 0.836516
0.999104 0.253413 0.743345
1.000000 0.285841 0.667564
0.999285 0.298307 0.597367
0.490758 0.000077 0.999652
0.443250 0.000000 0.998848
0.477268 0.000380 0.999207
0.819406 0.000703 0.999648
1.000000 0.000000 0.999715
1.000000 0.179066 0.942606
1.000000 0.193187 0.860297
1.000000 0.244358 0.761179
1.000000 0.282150 0.676969
0.101878 0.482476 1.000000
0.128706 0.430539 1.000000
0.146755 0.356468 1.000000
0.590097 0.207519 0.998738
1.000000 0.157982 1.000000
1.000000 0.370060 0.953789
0.999781 0.355216 0.859848
1.000000 0.325306 0.799094
0.999850 0.295389 0.747969
0.001085 0.844742 1.000000
0.000000 0.815434 1.000000
0.000156 0.785765 0.999160
0.000000 0.742781 0.999726
0.723671 0.623529 0.999120
0.999969 0.570995 0.998966
1.000000 0.564566 0.842505
1.000000 0.524663 0.782812
0.999503 0.480430 0.729820
0.000573 0.986758 0.999653
0.000000 0.985446 1.000000
0.000000 0.978776 0.999961
0.000785 0.968084 1.000000
0.000018 0.948770 0.999687
0.887695 0.887695 0.887695
0.999431 0.783637 0.813493
0.999489 0.725396 0.753441
0.999738 0.670808 0.699781
0.000573 0.986758 0.999653
0.000573 0.986758 0.999653
0.000573 0.986758 0.999653
0.000000 1.000000 0.924265
0.000000 0.999941 0.685805
0.000230 0.999663 0.642851
0.999293 0.999406 0.542336
1.000000 0.968696 0.551692
0.999955 0.913423 0.520749
0.000573 0.986758 0.999653
0.000573 0.986758 0.999653
0.000573 0.986758 0.999653
0.000573 0.986758 0.999653
0.000000 0.995484 0.973919
0.000412 0.999523 0.728758
0.501533 0.999946 0.517292
0.999342 1.000000 0.238204
0.999755 0.999742 0.111075
0.000573 0.986758 0.999653
0.000573 0.986758 0.999653
0.000573 0.986758 0.999653
0.000573 0.986758 0.999653
0.000573 0.986758 0.999653
0.000765 0.991419 1.000000
0.000594 0.999384 0.814665
0.956276 0.999650 0.576808
0.999333 1.000000 0.298684
0.492126 0.000000 0.999652
0.451655 0.000000 1.000000
0.738857 0.000177 0.999461
1.000000 0.000000 0.999715
0.999421 0.057334 0.998308
0.999746 0.151781 0.922321
1.000000 0.217277 0.815441
0.999687 0.260097 0.724532
0.999477 0.292885 0.650480
0.506593 0.000389 0.999345
0.501902 0.000000 0.999121
0.655962 0.000000 1.000000
1.000000 0.000000 0.999715
1.000000 0.000000 0.999715
1.000000 0.032966 1.000000
1.000000 0.137387 0.952047
1.000000 0.204562 0.836516
0.999104 0.253413 0.743345
0.526144 0.000282 1.000000
0.522430 0.000365 1.000000
0.588512 0.000217 0.999532
0.896633 0.000000 0.999614
1.000000 0.000000 0.999715
1.000000 0.000000 0.999715
1.000000 0.006644 1.000000
0.999766 0.117020 0.981328
1.000000 0.193187 0.860297
0.382871 0.192832 1.000000
0.467492 0.000266 0.999737
0.469837 0.000546 1.000000
0.703471 0.000000 0.999101
1.000000 0.000000 0.999715
0.999736 0.148325 1.000000
0.999094 0.215342 0.999368
1.000000 0.209648 0.999899
0.999899 0.198070 0.949133
0.000300 0.848762 0.999930
0.000014 0.722433 1.000000
0.001701 0.575058 1.000000
0.287581 0.517643 1.000000
0.744527 0.466391 0.999708
0.999712 0.409664 0.999415
0.999664 0.468001 0.998984
0.999099 0.441680 0.998933
1.000000 0.412746 0.939158
0.000573 0.986758 0.999653
0.000573 0.986758 0.999653
0.000210 0.953431 1.000000
0.000671 0.870087 1.000000
0.039974 0.863540 0.999672
0.862565 0.758745 1.000000
0.999267 0.707679 0.999442
1.000000 0.667993 0.995040
0.999346 0.629465 0.922258
0.000573 0.986758 0.999653
0.000573 0.986758 0.999653
0.000573 0.986758 0.999653
0.000573 0.986758 0.999653
0.000573 0.986758 0.999653
0.000000 0.983772 0.999429
0.968750 0.968750 0.968750
0.999303 0.915147 0.916203
0.998960 0.868567 0.865695
0.000573 0.986758 0.999653
0.000573 0.986758 0.999653
0.000573 0.986758 0.999653
0.000573 0.986758 0.999653
0.000573 0.986758 0.999653
0.000573 0.986422 1.000000
0.415047 0.999186 0.962211
1.000000 0.999709 0.761538
0.999868 0.999608 0.616884
0.000573 0.986758 0.999653
0.000573 0.986758 0.999653
0.000573 0.986758 0.999653
0.000573 0.986758 0.999653
0.000573 0.986758 0.999653
0.000573 0.986758 0.999653
0.000573 0.986758 0.999653
0.904401 0.999847 0.977403
0.999445 0.999315 0.807953
0.493103 0.000357 1.000000
0.511678 0.000000 0.998590
0.801225 0.000112 0.998981
1.000000 0.000000 0.999715
1.000000 0.000000 0.999715
1.000000 0.000000 0.999715
0.999421 0.057334 0.998308
0.999746 0.151109 0.925782
1.000000 0.217277 0.815441
0.502878 0.000471 1.000000
0.501902 0.000000 0.999121
0.642472 0.000000 0.999583
1.000000 0.000000 0.999715
1.000000 0.000000 0.999715
1.000000 0.000000 0.999715
1.000000 0.000000 0.999715
1.000000 0.032966 1.000000
0.999756 0.134737 0.950094
0.525168 0.000000 0.999036
0.517738 0.000000 0.998812
0.550779 0.000000 0.999926
0.812368 0.000000 0.998449
1.000000 0.000000 0.999715
1.000000 0.000000 0.999715
1.000000 0.000000 0.999715
1.000000 0.000000 0.999715
1.000000 0.004971 0.999185
0.339986 0.274797 0.999923
0.493103 0.000357 1.000000
0.535919 0.000398 0.999481
0.671799 0.000000 0.999719
1.000000 0.000000 0.999715
1.000000 0.000000 0.999715
1.000000 0.000000 0.999715
1.000000 0.000000 0.999715
1.000000 0.000000 0.999715
0.000280 0.872097 0.999759
0.000000 0.759444 0.999109
0.002285 0.578045 1.000000
0.411104 0.331535 1.000000
0.740109 0.139150 1.000000
1.000000 0.151312 1.000000
1.000000 0.242639 1.000000
0.999457 0.248334 0.999863
0.999457 0.248334 0.999863
0.000573 0.986758 0.999653
0.000573 0.986758 0.999653
0.000000 0.967108 1.000000
0.000068 0.890435 1.000000
0.170263 0.767281 0.999398
0.808540 0.603288 1.000000
1.000000 0.552322 1.000000
1.000000 0.543641 1.000000
0.999816 0.519329 0.999840
0.000573 0.986758 0.999653
0.000573 0.986758 0.999653
0.000573 0.986758 0.999653
0.000573 0.986758 0.999653
0.000573 0.986758 0.999653
0.000000 0.972104 0.999515
0.929123 0.889588 1.000000
1.000000 0.818658 0.999113
0.999793 0.780669 0.999149
0.000573 0.986758 0.999653
0.000573 0.986758 0.999653
0.000573 0.986758 0.999653
0.000573 0.986758 0.999653
0.000573 0.986758 0.999653
0.000573 0.986422 1.000000
0.320414 0.999914 1.000000
1.000000 1.000000 1.000000
0.998832 0.996043 0.989173
0.000573 0.986758 0.999653
0.000573 0.986758 0.999653
0.000573 0.986758 0.999653
0.000573 0.986758 0.999653
0.000573 0.986758 0.999653
0.000573 0.986758 0.999653
0.000573 0.986758 0.999653
0.845940 1.000000 1.000000
1.000000 1.000000 1.000000
0.494473 0.000000 0.998899
0.498187 0.000000 0.999875
0.709532 0.000169 0.999325
1.000000 0.000000 0.999715
1.000000 0.000000 0.999715
1.000000 0.000000 0.999715
1.000000 0.000000 0.999715
1.000000 0.000000 0.999715
0.999421 0.056998 1.000000
0.504247 0.000000 1.000000
0.501902 0.000000 0.999121
0.588512 0.000217 0.999532
0.901324 0.000531 0.999835
1.000000 0.000000 0.999715
1.000000 0.000000 0.999715
1.000000 0.000000 0.999715
1.000000 0.000000 0.999715
1.000000 0.000000 0.999715
0.527513 0.000000 1.000000
0.517738 0.000000 0.998812
0.533574 0.000000 1.000000
0.720676 0.000000 0.998794
1.000000 0.000000 0.999715
1.000000 0.000000 0.999715
1.000000 0.000000 0.999715
1.000000 0.000000 0.999715
1.000000 0.000000 0.999715
0.290658 0.346573 0.999579
0.468860 0.000000 0.999737
0.533574 0.000000 1.000000
0.643449 0.000317 1.000000
0.925959 0.000000 0.999750
1.000000 0.000000 0.999715
1.000000 0.000000 0.999715
1.000000 0.000000 0.999715
1.000000 0.000000 0.999715
0.000259 0.895431 0.999586
0.000156 0.785429 1.000000
0.000877 0.625410 1.000000
0.347319 0.390970 0.999285
0.712152 0.138445 1.000000
1.000000 0.000000 0.999715
1.000000 0.000000 0.999715
1.000000 0.000000 0.999715
1.000000 0.000000 0.999715
0.000573 0.986758 0.999653
0.000573 0.986758 0.999653
0.000000 0.975788 0.999738
0.000441 0.911759 1.000000
0.001304 0.815073 0.999433
0.763549 0.631300 1.000000
1.000000 0.512659 0.999395
0.999599 0.311666 0.998902
0.999840 0.258327 0.998800
0.000573 0.986758 0.999653
0.000573 0.986758 0.999653
0.000573 0.986758 0.999653
0.000573 0.986758 0.999653
0.000573 0.986758 0.999653
0.000000 0.980785 0.999207
0.874750 0.915810 0.999609
0.999591 0.787340 0.999595
1.000000 0.653642 0.999340
0.000573 0.986758 0.999653
0.000573 0.986758 0.999653
0.000573 0.986758 0.999653
0.000573 0.986758 0.999653
0.000573 0.986758 0.999653
0.000573 0.986422 1.000000
0.200763 0.999600 0.999547
1.000000 1.000000 1.000000
0.996879 0.991738 0.999333
0.000573 0.986758 0.999653
0.000573 0.986758 0.999653
0.000573 0.986758 0.999653
0.000573 0.986758 0.999653
0.000573 0.986758 0.999653
0.000573 0.986758 0.999653
0.000573 0.986422 1.000000
0.787287 1.000000 1.000000
1.000000 1.000000 1.000000
