Sources/Resources/LUT/gfx-eterna-55-3d-lut-v100/33Grid/F-Log2C/FLog2C_to_ASTIA_33grid_V.1.00.cube
#title:FLog2C_to_ASTIA
#model:GFX ETERNA 55
#FUJIFILM Corporation
#Gamma:F-Log2C to ASTIA
#Gamut:F-GamutC to ITU-R BT.709
#Version:1.00
LUT_3D_SIZE 33
0.000000 0.000000 0.000000
0.000000 0.000000 0.000000
0.014467 0.001009 0.000000
0.047115 0.002274 0.001780
0.094622 0.002873 0.002586
0.178494 0.003983 0.008187
0.295799 0.004016 0.008735
0.439107 0.001794 0.012657
0.601183 0.000125 0.033043
0.755626 0.000587 0.079609
0.904391 0.000426 0.178535
1.000000 0.000000 0.341352
0.998964 0.000000 0.499098
1.000000 0.009715 0.529628
0.999461 0.099723 0.540077
0.999461 0.099723 0.540077
0.999461 0.099723 0.540077
0.999461 0.099723 0.540077
0.999461 0.099723 0.540077
0.999461 0.099723 0.540077
0.999461 0.099723 0.540077
0.999461 0.099723 0.540077
0.999461 0.099723 0.540077
0.999461 0.099723 0.540077
0.999461 0.099723 0.540077
0.999461 0.099723 0.540077
0.999461 0.099723 0.540077
0.999461 0.099723 0.540077
0.999461 0.099723 0.540077
0.999461 0.099723 0.540077
0.999461 0.099723 0.540077
0.999461 0.099723 0.540077
0.999461 0.099723 0.540077
0.000000 0.000000 0.000000
0.000000 0.000000 0.000000
0.000977 0.001313 0.000000
0.029910 0.002995 0.000360
0.071358 0.002726 0.004403
0.137046 0.004588 0.002413
0.243208 0.004868 0.005223
0.377716 0.004180 0.007192
0.530801 0.000393 0.019235
0.690721 0.000082 0.055419
0.843011 0.000000 0.129896
0.988836 0.000000 0.270797
0.999950 0.000533 0.441324
0.999549 0.000000 0.514894
1.000000 0.079376 0.540473
0.999461 0.099723 0.540077
0.999461 0.099723 0.540077
0.999461 0.099723 0.540077
0.999461 0.099723 0.540077
0.999461 0.099723 0.540077
0.999461 0.099723 0.540077
0.999461 0.099723 0.540077
0.999461 0.099723 0.540077
0.999461 0.099723 0.540077
0.999461 0.099723 0.540077
0.999461 0.099723 0.540077
0.999461 0.099723 0.540077
0.999461 0.099723 0.540077
0.999461 0.099723 0.540077
0.999461 0.099723 0.540077
0.999461 0.099723 0.540077
0.999461 0.099723 0.540077
0.999461 0.099723 0.540077
0.000000 0.000000 0.000000
0.000000 0.000000 0.000000
0.000000 0.000000 0.000000
0.016813 0.001624 0.000000
0.049462 0.002553 0.002757
0.108113 0.002570 0.003032
0.191985 0.004015 0.006903
0.320434 0.003802 0.005188
0.466088 0.001524 0.011817
0.622102 0.000000 0.030249
0.778498 0.000000 0.092613
0.925502 0.000000 0.202898
1.000000 0.000000 0.365047
0.999940 0.000000 0.505265
1.000000 0.025707 0.532472
0.999461 0.099723 0.540077
0.999461 0.099723 0.540077
0.999461 0.099723 0.540077
0.999461 0.099723 0.540077
0.999461 0.099723 0.540077
0.999461 0.099723 0.540077
0.999461 0.099723 0.540077
0.999461 0.099723 0.540077
0.999461 0.099723 0.540077
0.999461 0.099723 0.540077
0.999461 0.099723 0.540077
0.999461 0.099723 0.540077
0.999461 0.099723 0.540077
0.999461 0.099723 0.540077
0.999461 0.099723 0.540077
0.999461 0.099723 0.540077
0.999461 0.099723 0.540077
0.999461 0.099723 0.540077
0.000182 0.016664 0.000000
0.000000 0.010690 0.000000
0.000000 0.003684 0.000222
0.006061 0.000197 0.000222
0.036363 0.001518 0.000000
0.077418 0.003259 0.002895
0.150537 0.003277 0.008051
0.266472 0.004344 0.006867
0.400005 0.002679 0.007859
0.557389 0.000452 0.026293
0.713594 0.000000 0.064960
0.866466 0.000658 0.148312
0.998803 0.000000 0.293961
1.000000 0.000153 0.468481
1.000000 0.000000 0.521062
0.999270 0.094391 0.542340
0.999461 0.099723 0.540077
0.999461 0.099723 0.540077
0.999461 0.099723 0.540077
0.999461 0.099723 0.540077
0.999461 0.099723 0.540077
0.999461 0.099723 0.540077
0.999461 0.099723 0.540077
0.999461 0.099723 0.540077
0.999461 0.099723 0.540077
0.999461 0.099723 0.540077
0.999461 0.099723 0.540077
0.999461 0.099723 0.540077
0.999461 0.099723 0.540077
0.999461 0.099723 0.540077
0.999461 0.099723 0.540077
0.999461 0.099723 0.540077
0.999461 0.099723 0.540077
0.000162 0.039999 0.000000
0.000363 0.032991 0.000496
0.000000 0.023335 0.000000
0.000182 0.016664 0.000000
0.020909 0.010863 0.000582
0.060213 0.004317 0.000000
0.115150 0.003743 0.004230
0.209190 0.003630 0.006594
0.339985 0.003695 0.005855
0.490330 0.001303 0.017898
0.647321 0.000000 0.042499
0.805086 0.000000 0.103133
0.948959 0.000000 0.229968
0.999568 0.000000 0.393933
0.999549 0.000432 0.511434
1.000000 0.045383 0.535539
0.999461 0.099723 0.540077
0.999461 0.099723 0.540077
0.999461 0.099723 0.540077
0.999461 0.099723 0.540077
0.999461 0.099723 0.540077
0.999461 0.099723 0.540077
0.999461 0.099723 0.540077
0.999461 0.099723 0.540077
0.999461 0.099723 0.540077
0.999461 0.099723 0.540077
0.999461 0.099723 0.540077
0.999461 0.099723 0.540077
0.999461 0.099723 0.540077
0.999461 0.099723 0.540077
0.999461 0.099723 0.540077
0.999461 0.099723 0.540077
0.999461 0.099723 0.540077
0.000526 0.072990 0.000000
0.000000 0.060010 0.000547
0.000545 0.049656 0.000000
0.000162 0.039999 0.000000
0.002710 0.033607 0.000000
0.041619 0.028734 0.000000
0.088352 0.021686 0.000000
0.167732 0.015902 0.000734
0.284262 0.006945 0.006781
0.424248 0.002459 0.013941
0.584369 0.000181 0.025452
0.736468 0.000027 0.072773
0.887971 0.000000 0.164777
0.998994 0.000000 0.319387
1.000000 0.000109 0.493906
1.000000 0.001066 0.523769
0.999461 0.099723 0.540077
0.999461 0.099723 0.540077
0.999461 0.099723 0.540077
0.999461 0.099723 0.540077
0.999461 0.099723 0.540077
0.999461 0.099723 0.540077
0.999461 0.099723 0.540077
0.999461 0.099723 0.540077
0.999461 0.099723 0.540077
0.999461 0.099723 0.540077
0.999461 0.099723 0.540077
0.999461 0.099723 0.540077
0.999461 0.099723 0.540077
0.999461 0.099723 0.540077
0.999461 0.099723 0.540077
0.999461 0.099723 0.540077
0.999461 0.099723 0.540077
0.000486 0.119659 0.000000
0.000496 0.107656 0.001181
0.000707 0.089317 0.000820
0.000526 0.072990 0.000000
0.000000 0.060010 0.000547
0.020679 0.052871 0.000000
0.064673 0.046883 0.000153
0.130957 0.039729 0.000204
0.236533 0.037694 0.000000
0.372030 0.026652 0.000629
0.519647 0.015667 0.004106
0.675277 0.000448 0.042637
0.829912 0.000000 0.119821
0.972416 0.000120 0.250116
1.000000 0.000000 0.425527
0.999549 0.000000 0.514894
0.999491 0.065394 0.536876
0.999461 0.099723 0.540077
0.999461 0.099723 0.540077
0.999461 0.099723 0.540077
0.999461 0.099723 0.540077
0.999461 0.099723 0.540077
0.999461 0.099723 0.540077
0.999461 0.099723 0.540077
0.999461 0.099723 0.540077
0.999461 0.099723 0.540077
0.999461 0.099723 0.540077
0.999461 0.099723 0.540077
0.999461 0.099723 0.540077
0.999461 0.099723 0.540077
0.999461 0.099723 0.540077
0.999461 0.099723 0.540077
0.999461 0.099723 0.540077
0.000237 0.184664 0.000000
0.000000 0.165015 0.000000
0.000000 0.141680 0.000000
0.000677 0.124319 0.000562
0.000496 0.107656 0.001181
0.000707 0.089317 0.000820
0.043140 0.079702 0.000000
0.103363 0.072015 0.000562
0.191542 0.065369 0.000527
0.317848 0.057870 0.000000
0.461751 0.047640 0.000000
0.622274 0.034038 0.000129
0.770474 0.015286 0.059203
0.913190 0.000236 0.173566
0.999186 0.000039 0.343083
0.998964 0.000000 0.499098
0.998946 0.017755 0.526613
0.999461 0.099723 0.540077
0.999461 0.099723 0.540077
0.999461 0.099723 0.540077
0.999461 0.099723 0.540077
0.999461 0.099723 0.540077
0.999461 0.099723 0.540077
0.999461 0.099723 0.540077
0.999461 0.099723 0.540077
0.999461 0.099723 0.540077
0.999461 0.099723 0.540077
0.999461 0.099723 0.540077
0.999461 0.099723 0.540077
0.999461 0.099723 0.540077
0.999461 0.099723 0.540077
0.999461 0.099723 0.540077
0.999461 0.099723 0.540077
0.000350 0.282664 0.000000
0.000000 0.253356 0.000000
0.000399 0.224328 0.000320
0.000227 0.196332 0.000000
0.000054 0.168002 0.000000
0.000000 0.148351 0.000391
0.016312 0.131301 0.000700
0.069891 0.120767 0.000082
0.152211 0.107254 0.000000
0.269133 0.097630 0.000000
0.410298 0.088795 0.000027
0.565737 0.076308 0.000000
0.717854 0.061894 0.000058
0.856471 0.042311 0.088551
0.999578 0.019201 0.234817
1.000000 0.000210 0.423797
1.000000 0.014762 0.494043
1.000000 0.103388 0.527211
0.999069 0.102070 0.537593
0.999461 0.099723 0.540077
0.999461 0.099723 0.540077
0.999461 0.099723 0.540077
0.999461 0.099723 0.540077
0.999461 0.099723 0.540077
0.999461 0.099723 0.540077
0.999461 0.099723 0.540077
0.999461 0.099723 0.540077
0.999461 0.099723 0.540077
0.999461 0.099723 0.540077
0.999461 0.099723 0.540077
0.999461 0.099723 0.540077
0.999461 0.099723 0.540077
0.999461 0.099723 0.540077
0.000252 0.399000 0.000762
0.000000 0.363022 0.000044
0.000000 0.328020 0.000302
0.000000 0.291344 0.000000
0.000560 0.263990 0.001261
0.000197 0.230998 0.000765
0.001002 0.203980 0.000714
0.039338 0.184452 0.000714
0.114621 0.169430 0.000543
0.221184 0.157041 0.000000
0.359419 0.144604 0.000302
0.510166 0.131223 0.000000
0.664237 0.119097 0.000333
0.804232 0.103617 0.004117
0.937566 0.085770 0.123227
0.999731 0.057424 0.303160
0.998936 0.045554 0.443465
0.999461 0.110477 0.484702
1.000000 0.149094 0.506632
0.999633 0.132424 0.516878
1.000000 0.117066 0.526371
0.999652 0.105056 0.537817
0.999461 0.099723 0.540077
0.999461 0.099723 0.540077
0.999461 0.099723 0.540077
0.999461 0.099723 0.540077
0.999461 0.099723 0.540077
0.999461 0.099723 0.540077
0.999461 0.099723 0.540077
0.999461 0.099723 0.540077
0.999461 0.099723 0.540077
0.999461 0.099723 0.540077
0.999461 0.099723 0.540077
0.000000 0.524352 0.000000
0.000000 0.486364 0.000000
0.000214 0.445668 0.000418
0.000635 0.408992 0.000000
0.000665 0.373992 0.000000
0.000000 0.338013 0.000000
0.000330 0.305999 0.000000
0.000551 0.275992 0.000000
0.067820 0.258149 0.000558
0.174393 0.233756 0.000832
0.309305 0.220063 0.000180
0.453992 0.206485 0.000000
0.609241 0.189002 0.000000
0.747667 0.181560 0.000000
0.882185 0.167861 0.008535
0.999874 0.146298 0.170684
1.000000 0.111974 0.372618
0.999643 0.138568 0.425250
0.999383 0.205832 0.473633
0.999201 0.186815 0.486363
0.999020 0.168471 0.495634
1.000000 0.152416 0.505125
1.000000 0.135410 0.517102
1.000000 0.120052 0.526595
0.999260 0.107402 0.535333
0.999461 0.099723 0.540077
0.999461 0.099723 0.540077
0.999461 0.099723 0.540077
0.999461 0.099723 0.540077
0.999461 0.099723 0.540077
0.999461 0.099723 0.540077
0.999461 0.099723 0.540077
0.999461 0.099723 0.540077
0.000000 0.650682 0.000000
0.000268 0.613670 0.000414
0.000106 0.574008 0.000000
0.000000 0.536019 0.000000
0.000000 0.496022 0.000296
0.000000 0.459346 0.000000
0.000000 0.419348 0.000367
0.000000 0.389343 0.000095
0.022964 0.360823 0.000711
0.114677 0.337431 0.000540
0.251741 0.319357 0.000000
0.401322 0.299667 0.000000
0.555393 0.287877 0.000000
0.697341 0.275358 0.000000
0.829908 0.261050 0.000000
0.962667 0.246361 0.027156
0.999412 0.218889 0.226433
0.999794 0.205692 0.344773
0.999746 0.251594 0.408370
0.999544 0.251879 0.441695
0.999363 0.232864 0.454426
0.999575 0.211165 0.471371
1.000000 0.188800 0.482149
0.999211 0.173803 0.493371
0.999030 0.155124 0.504372
0.999431 0.140102 0.512133
1.000000 0.121726 0.527571
0.999844 0.110726 0.533824
0.999461 0.099723 0.540077
0.999461 0.099723 0.540077
0.999461 0.099723 0.540077
0.999461 0.099723 0.540077
0.999461 0.099723 0.540077
0.000000 0.762021 0.000805
0.000170 0.730006 0.001285
0.000000 0.696038 0.000000
0.000000 0.662013 0.001047
0.000651 0.623327 0.001082
0.000000 0.584362 0.000141
0.000000 0.545677 0.000176
0.000355 0.509001 0.000000
0.000000 0.479694 0.000000
0.053973 0.451461 0.000914
0.182835 0.425905 0.000126
0.342190 0.406328 0.000000
0.498807 0.388148 0.000000
0.646424 0.377836 0.000000
0.778991 0.363527 0.000000
0.904712 0.352706 0.000000
0.999736 0.331484 0.057000
0.999536 0.300850 0.249527
0.998932 0.306411 0.325273
1.000000 0.323620 0.387844
0.999314 0.300273 0.407273
0.999526 0.278910 0.422488
0.999736 0.257548 0.437704
0.999948 0.236186 0.452918
1.000000 0.215160 0.466403
0.998999 0.195166 0.478155
0.999211 0.174140 0.491640
0.999613 0.158447 0.502863
0.999040 0.142112 0.511379
0.999834 0.124745 0.521625
0.998867 0.109749 0.532847
0.999461 0.099723 0.540077
0.999461 0.099723 0.540077
0.000254 0.863342 0.000000
0.000082 0.835010 0.000512
0.000000 0.804030 0.000000
0.000000 0.772014 0.000000
0.000000 0.738687 0.000976
0.000000 0.705695 0.000482
0.000612 0.669996 0.000738
0.000000 0.634018 0.000019
0.000278 0.602003 0.000500
0.000000 0.571021 0.000000
0.105510 0.543643 0.000000
0.274841 0.517175 0.000000
0.436936 0.496205 0.000000
0.594137 0.481011 0.000000
0.730025 0.468294 0.000000
0.853402 0.457194 0.000000
0.982060 0.438307 0.000000
0.999467 0.410415 0.105297
0.999467 0.387898 0.221239
0.999840 0.391411 0.313534
0.999850 0.372686 0.349960
0.999083 0.349338 0.369391
0.999295 0.327640 0.386336
0.999506 0.306278 0.401551
0.999324 0.286589 0.417741
1.000000 0.260534 0.437925
0.999554 0.238868 0.448702
1.000000 0.220828 0.462410
0.999585 0.198825 0.474919
0.999794 0.177463 0.490132
0.999221 0.161128 0.498649
1.000000 0.143760 0.508894
1.000000 0.127395 0.523578
0.000000 0.951684 0.000000
0.000000 0.925362 0.000000
0.000225 0.898008 0.001282
0.000000 0.871687 0.001231
0.000000 0.840705 0.000000
0.000102 0.811677 0.000684
0.000000 0.778685 0.000186
0.000000 0.748680 0.000000
0.000000 0.717362 0.000394
0.000007 0.690344 0.000343
0.024472 0.661127 0.000962
0.192434 0.635693 0.000000
0.368803 0.610735 0.000000
0.539304 0.590241 0.000785
0.681061 0.573061 0.000132
0.806782 0.562240 0.000234
0.924880 0.546922 0.000644
0.999388 0.523917 0.000781
0.999600 0.488439 0.088675
0.999398 0.473265 0.201602
0.998624 0.450832 0.276320
0.999227 0.425442 0.302672
0.999830 0.401061 0.323833
0.999065 0.377713 0.343262
1.000000 0.354646 0.363668
0.999487 0.333645 0.380614
0.999114 0.308288 0.400796
1.000000 0.287902 0.416988
1.000000 0.266540 0.432203
0.998770 0.242889 0.447195
0.999958 0.223510 0.458195
1.000000 0.202148 0.473411
1.000000 0.181122 0.486894
0.000000 1.000000 0.000285
0.000000 1.000000 0.000285
0.000000 0.986349 0.001125
0.000000 0.960028 0.001074
0.000196 0.933010 0.001023
0.000000 0.904037 0.000000
0.000000 0.878693 0.000000
0.000000 0.848688 0.000000
0.000000 0.820357 0.000375
0.000000 0.792362 0.000000
0.000140 0.765008 0.001027
0.084817 0.740443 0.000000
0.285427 0.716609 0.000000
0.470787 0.695114 0.000270
0.629751 0.677549 0.000000
0.757826 0.655339 0.000472
0.875735 0.635362 0.000000
0.999109 0.624261 0.000000
0.999129 0.600926 0.000000
0.999149 0.567173 0.052797
0.999743 0.532616 0.186352
1.000000 0.505547 0.221356
0.999580 0.480519 0.249437
0.999207 0.453818 0.276543
0.999810 0.429437 0.297704
0.999045 0.406089 0.317133
0.999255 0.382711 0.342731
0.999860 0.358666 0.362160
0.999094 0.335992 0.378130
1.000000 0.313259 0.396804
0.999123 0.293933 0.414726
0.999727 0.271231 0.427234
0.999355 0.246547 0.443958
0.000000 1.000000 0.000285
0.000000 1.000000 0.000285
0.000000 1.000000 0.000285
0.000000 1.000000 0.000285
0.000000 1.000000 0.000285
0.000000 0.993356 0.000000
0.000000 0.967034 0.000000
0.000000 0.939680 0.001469
0.000000 0.911685 0.000441
0.000000 0.885364 0.000390
0.000000 0.862029 0.000563
0.000667 0.837998 0.000734
0.169998 0.811867 0.000000
0.383707 0.789403 0.000148
0.566338 0.757972 0.000000
0.706344 0.731496 0.000352
0.828361 0.709426 0.000000
0.947637 0.688414 0.000504
0.999252 0.687257 0.000000
0.998879 0.665933 0.000000
0.998909 0.626226 0.023480
0.999119 0.588733 0.121758
0.999331 0.564009 0.154278
0.998958 0.535964 0.188305
1.000000 0.511215 0.217363
0.998795 0.485211 0.244469
0.999398 0.460158 0.269090
0.999025 0.434465 0.291004
0.999628 0.409748 0.313894
0.998864 0.385730 0.336785
1.000000 0.364671 0.356438
0.999678 0.338978 0.378352
0.999496 0.319289 0.394544
0.000000 1.000000 0.000285
0.000000 1.000000 0.000285
0.000000 1.000000 0.000285
0.000000 1.000000 0.000285
0.000000 1.000000 0.000285
0.000000 1.000000 0.000285
0.000000 1.000000 0.000285
0.000000 1.000000 0.000285
0.000000 1.000000 0.000285
0.000357 0.973008 0.000234
0.000000 0.948361 0.001160
0.000000 0.923352 0.000355
0.023098 0.899829 0.000441
0.267311 0.872016 0.000000
0.481029 0.837886 0.000661
0.646456 0.807176 0.000000
0.776293 0.782595 0.000000
0.894987 0.758598 0.000000
0.999405 0.738587 0.000434
0.999213 0.733926 0.000000
0.999032 0.717263 0.000000
0.998488 0.667607 0.000000
0.998306 0.644557 0.033469
0.999492 0.618458 0.079078
0.999704 0.593399 0.113327
0.998545 0.568366 0.151039
0.999149 0.541968 0.182582
0.999753 0.516244 0.210664
0.999379 0.489542 0.237769
0.999984 0.463482 0.267582
0.999610 0.438124 0.287765
0.999820 0.415081 0.311632
0.999055 0.391397 0.332793
0.000000 1.000000 0.000285
0.000000 1.000000 0.000285
0.000000 1.000000 0.000285
0.000000 1.000000 0.000285
0.000000 1.000000 0.000285
0.000000 1.000000 0.000285
0.000000 1.000000 0.000285
0.000000 1.000000 0.000285
0.000000 1.000000 0.000285
0.000000 1.000000 0.000285
0.000000 1.000000 0.000285
0.000000 1.000000 0.000285
0.000000 0.985372 0.000148
0.095585 0.956205 0.000000
0.368549 0.913746 0.000000
0.572493 0.879837 0.000000
0.719928 0.852861 0.000000
0.843705 0.828084 0.000000
0.967090 0.804981 0.000312
0.998580 0.789276 0.000000
0.999576 0.766918 0.000000
0.999597 0.743584 0.000000
0.999616 0.720250 0.000074
0.999242 0.698925 0.000000
1.000000 0.671906 0.000000
1.000000 0.648191 0.026770
1.000000 0.622790 0.072380
0.999894 0.599405 0.107605
0.999129 0.573032 0.142610
0.998363 0.547333 0.174152
0.998967 0.520264 0.209157
0.999571 0.494875 0.235507
1.000000 0.469485 0.261860
0.000000 1.000000 0.000285
0.000000 1.000000 0.000285
0.000000 1.000000 0.000285
0.000000 1.000000 0.000285
0.000000 1.000000 0.000285
0.000000 1.000000 0.000285
0.000000 1.000000 0.000285
0.000000 1.000000 0.000285
0.000000 1.000000 0.000285
0.000000 1.000000 0.000285
0.000000 1.000000 0.000285
0.000000 1.000000 0.000285
0.000000 1.000000 0.000285
0.000000 1.000000 0.000285
0.197799 0.998912 0.000043
0.467441 0.954862 0.000000
0.651442 0.922733 0.000000
0.786757 0.895362 0.000000
0.910533 0.870585 0.000000
0.999117 0.850263 0.000106
0.999920 0.823245 0.000056
0.998580 0.789276 0.000000
0.999576 0.766918 0.000000
0.999587 0.755251 0.000000
0.998227 0.744281 0.000000
0.998831 0.724270 0.000000
0.999828 0.701912 0.000000
0.999263 0.675591 0.000000
0.998496 0.652244 0.019094
0.999291 0.627819 0.065680
0.999503 0.602759 0.099931
0.998736 0.575715 0.138395
0.998948 0.550656 0.172646
0.000000 1.000000 0.000285
0.000000 1.000000 0.000285
0.000000 1.000000 0.000285
0.000000 1.000000 0.000285
0.000000 1.000000 0.000285
0.000000 1.000000 0.000285
0.000000 1.000000 0.000285
0.000000 1.000000 0.000285
0.000000 1.000000 0.000285
0.000000 1.000000 0.000285
0.000000 1.000000 0.000285
0.000000 1.000000 0.000285
0.000000 1.000000 0.000285
0.000000 1.000000 0.000285
0.000000 1.000000 0.000285
0.302590 1.000000 0.001121
0.555774 0.999546 0.000176
0.721200 0.968500 0.000277
0.851824 0.940235 0.000243
0.972087 0.909205 0.000000
0.994788 0.882360 0.000379
0.999508 0.848589 0.000000
0.999347 0.808590 0.000000
0.999556 0.790252 0.000000
0.999175 0.780259 0.000621
1.000000 0.769905 0.000000
0.998802 0.758935 0.000039
0.998811 0.747268 0.000125
0.999998 0.730242 0.000000
0.999042 0.705595 0.000000
0.999061 0.682597 0.000000
0.999081 0.657246 0.008934
0.999876 0.632821 0.055520
0.000000 1.000000 0.000285
0.000000 1.000000 0.000285
0.000000 1.000000 0.000285
0.000000 1.000000 0.000285
0.000000 1.000000 0.000285
0.000000 1.000000 0.000285
0.000000 1.000000 0.000285
0.000000 1.000000 0.000285
0.000000 1.000000 0.000285
0.000000 1.000000 0.000285
0.000000 1.000000 0.000285
0.000000 1.000000 0.000285
0.000000 1.000000 0.000285
0.000000 1.000000 0.000285
0.000000 1.000000 0.000285
0.046084 0.999649 0.000114
0.395653 0.999807 0.000000
0.626547 0.999956 0.000895
0.776894 0.999916 0.000824
0.901848 0.969781 0.000000
0.990440 0.937792 0.000481
0.993400 0.906391 0.000208
0.997536 0.869634 0.000000
0.999127 0.838595 0.000192
0.998943 0.822268 0.000000
0.999347 0.808590 0.000000
0.999165 0.792262 0.000000
0.998782 0.782270 0.000000
0.999768 0.771914 0.000000
0.999778 0.760247 0.000000
0.998418 0.749277 0.000000
0.999213 0.733926 0.000000
0.999232 0.710592 0.000000
0.000000 1.000000 0.000285
0.000000 1.000000 0.000285
0.000000 1.000000 0.000285
0.000000 1.000000 0.000285
0.000000 1.000000 0.000285
0.000000 1.000000 0.000285
0.000000 1.000000 0.000285
0.000000 1.000000 0.000285
0.000000 1.000000 0.000285
0.000000 1.000000 0.000285
0.000000 1.000000 0.000285
0.000000 1.000000 0.000285
0.000000 1.000000 0.000285
0.000000 1.000000 0.000285
0.000000 1.000000 0.000285
0.000000 1.000000 0.000285
0.174533 0.999100 0.000128
0.483631 0.999832 0.000000
0.680508 0.999415 0.000000
0.822055 1.000000 0.000652
0.944061 0.989834 0.000000
0.987682 0.962521 0.000308
0.992794 0.926739 0.000000
0.995372 0.885347 0.000601
0.997536 0.869634 0.000000
0.999307 0.855258 0.000000
0.999710 0.841582 0.000414
0.999135 0.826929 0.000277
0.999930 0.811577 0.000141
0.998380 0.795946 0.000000
0.999365 0.785256 0.000090
0.999375 0.773589 0.000176
0.999385 0.761921 0.000263
0.000000 1.000000 0.000285
0.000000 1.000000 0.000285
0.000000 1.000000 0.000285
0.000000 1.000000 0.000285
0.000000 1.000000 0.000285
0.000000 1.000000 0.000285
0.000000 1.000000 0.000285
0.000000 1.000000 0.000285
0.000000 1.000000 0.000285
0.000000 1.000000 0.000285
0.000000 1.000000 0.000285
0.000000 1.000000 0.000285
0.000000 1.000000 0.000285
0.000000 1.000000 0.000285
0.000000 1.000000 0.000285
0.000000 1.000000 0.000285
0.000000 1.000000 0.000285
0.290468 0.999831 0.000675
0.554404 1.000000 0.000176
0.728016 1.000000 0.000019
0.860181 0.999384 0.000000
0.979046 0.999348 0.021792
0.985125 0.979571 0.004883
0.987893 0.944182 0.000000
0.992804 0.915072 0.000000
0.993208 0.901731 0.000000
0.994003 0.886380 0.000000
0.996751 0.872981 0.000688
0.998521 0.858943 0.000000
0.998925 0.845266 0.000637
0.999720 0.829914 0.000501
0.999538 0.813587 0.000000
0.998963 0.798933 0.000000
0.000000 1.000000 0.000285
0.000000 1.000000 0.000285
0.000000 1.000000 0.000285
0.000000 1.000000 0.000285
0.000000 1.000000 0.000285
0.000000 1.000000 0.000285
0.000000 1.000000 0.000285
0.000000 1.000000 0.000285
0.000000 1.000000 0.000285
0.000000 1.000000 0.000285
0.000000 1.000000 0.000285
0.000000 1.000000 0.000285
0.000000 1.000000 0.000285
0.000000 1.000000 0.000285
0.000000 1.000000 0.000285
0.000000 1.000000 0.000285
0.000000 1.000000 0.000285
0.046084 0.999649 0.000114
0.376102 0.999578 0.000110
0.612080 0.999283 0.000000
0.768486 0.999441 0.000000
0.897912 0.999869 0.000617
0.983737 1.000000 0.022016
0.985700 0.991872 0.017133
0.988075 0.960847 0.000000
0.987109 0.947867 0.000172
0.990641 0.931120 0.000035
0.992020 0.918757 0.000121
0.992814 0.903404 0.000000
0.994586 0.889366 0.000000
0.994988 0.875689 0.000000
0.999107 0.861930 0.000019
0.999901 0.846578 0.000000
0.000000 1.000000 0.000285
0.000000 1.000000 0.000285
0.000000 1.000000 0.000285
0.000000 1.000000 0.000285
0.000000 1.000000 0.000285
0.000000 1.000000 0.000285
0.000000 1.000000 0.000285
0.000000 1.000000 0.000285
0.000000 1.000000 0.000285
0.000000 1.000000 0.000285
0.000000 1.000000 0.000285
0.000000 1.000000 0.000285
0.000000 1.000000 0.000285
0.000000 1.000000 0.000285
0.000000 1.000000 0.000285
0.000000 1.000000 0.000285
0.000000 1.000000 0.000285
0.000000 1.000000 0.000285
0.143838 0.999789 0.000000
0.450591 0.999906 0.000074
0.657242 0.999604 0.000000
0.805242 0.998948 0.000000
0.931930 1.000000 0.004438
0.983737 1.000000 0.022016
0.983545 0.995917 0.019086
0.986878 0.987522 0.010743
0.987280 0.975525 0.002930
0.987682 0.962857 0.000000
0.987692 0.950854 0.000395
0.990833 0.936117 0.000000
0.991628 0.920766 0.000000
0.993400 0.906391 0.000208
0.993801 0.893050 0.000000
0.000000 1.000000 0.000285
0.000000 1.000000 0.000285
0.000000 1.000000 0.000285
0.000000 1.000000 0.000285
0.000000 1.000000 0.000285
0.000000 1.000000 0.000285
0.000000 1.000000 0.000285
0.000000 1.000000 0.000285
0.000000 1.000000 0.000285
0.000000 1.000000 0.000285
0.000000 1.000000 0.000285
0.000000 1.000000 0.000285
0.000000 1.000000 0.000285
0.000000 1.000000 0.000285
0.000000 1.000000 0.000285
0.000000 1.000000 0.000285
0.000000 1.000000 0.000285
0.000000 1.000000 0.000285
0.000000 1.000000 0.000285
0.263490 1.000000 0.000000
0.524102 0.999258 0.000000
0.701036 1.000000 0.000859
0.836914 0.999572 0.000000
0.963209 1.000000 0.016909
0.983737 1.000000 0.022016
