Sources/Resources/LUT/gfx-eterna-55-3d-lut-v100/33Grid/F-Log2C/FLog2C_to_ASTIA_33grid_V.1.00.cube
#title:FLog2C_to_ASTIA
#model:GFX ETERNA 55
#FUJIFILM Corporation
#Gamma:F-Log2C to ASTIA
#Gamut:F-GamutC to ITU-R BT.709
#Version:1.00
LUT_3D_SIZE 5
0.000000 0.000000 0.000000
0.601183 0.000125 0.033043
0.999461 0.099723 0.540077
0.999461 0.099723 0.540077
0.999461 0.099723 0.540077
0.000350 0.282664 0.000000
0.152211 0.107254 0.000000
1.000000 0.014762 0.494043
0.999461 0.099723 0.540077
0.999461 0.099723 0.540077
0.000000 1.000000 0.000285
0.000000 0.911685 0.000441
0.828361 0.709426 0.000000
1.000000 0.511215 0.217363
0.999496 0.319289 0.394544
0.000000 1.000000 0.000285
0.000000 1.000000 0.000285
0.000000 1.000000 0.000285
0.988075 0.960847 0.000000
0.999901 0.846578 0.000000
0.000000 1.000000 0.000285
0.000000 1.000000 0.000285
0.000000 1.000000 0.000285
0.698689 1.000000 0.000000
0.983737 1.000000 0.022016
0.000000 0.000146 0.119230
0.507143 0.000000 0.035870
0.999461 0.099723 0.540077
0.999461 0.099723 0.540077
0.999461 0.099723 0.540077
0.000835 0.331748 0.362652
0.117188 0.117188 0.117188
0.999155 0.000089 0.522792
0.999461 0.099723 0.540077
0.999461 0.099723 0.540077
0.000000 1.000000 0.000285
0.000175 0.956343 0.000852
0.764191 0.758867 0.000000
0.999321 0.549799 0.287438
0.999467 0.361012 0.359677
0.000000 1.000000 0.094089
0.000000 1.000000 0.000285
0.000000 1.000000 0.000285
0.986485 0.989196 0.011719
0.997536 0.869634 0.000000
0.000000 0.997640 0.877628
0.000000 0.999879 0.310586
0.000000 1.000000 0.000285
0.618141 0.999480 0.000000
0.983737 1.000000 0.022016
0.009840 0.000000 0.807681
0.507064 0.000000 0.514524
1.000000 0.122493 0.678395
0.999652 0.100351 0.562044
0.999461 0.099723 0.540077
0.000000 0.260101 1.000000
0.097377 0.039711 0.910734
1.000000 0.000000 0.890113
0.999229 0.109805 0.702929
1.000000 0.104631 0.590398
0.001005 0.938080 1.000000
0.000671 0.875464 0.972824
0.719727 0.719727 0.719727
1.000000 0.575175 0.667898
1.000000 0.408277 0.602230
0.000000 0.973779 1.000000
0.000402 0.999428 0.789239
0.000000 0.999879 0.310586
0.988972 0.999709 0.285148
0.999027 0.897127 0.298704
0.000000 0.973779 1.000000
0.000000 0.973779 1.000000
0.000000 0.997640 0.877628
0.565279 0.999615 0.454601
0.983929 1.000000 0.047441
0.015679 0.004838 0.936230
0.553125 0.000012 0.999172
1.000000 0.000019 0.974288
1.000000 0.049281 0.805816
1.000000 0.122493 0.678395
0.015679 0.004838 0.936230
0.015679 0.004838 0.936230
1.000000 0.000000 0.999715
1.000000 0.000000 0.999715
0.999863 0.027570 0.842020
0.000499 0.842091 0.999484
0.000000 0.631105 1.000000
0.607785 0.564462 0.999004
0.999482 0.454697 0.982296
0.999198 0.346852 0.887312
0.000000 0.973779 1.000000
0.000000 0.973779 1.000000
0.000000 0.973779 1.000000
0.943359 0.943359 0.943359
0.999964 0.839918 0.839241
0.000000 0.973779 1.000000
0.000000 0.973779 1.000000
0.000000 0.973779 1.000000
0.218946 1.000000 1.000000
0.993576 1.000000 0.827965
0.015679 0.004838 0.936230
0.271985 0.000000 0.999982
1.000000 0.000000 0.999715
1.000000 0.000000 0.999715
1.000000 0.000000 0.976019
0.015679 0.004838 0.936230
0.015679 0.004838 0.936230
0.904062 0.000000 0.999835
1.000000 0.000000 0.999715
1.000000 0.000000 0.999715
0.000000 0.887448 0.999895
0.000062 0.664097 1.000000
0.437127 0.306953 0.999321
1.000000 0.000000 0.999715
1.000000 0.000000 0.999715
0.000000 0.973779 1.000000
0.000000 0.973779 1.000000
0.000000 0.973779 1.000000
0.843682 0.894839 1.000000
0.999862 0.698998 0.999749
0.000000 0.973779 1.000000
0.000000 0.973779 1.000000
0.000000 0.973779 1.000000
0.029497 1.000000 1.000000
1.000000 1.000000 1.000000
