Sources/Resources/LUT/gfx-eterna-55-3d-lut-v100/33Grid/F-Log2C/FLog2C_to_REALA-ACE_33grid_V.1.00.cube
#title:FLog2C_to_REALA-ACE
#model:GFX ETERNA 55
#FUJIFILM Corporation
#Gamma:F-Log2C to REALA ACE
#Gamut:F-GamutC to ITU-R BT.709
#Version:1.00
LUT_3D_SIZE 33
0.000000 0.000000 0.000000
0.000000 0.000000 0.000000
0.009382 0.001789 0.000445
0.035386 0.000205 0.000360
0.075858 0.000000 0.000000
0.152691 0.000000 0.004366
0.301275 0.000554 0.012195
0.448883 0.000000 0.025969
0.583585 0.000169 0.044711
0.713202 0.000000 0.074590
0.833176 0.062042 0.167982
0.905595 0.172530 0.308590
0.914736 0.207494 0.412964
0.928168 0.270136 0.449235
0.940825 0.327148 0.473700
0.940825 0.327148 0.473700
0.940825 0.327148 0.473700
0.940825 0.327148 0.473700
0.940825 0.327148 0.473700
0.940825 0.327148 0.473700
0.940825 0.327148 0.473700
0.940825 0.327148 0.473700
0.940825 0.327148 0.473700
0.940825 0.327148 0.473700
0.940825 0.327148 0.473700
0.940825 0.327148 0.473700
0.940825 0.327148 0.473700
0.940825 0.327148 0.473700
0.940825 0.327148 0.473700
0.940825 0.327148 0.473700
0.940825 0.327148 0.473700
0.940825 0.327148 0.473700
0.940825 0.327148 0.473700
0.000000 0.000000 0.000000
0.000000 0.000000 0.000000
0.000977 0.000977 0.000977
0.021896 0.000509 0.000000
0.053569 0.000461 0.002757
0.111244 0.000000 0.000324
0.231871 0.000455 0.006285
0.390230 0.000000 0.022234
0.529039 0.000075 0.034054
0.657680 0.000155 0.056035
0.786119 0.000000 0.118262
0.893694 0.152884 0.252496
0.911041 0.189282 0.387933
0.921743 0.240308 0.431211
0.938488 0.315537 0.471077
0.940825 0.327148 0.473700
0.940825 0.327148 0.473700
0.940825 0.327148 0.473700
0.940825 0.327148 0.473700
0.940825 0.327148 0.473700
0.940825 0.327148 0.473700
0.940825 0.327148 0.473700
0.940825 0.327148 0.473700
0.940825 0.327148 0.473700
0.940825 0.327148 0.473700
0.940825 0.327148 0.473700
0.940825 0.327148 0.473700
0.940825 0.327148 0.473700
0.940825 0.327148 0.473700
0.940825 0.327148 0.473700
0.940825 0.327148 0.473700
0.940825 0.327148 0.473700
0.940825 0.327148 0.473700
0.000000 0.000000 0.000000
0.000000 0.000000 0.000000
0.000000 0.000000 0.000000
0.009776 0.000115 0.000000
0.037733 0.000484 0.001337
0.086610 0.000386 0.002140
0.172243 0.000000 0.005036
0.329625 0.000000 0.011355
0.472149 0.000000 0.024152
0.598443 0.000000 0.041696
0.732360 0.000103 0.083157
0.849184 0.085979 0.191195
0.907738 0.175782 0.329047
0.917465 0.216086 0.421532
0.930504 0.281746 0.451855
0.940825 0.327148 0.473700
0.940825 0.327148 0.473700
0.940825 0.327148 0.473700
0.940825 0.327148 0.473700
0.940825 0.327148 0.473700
0.940825 0.327148 0.473700
0.940825 0.327148 0.473700
0.940825 0.327148 0.473700
0.940825 0.327148 0.473700
0.940825 0.327148 0.473700
0.940825 0.327148 0.473700
0.940825 0.327148 0.473700
0.940825 0.327148 0.473700
0.940825 0.327148 0.473700
0.940825 0.327148 0.473700
0.940825 0.327148 0.473700
0.940825 0.327148 0.473700
0.940825 0.327148 0.473700
0.000000 0.010690 0.000000
0.000000 0.006671 0.000445
0.000583 0.002987 0.000222
0.003715 0.000000 0.000000
0.026981 0.000000 0.000000
0.060998 0.000297 0.001250
0.121996 0.000256 0.004230
0.267259 0.000000 0.011835
0.414866 0.000000 0.018688
0.544875 0.000000 0.037207
0.678207 0.000017 0.062871
0.804875 0.011394 0.134640
0.904235 0.168281 0.274067
0.913769 0.195858 0.406883
0.924080 0.251246 0.437293
0.942193 0.325779 0.477161
0.940825 0.327148 0.473700
0.940825 0.327148 0.473700
0.940825 0.327148 0.473700
0.940825 0.327148 0.473700
0.940825 0.327148 0.473700
0.940825 0.327148 0.473700
0.940825 0.327148 0.473700
0.940825 0.327148 0.473700
0.940825 0.327148 0.473700
0.940825 0.327148 0.473700
0.940825 0.327148 0.473700
0.940825 0.327148 0.473700
0.940825 0.327148 0.473700
0.940825 0.327148 0.473700
0.940825 0.327148 0.473700
0.940825 0.327148 0.473700
0.940825 0.327148 0.473700
0.000000 0.030005 0.000273
0.000373 0.021324 0.000582
0.000000 0.015351 0.000136
0.000000 0.010690 0.000000
0.014659 0.006006 0.000000
0.045162 0.000321 0.000000
0.091693 0.000000 0.001388
0.194139 0.000000 0.006680
0.349176 0.000000 0.012024
0.491307 0.000000 0.030988
0.621317 0.000000 0.049508
0.752888 0.000000 0.091723
0.864799 0.111927 0.213656
0.908514 0.179733 0.349504
0.919217 0.224709 0.423930
0.934400 0.295975 0.462597
0.940825 0.327148 0.473700
0.940825 0.327148 0.473700
0.940825 0.327148 0.473700
0.940825 0.327148 0.473700
0.940825 0.327148 0.473700
0.940825 0.327148 0.473700
0.940825 0.327148 0.473700
0.940825 0.327148 0.473700
0.940825 0.327148 0.473700
0.940825 0.327148 0.473700
0.940825 0.327148 0.473700
0.940825 0.327148 0.473700
0.940825 0.327148 0.473700
0.940825 0.327148 0.473700
0.940825 0.327148 0.473700
0.940825 0.327148 0.473700
0.940825 0.327148 0.473700
0.000000 0.060010 0.000547
0.000545 0.049656 0.000000
0.000000 0.038686 0.000000
0.000000 0.030005 0.000273
0.000000 0.025344 0.000000
0.032438 0.020273 0.000000
0.073693 0.015680 0.000102
0.152883 0.005236 0.000374
0.292869 0.000414 0.009265
0.437738 0.000139 0.024770
0.566771 0.000000 0.038851
0.696388 0.000272 0.065269
0.822050 0.042314 0.153109
0.905403 0.170894 0.291816
0.913569 0.201521 0.412521
0.926416 0.262184 0.443375
0.940825 0.327148 0.473700
0.940825 0.327148 0.473700
0.940825 0.327148 0.473700
0.940825 0.327148 0.473700
0.940825 0.327148 0.473700
0.940825 0.327148 0.473700
0.940825 0.327148 0.473700
0.940825 0.327148 0.473700
0.940825 0.327148 0.473700
0.940825 0.327148 0.473700
0.940825 0.327148 0.473700
0.940825 0.327148 0.473700
0.940825 0.327148 0.473700
0.940825 0.327148 0.473700
0.940825 0.327148 0.473700
0.940825 0.327148 0.473700
0.940825 0.327148 0.473700
0.000286 0.126329 0.000000
0.000000 0.106679 0.000204
0.000516 0.084657 0.000000
0.000000 0.060010 0.000547
0.000545 0.049656 0.000000
0.010522 0.043099 0.000000
0.063506 0.040910 0.000000
0.137018 0.039925 0.000425
0.258238 0.033207 0.000000
0.390030 0.010915 0.000184
0.517704 0.000000 0.014352
0.644581 0.000465 0.045960
0.773022 0.000156 0.104727
0.882175 0.136176 0.231679
0.909873 0.185997 0.373645
0.920969 0.232998 0.428059
0.937713 0.308562 0.466194
0.940825 0.327148 0.473700
0.940825 0.327148 0.473700
0.940825 0.327148 0.473700
0.940825 0.327148 0.473700
0.940825 0.327148 0.473700
0.940825 0.327148 0.473700
0.940825 0.327148 0.473700
0.940825 0.327148 0.473700
0.940825 0.327148 0.473700
0.940825 0.327148 0.473700
0.940825 0.327148 0.473700
0.940825 0.327148 0.473700
0.940825 0.327148 0.473700
0.940825 0.327148 0.473700
0.940825 0.327148 0.473700
0.940825 0.327148 0.473700
0.000000 0.208697 0.000000
0.000237 0.184664 0.000000
0.000064 0.156335 0.000082
0.000000 0.135011 0.000000
0.000000 0.106679 0.000204
0.000707 0.089317 0.000820
0.042941 0.086372 0.000000
0.120559 0.083296 0.000167
0.223597 0.075650 0.000578
0.345019 0.062260 0.000000
0.474073 0.041364 0.000000
0.602732 0.020461 0.009929
0.728837 0.010559 0.055691
0.841563 0.088204 0.156895
0.906762 0.179511 0.303844
0.916298 0.211457 0.414165
0.930706 0.275412 0.449679
0.940825 0.327148 0.473700
0.940825 0.327148 0.473700
0.940825 0.327148 0.473700
0.940825 0.327148 0.473700
0.940825 0.327148 0.473700
0.940825 0.327148 0.473700
0.940825 0.327148 0.473700
0.940825 0.327148 0.473700
0.940825 0.327148 0.473700
0.940825 0.327148 0.473700
0.940825 0.327148 0.473700
0.940825 0.327148 0.473700
0.940825 0.327148 0.473700
0.940825 0.327148 0.473700
0.940825 0.327148 0.473700
0.940825 0.327148 0.473700
0.000000 0.291344 0.000000
0.000168 0.266000 0.000507
0.000187 0.242666 0.000680
0.000000 0.218355 0.000000
0.000000 0.188350 0.000000
0.000841 0.164318 0.000000
0.000000 0.148351 0.000391
0.078670 0.142904 0.000133
0.185233 0.130179 0.000320
0.302940 0.116872 0.000000
0.429052 0.104040 0.000832
0.556938 0.077170 0.000796
0.686374 0.064923 0.007067
0.807767 0.072756 0.076661
0.908131 0.194273 0.224242
0.918251 0.223492 0.364204
0.926808 0.266224 0.412981
0.941801 0.330140 0.464292
0.941408 0.330135 0.473922
0.940825 0.327148 0.473700
0.940825 0.327148 0.473700
0.940825 0.327148 0.473700
0.940825 0.327148 0.473700
0.940825 0.327148 0.473700
0.940825 0.327148 0.473700
0.940825 0.327148 0.473700
0.940825 0.327148 0.473700
0.940825 0.327148 0.473700
0.940825 0.327148 0.473700
0.940825 0.327148 0.473700
0.940825 0.327148 0.473700
0.940825 0.327148 0.473700
0.940825 0.327148 0.473700
0.074558 0.374263 0.044605
0.054835 0.349063 0.029065
0.029053 0.324001 0.011574
0.000000 0.298015 0.000027
0.000000 0.273006 0.000000
0.000000 0.251346 0.000371
0.000000 0.228011 0.000543
0.024066 0.210461 0.001074
0.132391 0.195366 0.000285
0.250683 0.185045 0.000164
0.377388 0.163869 0.000000
0.512110 0.145179 0.000000
0.641937 0.132266 0.000000
0.767447 0.135750 0.020803
0.876680 0.182800 0.125949
0.922157 0.245882 0.272934
0.928369 0.279596 0.365727
0.941027 0.330223 0.423070
0.946866 0.355048 0.451254
0.944721 0.346418 0.458484
0.941600 0.336140 0.468199
0.942384 0.331783 0.471437
0.940825 0.327148 0.473700
0.940825 0.327148 0.473700
0.940825 0.327148 0.473700
0.940825 0.327148 0.473700
0.940825 0.327148 0.473700
0.940825 0.327148 0.473700
0.940825 0.327148 0.473700
0.940825 0.327148 0.473700
0.940825 0.327148 0.473700
0.940825 0.327148 0.473700
0.940825 0.327148 0.473700
0.146019 0.475900 0.104808
0.126106 0.446038 0.088070
0.101309 0.411295 0.066450
0.080026 0.382131 0.049711
0.061280 0.358245 0.033418
0.034913 0.330197 0.015703
0.011082 0.307090 0.000164
0.000000 0.281351 0.000645
0.058428 0.268027 0.000027
0.186304 0.252824 0.000000
0.319845 0.239493 0.000983
0.447529 0.219629 0.000000
0.590657 0.201416 0.000742
0.727513 0.201680 0.000227
0.841082 0.217736 0.039426
0.928983 0.283541 0.181048
0.937542 0.310813 0.309426
0.944348 0.342234 0.369648
0.953490 0.386943 0.423841
0.950762 0.374990 0.432579
0.949987 0.364990 0.443270
0.947842 0.356360 0.450500
0.944721 0.346754 0.456755
0.943160 0.340438 0.467668
0.941016 0.332144 0.473167
0.940825 0.327148 0.473700
0.940825 0.327148 0.473700
0.940825 0.327148 0.473700
0.940825 0.327148 0.473700
0.940825 0.327148 0.473700
0.940825 0.327148 0.473700
0.940825 0.327148 0.473700
0.940825 0.327148 0.473700
0.218065 0.580523 0.165235
0.196197 0.548709 0.146542
0.174331 0.516895 0.127851
0.152463 0.485081 0.109160
0.130596 0.452932 0.092199
0.107751 0.420141 0.072530
0.086469 0.391315 0.054062
0.069092 0.366393 0.039500
0.053276 0.345436 0.026136
0.110970 0.326182 0.000000
0.248229 0.312769 0.000000
0.390571 0.298575 0.000000
0.534090 0.278687 0.000000
0.675254 0.269853 0.000414
0.803311 0.271314 0.000000
0.922712 0.319157 0.091200
0.946704 0.359747 0.221890
0.951759 0.378174 0.302211
0.959149 0.411908 0.366118
0.959924 0.412833 0.402149
0.957195 0.400208 0.414347
0.955443 0.389569 0.422331
0.952715 0.377952 0.429340
0.950570 0.368313 0.441762
0.947449 0.358035 0.451477
0.945305 0.349404 0.458708
0.944137 0.342087 0.465184
0.941993 0.333793 0.470683
0.940825 0.327148 0.473700
0.940825 0.327148 0.473700
0.940825 0.327148 0.473700
0.940825 0.327148 0.473700
0.940825 0.327148 0.473700
0.324702 0.693981 0.260766
0.273518 0.656205 0.212605
0.248328 0.623135 0.191960
0.225484 0.590346 0.172293
0.201665 0.556578 0.151649
0.179797 0.524764 0.132957
0.157929 0.492951 0.114264
0.138015 0.463091 0.097527
0.120247 0.439843 0.083942
0.114991 0.415988 0.066364
0.176602 0.393680 0.019640
0.317383 0.378884 0.000707
0.475561 0.365002 0.000000
0.618689 0.347125 0.000000
0.755554 0.335385 0.000618
0.884759 0.361112 0.026110
0.953520 0.411426 0.117805
0.961112 0.431432 0.217606
0.966951 0.446847 0.294241
0.969670 0.456016 0.359828
0.967334 0.441044 0.374512
0.963236 0.428781 0.388440
0.959924 0.413841 0.396957
0.958172 0.402193 0.410132
0.955051 0.391915 0.419848
0.952323 0.379290 0.432046
0.949594 0.368010 0.437324
0.947057 0.360380 0.448991
0.946282 0.351053 0.456222
0.944529 0.340413 0.464207
0.941993 0.334129 0.468954
0.940431 0.328821 0.474676
0.940825 0.327148 0.473700
0.493685 0.817938 0.421402
0.442109 0.782172 0.372488
0.387997 0.741802 0.319669
0.336812 0.704026 0.271508
0.285629 0.665913 0.225078
0.254773 0.631981 0.198044
0.229975 0.597238 0.176421
0.208107 0.565424 0.157730
0.188778 0.538550 0.141216
0.171402 0.513629 0.126653
0.174943 0.488914 0.107567
0.252784 0.466586 0.052638
0.393373 0.453515 0.000000
0.559766 0.435113 0.000618
0.703476 0.420222 0.000186
0.845216 0.426377 0.000000
0.958756 0.469705 0.078106
0.966549 0.495138 0.115164
0.970838 0.494252 0.194148
0.978046 0.505608 0.288089
0.976295 0.489927 0.322031
0.972590 0.474981 0.340176
0.970254 0.460010 0.354859
0.966941 0.443391 0.372028
0.965190 0.431743 0.385204
0.960508 0.417163 0.395449
0.958172 0.402529 0.408403
0.955051 0.391915 0.419848
0.952907 0.382613 0.430539
0.950570 0.368986 0.438300
0.948425 0.360691 0.443801
0.946282 0.352061 0.451032
0.945113 0.343735 0.462699
0.639625 0.914431 0.569738
0.601137 0.890357 0.529082
0.556397 0.861764 0.485273
0.506774 0.828623 0.434852
0.453636 0.789230 0.383008
0.403430 0.752766 0.334093
0.351271 0.714013 0.284958
0.302039 0.677854 0.240481
0.264145 0.644093 0.205325
0.243839 0.616242 0.187833
0.225484 0.590346 0.172293
0.242910 0.564659 0.147484
0.333849 0.544712 0.088785
0.483830 0.528819 0.000000
0.650606 0.520411 0.000000
0.798606 0.520091 0.000000
0.935441 0.540665 0.013735
0.972560 0.567451 0.044008
0.973739 0.556716 0.070496
0.977243 0.556487 0.165276
0.981541 0.542925 0.249539
0.979205 0.526610 0.271144
0.979215 0.509230 0.300648
0.975902 0.492946 0.316086
0.973567 0.476630 0.337692
0.970838 0.463669 0.351620
0.967526 0.447385 0.367058
0.963821 0.433449 0.380012
0.961092 0.420151 0.395672
0.958756 0.405852 0.406895
0.954658 0.394597 0.415633
0.953883 0.384261 0.428054
0.949785 0.373341 0.435063
0.663656 0.929187 0.593484
0.663656 0.929187 0.593484
0.663656 0.929187 0.593484
0.649199 0.919536 0.578305
0.614618 0.899033 0.543285
0.568901 0.869799 0.496770
0.518301 0.835681 0.445370
0.471023 0.802148 0.399387
0.419840 0.764707 0.349496
0.373540 0.731814 0.306218
0.334859 0.702073 0.269555
0.299109 0.675261 0.235820
0.320642 0.651180 0.191977
0.434061 0.636071 0.126492
0.588152 0.625481 0.000000
0.757071 0.624021 0.000953
0.893342 0.621299 0.000215
0.978573 0.633377 0.005731
0.978371 0.641392 0.000000
0.976822 0.623410 0.010254
0.983857 0.598705 0.144699
0.982891 0.577996 0.185341
0.982508 0.562291 0.215820
0.981150 0.546279 0.241864
0.979790 0.529932 0.269637
0.978823 0.512583 0.292972
0.976487 0.496604 0.312847
0.973174 0.479313 0.333477
0.971815 0.465318 0.349137
0.968109 0.450372 0.367282
0.965774 0.436074 0.378504
0.962068 0.422807 0.387997
0.959733 0.407501 0.404410
0.663656 0.929187 0.593484
0.663656 0.929187 0.593484
0.663656 0.929187 0.593484
0.663656 0.929187 0.593484
0.663656 0.929187 0.593484
0.663656 0.929187 0.593484
0.656428 0.924361 0.585895
0.622822 0.904835 0.551852
0.577105 0.875602 0.505336
0.537058 0.847565 0.463482
0.496615 0.820868 0.424332
0.459889 0.793415 0.387891
0.425508 0.766915 0.348966
0.455639 0.750323 0.295407
0.549707 0.738396 0.178625
0.697555 0.720018 0.005406
0.852994 0.708539 0.000000
0.980669 0.700008 0.000000
0.982229 0.704307 0.000000
0.983014 0.700623 0.000000
0.979913 0.668690 0.000281
0.982469 0.638533 0.063195
0.983847 0.618775 0.101350
0.984443 0.602365 0.141461
0.982106 0.583361 0.176910
0.982116 0.565980 0.206414
0.980756 0.548961 0.237648
0.980766 0.531580 0.267152
0.979406 0.516242 0.289735
0.976093 0.499286 0.308633
0.973759 0.482635 0.331969
0.971422 0.467999 0.344922
0.969086 0.452021 0.364798
0.663656 0.929187 0.593484
0.663656 0.929187 0.593484
0.663656 0.929187 0.593484
0.663656 0.929187 0.593484
0.663656 0.929187 0.593484
0.663656 0.929187 0.593484
0.663656 0.929187 0.593484
0.663656 0.929187 0.593484
0.663656 0.929187 0.593484
0.663656 0.929187 0.593484
0.637672 0.912814 0.566055
0.608365 0.895184 0.536673
0.574175 0.873008 0.500676
0.547808 0.849329 0.460465
0.580295 0.825381 0.387203
0.666944 0.810018 0.230485
0.796619 0.790472 0.000000
0.933878 0.777059 0.000000
0.985301 0.770905 0.000000
0.982382 0.755637 0.000125
0.982985 0.735288 0.000519
0.982813 0.707293 0.000000
0.979510 0.682367 0.000000
0.981674 0.663630 0.013149
0.980708 0.642921 0.053788
0.982086 0.622827 0.093676
0.984443 0.603709 0.134540
0.984059 0.586994 0.170210
0.982699 0.569303 0.204906
0.981733 0.550610 0.235164
0.980373 0.534936 0.259476
0.979989 0.520573 0.283035
0.979023 0.503224 0.306371
0.663656 0.929187 0.593484
0.663656 0.929187 0.593484
0.663656 0.929187 0.593484
0.663656 0.929187 0.593484
0.663656 0.929187 0.593484
0.663656 0.929187 0.593484
0.663656 0.929187 0.593484
0.663656 0.929187 0.593484
0.663656 0.929187 0.593484
0.663656 0.929187 0.593484
0.663656 0.929187 0.593484
0.663656 0.929187 0.593484
0.663656 0.929187 0.593484
0.659358 0.927291 0.588825
0.631631 0.896340 0.529664
0.682098 0.880326 0.454054
0.767962 0.868647 0.297559
0.879465 0.849614 0.000312
0.987789 0.834517 0.000000
0.983108 0.821956 0.000000
0.985281 0.794240 0.000000
0.982573 0.760632 0.000000
0.984928 0.749245 0.000655
0.982985 0.735288 0.000519
0.980659 0.711675 0.000000
0.978333 0.688061 0.000000
0.980889 0.668322 0.008178
0.980708 0.644265 0.046867
0.984039 0.626124 0.088706
0.983073 0.606423 0.124156
0.982689 0.588700 0.165020
0.982308 0.572321 0.198962
0.982316 0.554605 0.230195
0.663656 0.929187 0.593484
0.663656 0.929187 0.593484
0.663656 0.929187 0.593484
0.663656 0.929187 0.593484
0.663656 0.929187 0.593484
0.663656 0.929187 0.593484
0.663656 0.929187 0.593484
0.663656 0.929187 0.593484
0.663656 0.929187 0.593484
0.663656 0.929187 0.593484
0.663656 0.929187 0.593484
0.663656 0.929187 0.593484
0.663656 0.929187 0.593484
0.663656 0.929187 0.593484
0.663656 0.929187 0.593484
0.709987 0.935817 0.592028
0.768467 0.922962 0.513402
0.853152 0.917648 0.352914
0.952929 0.898900 0.042133
0.988334 0.884173 0.000000
0.987770 0.857851 0.000000
0.985263 0.817574 0.000000
0.985685 0.780563 0.000176
0.984325 0.769593 0.000263
0.982965 0.758959 0.000000
0.983558 0.750279 0.000000
0.982783 0.742295 0.000000
0.982219 0.715974 0.000000
0.982239 0.692639 0.000000
0.981866 0.670979 0.000504
0.982268 0.649909 0.039415
0.983648 0.629814 0.079301
0.984049 0.609079 0.116481
0.663656 0.929187 0.593484
0.663656 0.929187 0.593484
0.663656 0.929187 0.593484
0.663656 0.929187 0.593484
0.663656 0.929187 0.593484
0.663656 0.929187 0.593484
0.663656 0.929187 0.593484
0.663656 0.929187 0.593484
0.663656 0.929187 0.593484
0.663656 0.929187 0.593484
0.663656 0.929187 0.593484
0.663656 0.929187 0.593484
0.663656 0.929187 0.593484
0.663656 0.929187 0.593484
0.663656 0.929187 0.593484
0.666002 0.929802 0.592731
0.741850 0.941773 0.589149
0.847215 0.960766 0.574790
0.921150 0.954697 0.412125
0.992191 0.937005 0.051333
0.987922 0.909181 0.000208
0.987952 0.874515 0.000000
0.986421 0.835214 0.000000
0.985655 0.815565 0.000000
0.986058 0.802223 0.000000
0.984900 0.784246 0.000399
0.985301 0.770905 0.000000
0.982180 0.762643 0.000000
0.984535 0.751256 0.000000
0.983760 0.743272 0.000212
0.981434 0.719658 0.000000
0.982430 0.697300 0.000555
0.980105 0.673687 0.000000
0.663656 0.929187 0.593484
0.663656 0.929187 0.593484
0.663656 0.929187 0.593484
0.663656 0.929187 0.593484
0.663656 0.929187 0.593484
0.663656 0.929187 0.593484
0.663656 0.929187 0.593484
0.663656 0.929187 0.593484
0.663656 0.929187 0.593484
0.663656 0.929187 0.593484
0.663656 0.929187 0.593484
0.663656 0.929187 0.593484
0.663656 0.929187 0.593484
0.663656 0.929187 0.593484
0.663656 0.929187 0.593484
0.663656 0.929187 0.593484
0.683791 0.932404 0.592644
0.777428 0.947312 0.587247
0.878101 0.966753 0.565742
0.959246 0.976410 0.474524
0.997227 0.962298 0.216274
0.987712 0.927855 0.000000
0.987740 0.892517 0.000824
0.987962 0.862512 0.000552
0.988364 0.849171 0.000000
0.987789 0.834517 0.000000
0.986240 0.818551 0.000141
0.985665 0.803897 0.000005
0.985483 0.787569 0.000000
0.985301 0.770905 0.000000
0.985503 0.764234 0.000000
0.982382 0.755637 0.000125
0.983368 0.745281 0.000000
0.663656 0.929187 0.593484
0.663656 0.929187 0.593484
0.663656 0.929187 0.593484
0.663656 0.929187 0.593484
0.663656 0.929187 0.593484
0.663656 0.929187 0.593484
0.663656 0.929187 0.593484
0.663656 0.929187 0.593484
0.663656 0.929187 0.593484
0.663656 0.929187 0.593484
0.663656 0.929187 0.593484
0.663656 0.929187 0.593484
0.663656 0.929187 0.593484
0.663656 0.929187 0.593484
0.663656 0.929187 0.593484
0.663656 0.929187 0.593484
0.663656 0.929187 0.593484
0.708617 0.936515 0.592028
0.811637 0.953884 0.583613
0.907035 0.971461 0.551281
0.984654 0.985524 0.463746
0.997198 0.975455 0.328497
0.992766 0.943257 0.094731
0.988123 0.902510 0.000000
0.987740 0.892517 0.000824
0.988143 0.879175 0.000000
0.987176 0.866197 0.000773
0.988947 0.852157 0.000000
0.986421 0.835214 0.000000
0.983108 0.821956 0.000000
0.986248 0.806884 0.000226
0.986066 0.790556 0.000000
0.983146 0.775287 0.000000
0.663656 0.929187 0.593484
0.663656 0.929187 0.593484
0.663656 0.929187 0.593484
0.663656 0.929187 0.593484
0.663656 0.929187 0.593484
0.663656 0.929187 0.593484
0.663656 0.929187 0.593484
0.663656 0.929187 0.593484
0.663656 0.929187 0.593484
0.663656 0.929187 0.593484
0.663656 0.929187 0.593484
0.663656 0.929187 0.593484
0.663656 0.929187 0.593484
0.663656 0.929187 0.593484
0.663656 0.929187 0.593484
0.663656 0.929187 0.593484
0.663656 0.929187 0.593484
0.666002 0.929802 0.592731
0.735789 0.941241 0.590657
0.841155 0.960232 0.576296
0.932254 0.976586 0.535843
0.996976 0.986641 0.425675
0.997771 0.980700 0.377085
0.997821 0.958996 0.188894
0.989072 0.932776 0.029898
0.988305 0.919174 0.000000
0.987338 0.906194 0.000000
0.987740 0.892517 0.000824
0.988727 0.882163 0.000157
0.987760 0.869519 0.000000
0.988555 0.853831 0.000859
0.987981 0.839178 0.000723
0.985061 0.824244 0.000000
0.663656 0.929187 0.593484
0.663656 0.929187 0.593484
0.663656 0.929187 0.593484
0.663656 0.929187 0.593484
0.663656 0.929187 0.593484
0.663656 0.929187 0.593484
0.663656 0.929187 0.593484
0.663656 0.929187 0.593484
0.663656 0.929187 0.593484
0.663656 0.929187 0.593484
0.663656 0.929187 0.593484
0.663656 0.929187 0.593484
0.663656 0.929187 0.593484
0.663656 0.929187 0.593484
0.663656 0.929187 0.593484
0.663656 0.929187 0.593484
0.663656 0.929187 0.593484
0.663656 0.929187 0.593484
0.676754 0.930894 0.593175
0.764331 0.945605 0.587554
0.866372 0.963677 0.569511
0.955520 0.980094 0.516723
0.996976 0.986641 0.425675
0.997571 0.983672 0.396567
0.997600 0.970181 0.286074
0.997810 0.963605 0.225148
0.995686 0.949789 0.139106
0.992585 0.936340 0.045165
0.988888 0.922161 0.000000
0.987922 0.909181 0.000208
0.987349 0.894528 0.000070
0.988334 0.884173 0.000000
0.988737 0.870496 0.000243
0.663656 0.929187 0.593484
0.663656 0.929187 0.593484
0.663656 0.929187 0.593484
0.663656 0.929187 0.593484
0.663656 0.929187 0.593484
0.663656 0.929187 0.593484
0.663656 0.929187 0.593484
0.663656 0.929187 0.593484
0.663656 0.929187 0.593484
0.663656 0.929187 0.593484
0.663656 0.929187 0.593484
0.663656 0.929187 0.593484
0.663656 0.929187 0.593484
0.663656 0.929187 0.593484
0.663656 0.929187 0.593484
0.663656 0.929187 0.593484
0.663656 0.929187 0.593484
0.663656 0.929187 0.593484
0.663656 0.929187 0.593484
0.694543 0.933495 0.593089
0.791502 0.950331 0.586184
0.890224 0.968492 0.559267
0.973117 0.983748 0.486020
0.996976 0.986641 0.425675
0.996785 0.984670 0.410632
0.997580 0.978728 0.362044
0.996805 0.976122 0.334664
0.997600 0.970181 0.286074
0.998002 0.965913 0.238460
0.996271 0.951430 0.146251
0.992776 0.938311 0.060207
0.987127 0.924869 0.000000
0.988507 0.912504 0.000000
0.663656 0.929187 0.593484
0.663656 0.929187 0.593484
0.663656 0.929187 0.593484
0.663656 0.929187 0.593484
0.663656 0.929187 0.593484
0.663656 0.929187 0.593484
0.663656 0.929187 0.593484
0.663656 0.929187 0.593484
0.663656 0.929187 0.593484
0.663656 0.929187 0.593484
0.663656 0.929187 0.593484
0.663656 0.929187 0.593484
0.663656 0.929187 0.593484
0.663656 0.929187 0.593484
0.663656 0.929187 0.593484
0.663656 0.929187 0.593484
0.663656 0.929187 0.593484
0.663656 0.929187 0.593484
0.663656 0.929187 0.593484
0.663656 0.929187 0.593484
0.718001 0.938303 0.592473
0.818674 0.955729 0.581350
0.915442 0.972946 0.547289
0.986416 0.984833 0.454118
0.996976 0.986641 0.425675
