Sources/Resources/LUT/gfx-eterna-55-3d-lut-v100/33Grid/F-Log2C/FLog2C_to_FLog2C-709_33grid_V.1.00.cube
#title:FLog2C_to_FLog2C-709
#FUJIFILM Corporation
#Gamma:F-Log2C to F-Log2C
#Gamut:F-GamutC to ITU-R BT.709
#Version:1.00
LUT_3D_SIZE 9
0.000000 0.000000 0.000000
0.216848 0.000000 0.000000
0.392161 0.000000 0.000000
0.567467 0.000000 0.000000
0.742771 0.000000 0.000000
0.918073 0.000000 0.000000
1.000000 0.000000 0.000000
1.000000 0.000000 0.000000
1.000000 0.000000 0.000000
0.000000 0.158483 0.000000
0.132287 0.137806 0.000000
0.348368 0.096971 0.000000
0.538150 0.018570 0.000000
0.720977 0.000000 0.000000
0.900873 0.000000 0.000000
1.000000 0.000000 0.000000
1.000000 0.000000 0.000000
1.000000 0.000000 0.000000
0.000000 0.302749 0.000000
0.000000 0.291119 0.000000
0.259785 0.270567 0.000000
0.484773 0.235576 0.000000
0.682662 0.178220 0.000000
0.871119 0.069968 0.000000
1.000000 0.000000 0.000000
1.000000 0.000000 0.000000
1.000000 0.000000 0.000000
0.000000 0.446945 0.000000
0.000000 0.439019 0.000000
0.006215 0.425375 0.000000
0.387269 0.403296 0.000000
0.618036 0.370698 0.000000
0.822491 0.324023 0.000000
1.000000 0.255838 0.000000
1.000000 0.143238 0.000000
1.000000 0.000000 0.000000
0.000000 0.591117 0.000000
0.000000 0.585186 0.000000
0.000000 0.575079 0.000000
0.187060 0.559016 0.000000
0.514749 0.536013 0.000000
0.749583 0.504726 0.000000
0.959381 0.463121 0.000000
1.000000 0.407744 0.000000
1.000000 0.332606 0.000000
0.000000 0.735277 0.000000
0.000000 0.730582 0.000000
0.000000 0.722620 0.000000
0.000000 0.710074 0.000000
0.336608 0.692347 0.000000
0.642227 0.668724 0.000000
0.880086 0.638267 0.000000
1.000000 0.599653 0.000000
1.000000 0.551419 0.000000
0.000000 0.879432 0.000000
0.000000 0.875571 0.000000
0.000000 0.869044 0.000000
0.000000 0.858805 0.000000
0.000000 0.844443 0.000000
0.475117 0.825501 0.000000
0.769703 0.801433 0.000000
1.000000 0.771547 0.000000
1.000000 0.735308 0.000000
0.000000 1.000000 0.000000
0.000000 1.000000 0.000000
0.000000 1.000000 0.000000
0.000000 1.000000 0.000000
0.000000 0.994177 0.000000
0.090507 0.978411 0.000000
0.609334 0.958542 0.000000
0.897179 0.934141 0.000000
1.000000 0.904987 0.000000
0.000000 1.000000 0.000000
0.000000 1.000000 0.000000
0.000000 1.000000 0.000000
0.000000 1.000000 0.000000
0.000000 1.000000 0.000000
0.000000 1.000000 0.000000
0.330325 1.000000 0.000000
0.741384 1.000000 0.000000
1.000000 1.000000 0.000000
0.000000 0.000000 0.142340
0.213877 0.000000 0.141020
0.390435 0.000000 0.138784
0.566279 0.000000 0.135262
0.741878 0.000000 0.130289
0.917365 0.000000 0.123669
1.000000 0.000000 0.115146
1.000000 0.000000 0.104365
1.000000 0.000000 0.090944
0.000000 0.145986 0.128049
0.125008 0.125008 0.125008
0.346432 0.079074 0.124213
0.536895 0.000000 0.120403
0.720055 0.000000 0.115004
0.900150 0.000000 0.107781
1.000000 0.000000 0.098411
1.000000 0.000000 0.086428
1.000000 0.000000 0.071593
0.000000 0.295627 0.101179
0.000000 0.283731 0.099519
0.257246 0.262663 0.096691
0.483376 0.226621 0.092201
0.681684 0.166854 0.085780
0.870369 0.051225 0.077128
1.000000 0.000000 0.066354
1.000000 0.000000 0.053457
1.000000 0.000000 0.038528
0.000000 0.442075 0.051112
0.000000 0.434060 0.049235
0.000357 0.420256 0.046081
0.385521 0.397898 0.041186
0.616950 0.364833 0.034426
0.821692 0.317344 0.025702
1.000000 0.247521 0.014928
1.000000 0.129713 0.002031
1.000000 0.000000 0.000000
0.000000 0.587467 0.000000
0.000000 0.581497 0.000000
0.000000 0.571322 0.000000
0.183702 0.555146 0.000000
0.513435 0.531970 0.000000
0.748699 0.500424 0.000000
0.958706 0.458423 0.000000
1.000000 0.402404 0.000000
1.000000 0.326092 0.000000
0.000000 0.732386 0.000000
0.000000 0.727670 0.000000
0.000000 0.719674 0.000000
0.000000 0.707072 0.000000
0.334607 0.689262 0.000000
0.641184 0.665523 0.000000
0.879344 0.634902 0.000000
1.000000 0.596058 0.000000
1.000000 0.547493 0.000000
0.000000 0.877054 0.000000
0.000000 0.873181 0.000000
0.000000 0.866634 0.000000
0.000000 0.856364 0.000000
0.000000 0.841956 0.000000
0.473691 0.822951 0.000000
0.768844 0.798800 0.000000
1.000000 0.768803 0.000000
1.000000 0.732417 0.000000
0.000000 1.000000 0.000000
0.000000 1.000000 0.000000
0.000000 1.000000 0.000000
0.000000 1.000000 0.000000
0.000000 0.992101 0.000000
0.084896 0.976297 0.000000
0.608231 0.956380 0.000000
0.896452 0.931916 0.000000
1.000000 0.902683 0.000000
0.000000 1.000000 0.000000
0.000000 1.000000 0.000000
0.000000 1.000000 0.000000
0.000000 1.000000 0.000000
0.000000 1.000000 0.000000
0.000000 1.000000 0.000000
0.328289 1.000000 0.000000
0.740490 1.000000 0.000000
1.000000 1.000000 0.000000
0.000000 0.000000 0.276216
0.208806 0.000000 0.275448
0.387517 0.000000 0.274154
0.564278 0.000000 0.272134
0.740376 0.000000 0.269322
0.916174 0.000000 0.265653
1.000000 0.000000 0.261060
1.000000 0.000000 0.255465
1.000000 0.000000 0.248852
0.000000 0.123027 0.268071
0.120330 0.097712 0.267282
0.343156 0.047579 0.265952
0.534779 0.000000 0.263876
0.718504 0.000000 0.260985
0.898933 0.000000 0.257211
1.000000 0.000000 0.252482
1.000000 0.000000 0.246717
1.000000 0.000000 0.239894
0.000000 0.283293 0.253859
0.000000 0.270910 0.253031
0.250015 0.250015 0.250015
0.481020 0.210857 0.249454
0.680039 0.146291 0.246415
0.869106 0.019731 0.242443
1.000000 0.000000 0.237460
1.000000 0.000000 0.231373
1.000000 0.000000 0.224151
0.000000 0.433768 0.230252
0.000000 0.425598 0.229350
0.000000 0.411514 0.227829
0.382567 0.388662 0.225452
0.615120 0.354768 0.222133
0.820348 0.305817 0.217786
1.000000 0.232969 0.212316
1.000000 0.104478 0.205609
1.000000 0.000000 0.197613
0.000000 0.581280 0.193724
0.000000 0.575243 0.192683
0.000000 0.564951 0.190924
0.177949 0.548580 0.188168
0.511220 0.525104 0.184308
0.747212 0.493109 0.179229
0.957572 0.450418 0.172796
1.000000 0.393272 0.164842
1.000000 0.314862 0.155254
0.000000 0.727499 0.136099
0.000000 0.722749 0.134736
0.000000 0.714694 0.132426
0.000000 0.701996 0.128783
0.331221 0.684045 0.123632
0.639427 0.660105 0.116761
0.878096 0.629204 0.107889
1.000000 0.589965 0.096616
1.000000 0.540831 0.082487
0.000000 0.873041 0.033052
0.000000 0.869149 0.031174
0.000000 0.862569 0.028020
0.000000 0.852245 0.023125
0.000000 0.837759 0.016366
0.471285 0.818648 0.007641
0.767399 0.794354 0.000000
1.000000 0.764167 0.000000
1.000000 0.727531 0.000000
0.000000 1.000000 0.000000
0.000000 1.000000 0.000000
0.000000 1.000000 0.000000
0.000000 1.000000 0.000000
0.000000 0.988602 0.000000
0.075100 0.972734 0.000000
0.606374 0.952734 0.000000
0.895230 0.928164 0.000000
1.000000 0.898796 0.000000
0.000000 1.000000 0.000000
0.000000 1.000000 0.000000
0.000000 1.000000 0.000000
0.000000 1.000000 0.000000
0.000000 1.000000 0.000000
0.000000 1.000000 0.000000
0.324841 1.000000 0.000000
0.738984 1.000000 0.000000
1.000000 1.000000 0.000000
0.000000 0.000000 0.410090
0.200729 0.000000 0.409561
0.382947 0.000000 0.408672
0.561157 0.000000 0.407287
0.738038 0.000000 0.405367
0.914322 0.000000 0.402876
1.000000 0.000000 0.399778
1.000000 0.000000 0.396039
1.000000 0.000000 0.391668
0.000000 0.080168 0.404516
0.107880 0.049771 0.403980
0.338013 0.000000 0.403078
0.531479 0.000000 0.401674
0.716089 0.000000 0.399728
0.897042 0.000000 0.397202
1.000000 0.000000 0.394061
1.000000 0.000000 0.390268
1.000000 0.000000 0.385833
0.000000 0.263131 0.394973
0.000000 0.249865 0.394424
0.246100 0.226078 0.393501
0.477340 0.184247 0.392064
0.677477 0.109391 0.390071
0.867144 0.000000 0.387483
1.000000 0.000000 0.384265
1.000000 0.000000 0.380377
1.000000 0.000000 0.375829
0.000000 0.420557 0.379667
0.000000 0.412128 0.379096
0.000000 0.397574 0.378137
0.375023 0.375023 0.375023
0.612270 0.338586 0.374570
0.818256 0.287091 0.371878
1.000000 0.208705 0.368528
1.000000 0.057456 0.364478
1.000000 0.000000 0.359737
0.000000 0.571542 0.357464
0.000000 0.565397 0.356860
0.000000 0.554915 0.355843
0.168720 0.538227 0.354258
0.507762 0.514265 0.352059
0.744897 0.481534 0.349201
0.955808 0.437707 0.345641
1.000000 0.378677 0.341333
1.000000 0.296662 0.336281
0.000000 0.719847 0.326672
0.000000 0.715042 0.326013
0.000000 0.706893 0.324905
0.000000 0.694041 0.323178
0.325901 0.675864 0.320778
0.636692 0.651604 0.317656
0.876155 0.620255 0.313760
1.000000 0.580379 0.309037
1.000000 0.530322 0.303485
0.000000 0.866775 0.284392
0.000000 0.862852 0.283644
0.000000 0.856218 0.282383
0.000000 0.845810 0.280417
0.000000 0.831201 0.277680
0.467528 0.811921 0.274112
0.765150 0.787402 0.269647
1.000000 0.756914 0.264214
1.000000 0.719878 0.257798
0.000000 1.000000 0.224722
0.000000 1.000000 0.223801
0.000000 1.000000 0.222248
0.000000 0.995320 0.219819
0.000000 0.983144 0.216428
0.059827 0.967177 0.211984
0.603481 0.947047 0.206386
0.893331 0.922309 0.199516
1.000000 0.892728 0.191314
0.000000 1.000000 0.130626
0.000000 1.000000 0.129223
0.000000 1.000000 0.126844
0.000000 1.000000 0.123088
0.000000 1.000000 0.117772
0.000000 1.000000 0.110665
0.319421 1.000000 0.101461
0.736642 1.000000 0.089715
1.000000 1.000000 0.075033
0.000000 0.000000 0.543963
0.189120 0.000000 0.543566
0.376548 0.000000 0.542897
0.556818 0.000000 0.541858
0.734797 0.000000 0.540420
0.911758 0.000000 0.538558
1.000000 0.000000 0.536249
1.000000 0.000000 0.533472
1.000000 0.000000 0.530239
0.000000 0.012691 0.539783
0.089013 0.000000 0.539383
0.330787 0.000000 0.538709
0.526888 0.000000 0.537662
0.712740 0.000000 0.536212
0.894423 0.000000 0.534335
1.000000 0.000000 0.532007
1.000000 0.000000 0.529207
1.000000 0.000000 0.525946
0.000000 0.232799 0.532682
0.000000 0.217963 0.532276
0.236390 0.190930 0.531593
0.472211 0.141489 0.530531
0.673923 0.044629 0.529061
0.864425 0.000000 0.527157
1.000000 0.000000 0.524797
1.000000 0.000000 0.521957
1.000000 0.000000 0.518650
0.000000 0.401610 0.521439
0.000000 0.392782 0.521024
0.000000 0.377501 0.520326
0.371457 0.352523 0.519240
0.608311 0.314962 0.517737
0.815360 0.259248 0.515791
1.000000 0.170747 0.513377
1.000000 0.000000 0.510472
1.000000 0.000000 0.507088
0.000000 0.557805 0.505473
0.000000 0.551501 0.505044
0.000000 0.540739 0.504323
0.155299 0.523585 0.503203
0.500031 0.500031 0.500031
0.741688 0.465072 0.499640
0.953367 0.419526 0.497146
1.000000 0.357582 0.494143
1.000000 0.269707 0.490644
0.000000 0.709134 0.484056
0.000000 0.704251 0.483608
0.000000 0.695966 0.482854
0.000000 0.682894 0.481683
0.318418 0.664392 0.480060
0.632894 0.639669 0.477957
0.873468 0.607669 0.475347
1.000000 0.566865 0.472204
1.000000 0.515449 0.468539
0.000000 0.858040 0.456189
0.000000 0.854074 0.455713
0.000000 0.847364 0.454913
0.000000 0.836835 0.453669
0.000000 0.822052 0.451945
0.462289 0.802532 0.449709
0.762033 0.777691 0.446934
1.000000 0.746773 0.443588
1.000000 0.709166 0.439684
0.000000 1.000000 0.420388
0.000000 1.000000 0.419872
0.000000 0.996619 0.419004
0.000000 0.987832 0.417653
0.000000 0.975552 0.415780
0.038737 0.959445 0.413351
0.599461 0.939131 0.410331
0.890700 0.914156 0.406687
1.000000 0.884275 0.402429
0.000000 1.000000 0.374239
0.000000 1.000000 0.373661
0.000000 1.000000 0.372687
0.000000 1.000000 0.371172
0.000000 1.000000 0.369070
0.000000 1.000000 0.366339
0.311794 1.000000 0.362940
0.733394 1.000000 0.358830
1.000000 1.000000 0.354015
0.000000 0.000000 0.677836
0.173235 0.000000 0.677520
0.368132 0.000000 0.676990
0.551166 0.000000 0.676166
0.730591 0.000000 0.675027
0.908437 0.000000 0.673553
1.000000 0.000000 0.671729
1.000000 0.000000 0.669538
1.000000 0.000000 0.666992
0.000000 0.000000 0.674523
0.062004 0.000000 0.674206
0.321237 0.000000 0.673673
0.520901 0.000000 0.672845
0.708394 0.000000 0.671699
0.891031 0.000000 0.670218
1.000000 0.000000 0.668384
1.000000 0.000000 0.666181
1.000000 0.000000 0.663622
0.000000 0.187760 0.668915
0.000000 0.169833 0.668595
0.223327 0.135899 0.668058
0.465507 0.066982 0.667222
0.669307 0.000000 0.666066
0.860903 0.000000 0.664572
1.000000 0.000000 0.662721
1.000000 0.000000 0.660498
1.000000 0.000000 0.657915
0.000000 0.375781 0.660093
0.000000 0.366350 0.659769
0.000000 0.349960 0.659223
0.362927 0.322967 0.658376
0.603162 0.281793 0.657204
0.811604 0.218841 0.655687
1.000000 0.109049 0.653810
1.000000 0.000000 0.651555
1.000000 0.000000 0.648934
0.000000 0.539540 0.647686
0.000000 0.533012 0.647355
0.000000 0.521858 0.646799
0.136582 0.504043 0.645934
0.496666 0.478331 0.644738
0.737525 0.442918 0.643190
0.950207 0.394845 0.641274
1.000000 0.328456 0.638972
1.000000 0.230882 0.636296
0.000000 0.695047 0.631279
0.000000 0.690057 0.630939
0.000000 0.681587 0.630367
0.000000 0.668215 0.629478
0.308512 0.649267 0.628249
0.625038 0.625038 0.625038
0.869986 0.591009 0.624688
1.000000 0.548913 0.622321
1.000000 0.495579 0.619570
0.000000 0.846622 0.610363
0.000000 0.842596 0.610011
0.000000 0.835786 0.609418
0.000000 0.825095 0.608497
0.000000 0.810078 0.607223
0.455439 0.790236 0.605575
0.757990 0.764960 0.603532
1.000000 0.733461 0.601078
1.000000 0.695080 0.598223
0.000000 0.995998 0.584281
0.000000 0.992636 0.583912
0.000000 0.986958 0.583291
0.000000 0.978074 0.582327
0.000000 0.965657 0.580993
0.011520 0.949363 0.579266
0.594232 0.928805 0.577126
0.887292 0.903515 0.574553
1.000000 0.873232 0.571560
0.000000 1.000000 0.552128
0.000000 1.000000 0.551737
0.000000 1.000000 0.551078
0.000000 1.000000 0.550055
0.000000 1.000000 0.548639
0.000000 1.000000 0.546806
0.301687 1.000000 0.544534
0.729180 1.000000 0.541800
1.000000 1.000000 0.538618
0.000000 0.000000 0.811708
0.151903 0.000000 0.811448
0.357476 0.000000 0.811012
0.544103 0.000000 0.810334
0.725362 0.000000 0.809397
0.904318 0.000000 0.808185
1.000000 0.000000 0.806687
1.000000 0.000000 0.804889
1.000000 0.000000 0.802802
0.000000 0.000000 0.808982
0.028395 0.000000 0.808722
0.309065 0.000000 0.808283
0.513408 0.000000 0.807603
0.702987 0.000000 0.806662
0.886823 0.000000 0.805446
1.000000 0.000000 0.803942
1.000000 0.000000 0.802137
1.000000 0.000000 0.800043
0.000000 0.116003 0.804378
0.000000 0.089519 0.804116
0.206246 0.038694 0.803675
0.457093 0.000000 0.802990
0.663559 0.000000 0.802044
0.856532 0.000000 0.800820
1.000000 0.000000 0.799307
1.000000 0.000000 0.797490
1.000000 0.000000 0.795383
0.000000 0.341300 0.797160
0.000000 0.330936 0.796895
0.000000 0.312804 0.796450
0.352121 0.282555 0.795758
0.596740 0.235192 0.794802
0.806941 0.158039 0.793567
1.000000 0.004164 0.792038
1.000000 0.000000 0.790204
1.000000 0.000000 0.788075
0.000000 0.516065 0.787062
0.000000 0.509228 0.786793
0.000000 0.497527 0.786342
0.110609 0.478789 0.785641
0.488794 0.451623 0.784671
0.732349 0.413932 0.783418
0.946288 0.362114 0.781868
1.000000 0.288750 0.780008
1.000000 0.173440 0.777848
0.000000 0.677218 0.773807
0.000000 0.672087 0.773534
0.000000 0.663373 0.773074
0.000000 0.649601 0.772360
0.295858 0.630059 0.771373
0.621804 0.603849 0.770096
0.865665 0.569734 0.768517
1.000000 0.525869 0.766621
1.000000 0.469863 0.764421
0.000000 0.832284 0.757084
0.000000 0.828183 0.756804
0.000000 0.821242 0.756333
0.000000 0.810341 0.755602
0.000000 0.795020 0.754591
0.446834 0.774759 0.753284
0.750046 0.750046 0.750046
0.997545 0.716656 0.749724
1.000000 0.677252 0.747470
0.000000 0.984045 0.736517
0.000000 0.980636 0.736229
0.000000 0.974881 0.735744
0.000000 0.965874 0.734990
0.000000 0.953280 0.733948
0.000000 0.936748 0.732601
0.587707 0.915877 0.730934
0.883064 0.890181 0.728933
1.000000 0.859380 0.726610
0.000000 1.000000 0.711639
0.000000 1.000000 0.711339
0.000000 1.000000 0.710836
0.000000 1.000000 0.710054
0.000000 1.000000 0.708973
0.000000 1.000000 0.707575
0.288759 1.000000 0.705844
0.723939 1.000000 0.703766
1.000000 1.000000 0.701353
0.000000 0.000000 0.945580
0.123024 0.000000 0.945361
0.344307 0.000000 0.944992
0.535522 0.000000 0.944418
0.719048 0.000000 0.943626
0.899360 0.000000 0.942603
1.000000 0.000000 0.941337
1.000000 0.000000 0.939820
1.000000 0.000000 0.938060
0.000000 0.000000 0.943276
0.000000 0.000000 0.943056
0.293885 0.000000 0.942686
0.504290 0.000000 0.942111
0.696455 0.000000 0.941317
0.881756 0.000000 0.940291
1.000000 0.000000 0.939022
1.000000 0.000000 0.937500
1.000000 0.000000 0.935735
0.000000 0.000000 0.939389
0.000000 0.000000 0.939168
0.184124 0.000000 0.938796
0.446811 0.000000 0.938219
0.656608 0.000000 0.937421
0.851268 0.000000 0.936390
1.000000 0.000000 0.935115
1.000000 0.000000 0.933587
1.000000 0.000000 0.931814
0.000000 0.295104 0.933308
0.000000 0.283188 0.933086
0.000000 0.262082 0.932711
0.338754 0.225960 0.932130
0.588955 0.166006 0.931326
0.801319 0.049866 0.930288
0.999427 0.000000 0.929004
1.000000 0.000000 0.927464
1.000000 0.000000 0.925678
0.000000 0.486439 0.924829
0.000000 0.479171 0.924604
0.000000 0.466704 0.924226
0.073334 0.446663 0.923638
0.479199 0.417410 0.922826
0.726100 0.376361 0.921777
0.941573 0.318755 0.920480
1.000000 0.233465 0.918925
1.000000 0.074489 0.917121
0.000000 0.655196 0.913748
0.000000 0.649880 0.913520
0.000000 0.640844 0.913137
0.000000 0.626548 0.912542
0.280027 0.606220 0.911719
0.614352 0.578876 0.910656
0.860462 0.543125 0.909341
1.000000 0.496841 0.907765
1.000000 0.437077 0.905936
0.000000 0.814759 0.899850
0.000000 0.810561 0.899618
0.000000 0.803454 0.899228
0.000000 0.792287 0.898623
0.000000 0.776578 0.897786
0.436311 0.755780 0.896705
0.746903 0.729210 0.895367
0.993099 0.695967 0.893764
1.000000 0.655231 0.891903
0.000000 0.969520 0.882890
0.000000 0.966055 0.882653
0.000000 0.960203 0.882255
0.000000 0.951041 0.881636
0.000000 0.938227 0.880782
0.000000 0.921396 0.879677
0.579795 0.900131 0.878312
0.875053 0.875053 0.875053
1.000000 0.842471 0.874773
0.000000 1.000000 0.862579
0.000000 1.000000 0.862336
0.000000 1.000000 0.861927
0.000000 1.000000 0.861293
0.000000 1.000000 0.860416
0.000000 1.000000 0.859283
0.272557 1.000000 0.857882
0.717612 1.000000 0.856201
1.000000 1.000000 0.854250
0.000000 0.000000 1.000000
0.082533 0.000000 1.000000
0.328467 0.000000 1.000000
0.525425 0.000000 1.000000
0.711676 0.000000 1.000000
0.893592 0.000000 1.000000
1.000000 0.000000 1.000000
1.000000 0.000000 1.000000
1.000000 0.000000 1.000000
0.000000 0.000000 1.000000
0.000000 0.000000 1.000000
0.275399 0.000000 1.000000
0.493538 0.000000 1.000000
0.688824 0.000000 1.000000
0.875861 0.000000 1.000000
1.000000 0.000000 1.000000
1.000000 0.000000 1.000000
1.000000 0.000000 1.000000
0.000000 0.000000 1.000000
0.000000 0.000000 1.000000
0.155590 0.000000 1.000000
0.434627 0.000000 1.000000
0.648477 0.000000 1.000000
0.845139 0.000000 1.000000
1.000000 0.000000 1.000000
1.000000 0.000000 1.000000
1.000000 0.000000 1.000000
0.000000 0.231716 1.000000
0.000000 0.216819 1.000000
0.000000 0.189653 1.000000
0.322658 0.139883 1.000000
0.579822 0.042355 1.000000
0.794769 0.000000 1.000000
0.994298 0.000000 1.000000
1.000000 0.000000 1.000000
1.000000 0.000000 1.000000
0.000000 0.449742 1.000000
0.000000 0.441866 1.000000
0.000000 0.428312 1.000000
0.026842 0.406391 1.000000
0.467862 0.374056 1.000000
0.718806 0.327833 1.000000
0.936091 0.260549 1.000000
1.000000 0.150668 1.000000
1.000000 0.000000 1.000000
0.000000 0.628726 1.000000
0.000000 0.623170 1.000000
0.000000 0.613719 1.000000
0.000000 0.598739 1.000000
0.260663 0.577384 1.000000
0.605621 0.548538 1.000000
0.854405 0.510592 1.000000
1.000000 0.460981 1.000000
1.000000 0.395843 1.000000
0.000000 0.793981 1.000000
0.000000 0.789662 1.000000
0.000000 0.782349 1.000000
0.000000 0.770849 1.000000
0.000000 0.754657 1.000000
0.423826 0.733186 1.000000
0.739830 0.705699 1.000000
0.987934 0.671206 1.000000
1.000000 0.628762 1.000000
0.000000 0.952429 1.000000
0.000000 0.948894 1.000000
0.000000 0.942924 1.000000
0.000000 0.933575 1.000000
0.000000 0.920491 1.000000
0.000000 0.903295 1.000000
0.570509 0.881549 1.000000
0.872051 0.854715 1.000000
1.000000 0.822456 1.000000
0.000000 1.000000 1.000000
0.000000 1.000000 1.000000
0.000000 1.000000 1.000000
0.000000 1.000000 1.000000
0.000000 1.000000 1.000000
0.000000 1.000000 1.000000
0.252687 1.000000 1.000000
0.710224 1.000000 1.000000
1.000000 1.000000 1.000000
