Sources/Resources/LUT/gfx-eterna-55-3d-lut-v100/33Grid/F-Log2C/FLog2C_to_PROVIA_33grid_V.1.00.cube
#title:FLog2C_to_PROVIA
#model:GFX ETERNA 55
#FUJIFILM Corporation
#Gamma:F-Log2C to PROVIA
#Gamut:F-GamutC to ITU-R BT.709
#Version:1.00
LUT_3D_SIZE 9
0.000000 0.000000 0.000000
0.118080 0.005664 0.012351
0.612498 0.017792 0.083722
1.000000 0.103528 0.441304
1.000000 0.257130 0.480656
1.000000 0.257130 0.480656
1.000000 0.257130 0.480656
1.000000 0.257130 0.480656
1.000000 0.257130 0.480656
0.000000 0.043683 0.000000
0.024626 0.010781 0.000000
0.353072 0.010684 0.038340
0.980984 0.040258 0.252258
1.000000 0.257130 0.480656
1.000000 0.257130 0.480656
1.000000 0.257130 0.480656
1.000000 0.257130 0.480656
1.000000 0.257130 0.480656
0.000360 0.270997 0.000000
0.002007 0.170291 0.000218
0.153963 0.116214 0.000047
0.734235 0.103123 0.044621
0.999211 0.186574 0.427612
1.000000 0.257130 0.480656
1.000000 0.257130 0.480656
1.000000 0.257130 0.480656
1.000000 0.257130 0.480656
0.000000 0.739023 0.000000
0.000000 0.582353 0.000894
0.000605 0.443658 0.001172
0.469299 0.371475 0.000192
0.999889 0.383485 0.054394
1.000000 0.391322 0.364387
1.000000 0.334907 0.414914
0.998730 0.287876 0.455503
1.000000 0.257130 0.480656
0.000000 1.000000 0.000285
0.000000 1.000000 0.000285
0.000000 0.911685 0.000441
0.000000 0.804030 0.000000
0.846159 0.700360 0.000000
0.999876 0.643575 0.000145
0.998554 0.550313 0.184004
0.999973 0.472795 0.279609
0.999237 0.404029 0.352941
0.000000 1.000000 0.000285
0.000000 1.000000 0.000285
0.000000 1.000000 0.000285
0.000000 1.000000 0.000285
0.028879 1.000000 0.000421
0.999479 0.883590 0.000000
1.000000 0.781572 0.000000
0.998821 0.735937 0.000000
0.998889 0.649225 0.025038
0.000000 1.000000 0.000285
0.000000 1.000000 0.000285
0.000000 1.000000 0.000285
0.000000 1.000000 0.000285
0.000000 1.000000 0.000285
0.566917 0.998963 0.000000
0.999229 0.948261 0.000617
0.999660 0.899917 0.000000
0.999117 0.850263 0.000106
0.000000 1.000000 0.000285
0.000000 1.000000 0.000285
0.000000 1.000000 0.000285
0.000000 1.000000 0.000285
0.000000 1.000000 0.000285
0.000000 1.000000 0.000285
0.850405 0.999268 0.000000
0.980817 0.986317 0.015710
0.984924 0.984224 0.015710
0.000000 1.000000 0.000285
0.000000 1.000000 0.000285
0.000000 1.000000 0.000285
0.000000 1.000000 0.000285
0.000000 1.000000 0.000285
0.000000 1.000000 0.000285
0.345407 1.000000 0.000000
0.980817 0.986317 0.015710
0.980817 0.986317 0.015710
0.000583 0.000970 0.010606
0.096184 0.005828 0.008976
0.562061 0.015271 0.074797
0.999097 0.089921 0.420180
1.000000 0.257130 0.480656
1.000000 0.257130 0.480656
1.000000 0.257130 0.480656
1.000000 0.257130 0.480656
1.000000 0.257130 0.480656
0.000000 0.044601 0.045095
0.015625 0.015625 0.015625
0.320424 0.009084 0.037981
0.935439 0.037002 0.217153
1.000000 0.257130 0.480656
1.000000 0.257130 0.480656
1.000000 0.257130 0.480656
1.000000 0.257130 0.480656
1.000000 0.257130 0.480656
0.000000 0.300025 0.000000
0.002191 0.186955 0.000000
0.126580 0.130162 0.000047
0.685549 0.112588 0.020790
0.999804 0.181254 0.410616
1.000000 0.257130 0.480656
1.000000 0.257130 0.480656
1.000000 0.257130 0.480656
1.000000 0.257130 0.480656
0.000323 0.781671 0.000410
0.000000 0.622350 0.000105
0.000585 0.466993 0.001000
0.416497 0.389994 0.000500
0.999105 0.397924 0.000000
0.999237 0.404701 0.349480
0.999669 0.345940 0.402493
0.999899 0.295530 0.447297
1.000000 0.257130 0.480656
0.000000 1.000000 0.000285
0.000000 1.000000 0.000285
0.000196 0.933010 0.001023
0.000091 0.823344 0.000597
0.798832 0.716088 0.000000
0.998488 0.667607 0.000000
0.999522 0.567663 0.160669
0.999571 0.490170 0.259734
0.999227 0.418721 0.337281
0.000000 1.000000 0.000285
0.000000 1.000000 0.000285
0.000000 1.000000 0.000285
0.000000 1.000000 0.000285
0.000000 1.000000 0.000285
0.999076 0.896931 0.000000
0.998771 0.793936 0.000000
0.999203 0.745594 0.000000
0.999071 0.670594 0.000196
0.000000 1.000000 0.000285
0.000000 1.000000 0.000285
0.000000 1.000000 0.000285
0.000000 1.000000 0.000285
0.000000 1.000000 0.000285
0.415203 0.999701 0.000000
0.999410 0.963580 0.006921
0.999650 0.911585 0.000000
0.999107 0.861930 0.000019
0.000000 1.000000 0.000285
0.000000 1.000000 0.000285
0.000000 1.000000 0.000285
0.000000 1.000000 0.000285
0.000000 1.000000 0.000285
0.000000 1.000000 0.000285
0.780609 0.999835 0.000070
0.980817 0.986317 0.015710
0.982185 0.985620 0.015710
0.000000 0.999727 0.200984
0.000000 1.000000 0.000285
0.000000 1.000000 0.000285
0.000000 1.000000 0.000285
0.000000 1.000000 0.000285
0.000000 1.000000 0.000285
0.206206 0.999724 0.000000
0.980817 0.986317 0.015710
0.980817 0.986317 0.015710
0.008388 0.000000 0.123891
0.092268 0.000146 0.074203
0.521005 0.010842 0.085352
0.999117 0.074316 0.380550
1.000000 0.257130 0.480656
1.000000 0.257130 0.480656
1.000000 0.257130 0.480656
1.000000 0.257130 0.480656
1.000000 0.257130 0.480656
0.004432 0.032198 0.233766
0.018938 0.005023 0.138625
0.309077 0.000000 0.125480
0.896931 0.024501 0.236890
1.000000 0.252133 0.481187
1.000000 0.257130 0.480656
1.000000 0.257130 0.480656
1.000000 0.257130 0.480656
1.000000 0.257130 0.480656
0.000000 0.320157 0.331144
0.000000 0.206364 0.197199
0.129883 0.129883 0.129883
0.667348 0.107772 0.161847
1.000000 0.167825 0.460577
1.000000 0.257130 0.480656
1.000000 0.257130 0.480656
1.000000 0.257130 0.480656
1.000000 0.257130 0.480656
0.000072 0.790554 0.289413
0.000209 0.654099 0.152179
0.000000 0.505621 0.045649
0.403380 0.406917 0.024863
0.998884 0.390624 0.191599
0.999016 0.422607 0.412051
1.000000 0.360264 0.394731
0.999888 0.309213 0.436828
0.998941 0.266178 0.472449
0.000000 1.000000 0.000285
0.000000 1.000000 0.000285
0.000000 0.960364 0.000000
0.000000 0.852372 0.000000
0.764201 0.746864 0.000761
0.999626 0.674303 0.176668
0.998516 0.582867 0.256341
0.999753 0.506834 0.259118
1.000000 0.434725 0.320866
0.000000 1.000000 0.000285
0.000000 1.000000 0.000285
0.000000 1.000000 0.000285
0.000000 1.000000 0.000285
0.000000 1.000000 0.000285
0.999460 0.906589 0.000430
0.999518 0.836921 0.000000
0.998600 0.765942 0.000000
0.999646 0.685247 0.000332
0.000000 1.000000 0.000285
0.000000 1.000000 0.000285
0.000000 1.000000 0.000285
0.000000 1.000000 0.000285
0.000000 1.000000 0.000285
0.234163 1.000000 0.001380
0.994318 0.975019 0.012782
0.999057 0.920265 0.000000
0.999489 0.871587 0.000688
0.000060 0.999226 0.499926
0.000000 1.000000 0.103719
0.000000 1.000000 0.000285
0.000000 1.000000 0.000285
0.000000 1.000000 0.000285
0.000000 1.000000 0.000285
0.718241 0.999899 0.000552
0.980817 0.986317 0.015710
0.980817 0.986317 0.015710
0.000000 1.000000 0.805035
0.000000 0.999796 0.566573
0.000000 1.000000 0.205422
0.000000 1.000000 0.000285
0.000000 1.000000 0.000285
0.000000 1.000000 0.000285
0.046084 0.999649 0.000114
0.980817 0.986317 0.015710
0.980817 0.986317 0.015710
0.031613 0.000388 0.360535
0.101037 0.000000 0.250675
0.517664 0.000322 0.251082
0.999519 0.044172 0.466184
0.999335 0.258119 0.504352
1.000000 0.257130 0.480656
1.000000 0.257130 0.480656
1.000000 0.257130 0.480656
1.000000 0.257130 0.480656
0.055433 0.000000 0.559418
0.042557 0.000091 0.393328
0.332113 0.000016 0.336699
0.880693 0.000000 0.431903
1.000000 0.244980 0.578009
0.999525 0.260762 0.515934
1.000000 0.257130 0.480656
1.000000 0.257130 0.480656
1.000000 0.257130 0.480656
0.001361 0.326769 0.763829
0.000713 0.204752 0.571441
0.156038 0.121153 0.431754
0.675342 0.082174 0.426883
0.999613 0.131561 0.641300
0.999687 0.287319 0.584363
0.999717 0.263071 0.529246
1.000000 0.257130 0.480656
1.000000 0.257130 0.480656
0.000000 0.783071 0.807867
0.000312 0.663951 0.666554
0.000258 0.525861 0.512547
0.414063 0.414063 0.414063
0.991031 0.374030 0.468968
1.000000 0.446645 0.575039
0.999810 0.383732 0.533047
0.999669 0.327120 0.499398
0.999133 0.272183 0.466726
0.000030 1.000000 0.674445
0.000050 0.994426 0.584634
0.000000 0.941308 0.457402
0.000000 0.848840 0.324038
0.731515 0.738833 0.273473
0.999385 0.673535 0.455374
0.999453 0.589847 0.466360
0.999712 0.519559 0.433551
0.999580 0.449937 0.406910
0.000000 0.999797 0.351809
0.000000 0.999410 0.173827
0.000000 0.999309 0.029173
0.000000 1.000000 0.000285
0.000000 1.000000 0.000285
0.964417 0.959348 0.017699
0.999287 0.825494 0.272816
0.998953 0.761870 0.250083
0.998820 0.688887 0.240747
0.000000 0.999562 0.712962
0.000000 0.999353 0.433277
0.000000 1.000000 0.000285
0.000000 1.000000 0.000285
0.000000 1.000000 0.000285
0.033964 0.999255 0.000000
0.994509 0.979342 0.015710
0.998654 0.933607 0.000481
0.999469 0.894922 0.000515
0.000573 0.998521 0.939086
0.000210 0.999809 0.762082
0.000000 1.000000 0.502633
0.000000 1.000000 0.109887
0.000000 1.000000 0.000285
0.000000 1.000000 0.000285
0.653528 0.999686 0.000056
0.982185 0.985620 0.015710
0.982185 0.985620 0.015710
0.002135 0.990721 1.000000
0.000182 0.994818 0.967750
0.000000 1.000000 0.805035
0.000000 0.999460 0.568304
0.000000 0.999360 0.208882
0.000000 1.000000 0.000285
0.000000 1.000000 0.000285
0.984532 0.985899 0.016687
0.980817 0.986317 0.015710
0.087468 0.000000 0.732345
0.141067 0.000000 0.555390
0.545189 0.000000 0.509691
0.999329 0.000000 0.670910
0.999888 0.272918 0.623718
1.000000 0.270667 0.565723
0.999335 0.258119 0.504352
1.000000 0.257130 0.480656
1.000000 0.257130 0.480656
0.170333 0.000067 0.914949
0.104080 0.000450 0.769798
0.387192 0.000267 0.662094
0.885537 0.000000 0.702933
1.000000 0.175414 0.721449
0.999888 0.270229 0.637562
1.000000 0.274313 0.581742
0.999525 0.260762 0.515934
1.000000 0.257130 0.480656
0.108315 0.266328 1.000000
0.083186 0.160231 0.995559
0.243987 0.076531 0.842027
0.708172 0.032552 0.776181
1.000000 0.065177 0.869141
0.999878 0.267781 0.710155
0.999305 0.264890 0.649452
1.000000 0.276957 0.593325
0.999717 0.263071 0.529246
0.000000 0.740771 1.000000
0.001249 0.646736 1.000000
0.000390 0.518187 0.937196
0.457605 0.400101 0.825758
0.982404 0.340712 0.791641
1.000000 0.454083 0.726309
0.998986 0.405854 0.678286
0.999619 0.359242 0.633945
1.000000 0.303278 0.593376
0.000018 0.948770 0.999687
0.000039 0.931822 0.966981
0.000000 0.903249 0.908933
0.000000 0.837711 0.826473
0.724609 0.724609 0.724609
0.998761 0.664454 0.726491
0.999213 0.602859 0.674117
0.999472 0.535595 0.625734
1.000000 0.471319 0.577574
0.000583 0.999960 0.871683
0.000210 0.999809 0.762082
0.000000 1.000000 0.707770
0.000814 0.999961 0.656917
0.000000 1.000000 0.590269
0.917635 0.922567 0.543949
0.999249 0.809654 0.594341
0.999890 0.752383 0.544894
0.999365 0.688132 0.500196
0.002135 0.990721 1.000000
0.000382 1.000000 0.905009
0.000000 0.999226 0.714691
0.000000 0.999353 0.433277
0.000000 0.999727 0.200984
0.000000 0.999360 0.208882
0.988591 1.000000 0.232567
1.000000 0.958799 0.277509
0.999612 0.907507 0.260856
0.002135 0.990721 1.000000
0.002135 0.990721 1.000000
0.000573 0.998521 0.939086
0.000210 0.999136 0.765543
0.000643 0.999860 0.512262
0.000000 0.999638 0.251836
0.593506 1.000000 0.000000
0.985892 0.994852 0.026984
0.985901 0.985201 0.016687
0.002135 0.990721 1.000000
0.002135 0.990721 1.000000
0.002135 0.990721 1.000000
0.000182 0.994818 0.967750
0.000000 0.999415 0.808496
0.000000 0.999416 0.593730
0.081403 0.999860 0.420375
0.968464 0.999366 0.160811
0.985499 0.996527 0.027961
0.217640 0.000000 0.955999
0.226831 0.000097 0.937942
0.611796 0.000555 0.876754
0.999873 0.000107 0.923438
0.999323 0.219711 0.762104
0.999505 0.250490 0.688808
0.999888 0.272918 0.623718
1.000000 0.270667 0.565723
0.999335 0.258119 0.504352
0.340411 0.000117 0.999723
0.243836 0.000332 0.969226
0.480983 0.000000 1.000000
0.906408 0.000000 0.999083
1.000000 0.051062 0.941819
1.000000 0.210321 0.781673
0.999899 0.245456 0.705137
1.000000 0.267883 0.640047
1.000000 0.274313 0.581742
0.380029 0.084898 0.998950
0.346836 0.033306 1.000000
0.399063 0.000134 0.999995
0.764468 0.000268 1.000000
1.000000 0.000000 0.999715
0.999909 0.201190 0.873079
1.000000 0.201963 0.799509
0.999707 0.238106 0.717781
0.999305 0.264890 0.649452
0.070329 0.568519 1.000000
0.086598 0.520152 1.000000
0.103862 0.450099 0.999270
0.555388 0.331633 0.998940
0.990054 0.269879 0.999246
0.999753 0.381144 0.906313
0.999589 0.355260 0.834421
1.000000 0.319992 0.772468
0.999669 0.284439 0.719169
0.000000 0.874107 0.999004
0.000000 0.850436 1.000000
0.000711 0.823417 1.000000
0.000000 0.777783 0.999470
0.737698 0.684547 0.999360
0.998963 0.611742 0.963122
0.999786 0.587266 0.829996
0.999645 0.533344 0.782503
1.000000 0.482744 0.733504
0.002135 0.990721 1.000000
0.002135 0.991058 0.999120
0.000192 0.977101 0.998984
0.000000 0.962111 1.000000
0.000422 0.943495 0.957266
0.877930 0.877930 0.877930
0.999611 0.798620 0.821527
1.000000 0.747685 0.774258
1.000000 0.692088 0.725790
0.002135 0.990721 1.000000
0.002135 0.990721 1.000000
0.002135 0.990721 1.000000
0.000382 0.999574 0.908469
0.000604 0.999815 0.752454
0.000000 0.999891 0.720859
0.989498 0.995067 0.684594
1.000000 0.928507 0.673442
0.999573 0.883265 0.625640
0.002135 0.990721 1.000000
0.002135 0.990721 1.000000
0.002135 0.990721 1.000000
0.002135 0.990721 1.000000
0.000573 0.998185 0.940815
0.000000 0.999796 0.781339
0.582062 1.000000 0.638440
0.980738 1.000000 0.425144
0.980758 0.999524 0.307645
0.002135 0.990721 1.000000
0.002135 0.990721 1.000000
0.002135 0.990721 1.000000
0.002135 0.990721 1.000000
0.002135 0.990721 1.000000
0.000000 0.995148 0.975649
0.003130 1.000000 0.835876
0.942373 0.999756 0.706953
0.979753 0.999270 0.482917
0.383229 0.000000 1.000000
0.357616 0.000000 0.999414
0.686266 0.000357 0.999410
1.000000 0.000000 0.999715
1.000000 0.117040 0.952442
1.000000 0.175217 0.852039
0.999323 0.219711 0.762104
0.999505 0.250154 0.690539
0.999888 0.272918 0.623718
0.396719 0.000000 0.999019
0.393003 0.000000 0.999774
0.583821 0.000000 0.999308
0.934365 0.000458 0.999219
1.000000 0.000000 0.999715
0.999976 0.099691 0.975778
0.999938 0.166188 0.873337
1.000000 0.210321 0.781673
0.999899 0.245792 0.703408
0.422330 0.000000 0.999910
0.419984 0.000000 0.998934
0.494473 0.000000 0.998899
0.824491 0.000000 0.998896
1.000000 0.000000 0.999715
0.999411 0.068665 0.999954
1.000000 0.081981 0.997383
1.000000 0.153475 0.894410
1.000000 0.201963 0.799509
0.298863 0.353720 1.000000
0.361730 0.223642 1.000000
0.361366 0.190649 1.000000
0.635117 0.144507 0.999528
1.000000 0.081645 0.999114
1.000000 0.237979 0.999195
1.000000 0.260977 1.000000
0.999669 0.239070 0.952782
0.999305 0.219520 0.883066
0.000471 0.876757 1.000000
0.000000 0.766116 0.999556
0.000857 0.648745 1.000000
0.242150 0.605999 0.998837
0.739164 0.567179 1.000000
0.999837 0.495996 1.000000
0.999827 0.507663 0.999926
0.999282 0.468089 0.948134
0.999521 0.424497 0.897847
0.002135 0.990721 1.000000
0.002135 0.991058 0.999120
0.000604 0.951757 0.999910
0.001044 0.891411 1.000000
0.081029 0.865615 1.000000
0.845320 0.805800 1.000000
0.999822 0.751381 0.969989
1.000000 0.709765 0.925118
0.999911 0.663516 0.882508
0.002135 0.990721 1.000000
0.002135 0.990721 1.000000
0.002135 0.990721 1.000000
0.002135 0.990721 1.000000
0.002135 0.991058 0.999120
0.000000 0.985446 1.000000
0.949219 0.949219 0.949219
0.999515 0.899161 0.903732
0.999553 0.860895 0.860812
0.002135 0.990721 1.000000
0.002135 0.990721 1.000000
0.002135 0.990721 1.000000
0.002135 0.990721 1.000000
0.002135 0.991058 0.999120
0.002135 0.990721 1.000000
0.493058 1.000000 0.932535
0.987908 0.999556 0.819843
0.984012 1.000000 0.732962
0.002135 0.990721 1.000000
0.002135 0.990721 1.000000
0.002135 0.990721 1.000000
0.002135 0.990721 1.000000
0.002135 0.990721 1.000000
0.002135 0.991058 0.999120
0.002527 0.989049 0.999875
0.902839 0.999581 0.957167
0.989076 1.000000 0.847976
0.383229 0.000000 1.000000
0.405125 0.000331 1.000000
0.738857 0.000177 0.999461
1.000000 0.000000 0.999715
1.000000 0.000000 0.999715
1.000000 0.034976 0.999457
1.000000 0.116704 0.954172
1.000000 0.175217 0.852039
0.999323 0.219711 0.762104
0.396719 0.000000 0.999019
0.393003 0.000000 0.999774
0.559185 0.000209 0.999394
0.934365 0.000458 0.999219
1.000000 0.000000 0.999715
1.000000 0.000000 0.999715
1.000000 0.016639 0.999098
0.999976 0.099691 0.975778
0.999938 0.165516 0.876798
0.419984 0.000000 0.998934
0.410208 0.000000 0.999465
0.449311 0.000000 0.999070
0.753716 0.000000 0.999906
1.000000 0.000000 0.999715
1.000000 0.000000 0.999715
1.000000 0.000000 0.999715
1.000000 0.000000 0.999715
1.000000 0.081981 0.997383
0.261867 0.407887 0.999236
0.383272 0.179491 1.000000
0.435821 0.000000 1.000000
0.592227 0.000135 0.998778
0.939449 0.000000 0.998464
1.000000 0.000000 0.999715
1.000000 0.048316 1.000000
1.000000 0.069978 0.999199
0.999010 0.082343 0.999114
0.001044 0.891411 1.000000
0.000538 0.795423 0.999828
0.003202 0.649025 1.000000
0.343353 0.456058 1.000000
0.702220 0.325005 0.999180
1.000000 0.329306 0.999262
1.000000 0.340974 0.999175
1.000000 0.325983 1.000000
0.999407 0.306669 0.999433
0.002135 0.990721 1.000000
0.002135 0.990721 1.000000
0.000200 0.965098 1.000000
0.000000 0.904111 0.999277
0.176486 0.807141 1.000000
0.797910 0.688528 1.000000
0.999135 0.633016 0.998759
1.000000 0.610657 0.999905
0.999183 0.574680 0.999188
0.002135 0.990721 1.000000
0.002135 0.990721 1.000000
0.002135 0.990721 1.000000
0.002135 0.990721 1.000000
0.002135 0.991058 0.999120
0.000000 0.969118 0.999293
0.906048 0.894773 1.000000
0.999936 0.843665 0.999918
1.000000 0.813661 0.999644
0.002135 0.990721 1.000000
0.002135 0.990721 1.000000
0.002135 0.990721 1.000000
0.002135 0.990721 1.000000
0.002135 0.991058 0.999120
0.002135 0.990721 1.000000
0.388842 1.000000 1.000000
1.000000 1.000000 1.000000
0.996495 0.986113 0.977899
0.002135 0.990721 1.000000
0.002135 0.990721 1.000000
0.002135 0.990721 1.000000
0.002135 0.990721 1.000000
0.002135 0.990721 1.000000
0.002135 0.991058 0.999120
0.003503 0.990025 1.000000
0.863537 0.999743 0.990887
1.000000 1.000000 1.000000
0.385573 0.000437 0.999550
0.386943 0.000000 0.999550
0.641103 0.000037 0.999583
1.000000 0.000000 0.999715
1.000000 0.000000 0.999715
1.000000 0.000000 0.999715
1.000000 0.000000 0.999715
1.000000 0.034976 0.999457
1.000000 0.116704 0.954172
0.396719 0.000000 0.999019
0.393003 0.000000 0.999774
0.494473 0.000000 0.998899
0.826835 0.000203 0.999872
1.000000 0.000000 0.999715
1.000000 0.000000 0.999715
1.000000 0.000000 0.999715
1.000000 0.000000 0.999715
0.999651 0.015326 0.999852
0.422330 0.000000 0.999910
0.412555 0.000167 0.998712
0.433474 0.000000 0.999379
0.652248 0.000000 0.999050
1.000000 0.000000 0.999715
1.000000 0.000000 0.999715
1.000000 0.000000 0.999715
1.000000 0.000000 0.999715
1.000000 0.000000 0.999715
0.222918 0.459092 1.000000
0.361136 0.232321 1.000000
0.430928 0.005419 1.000000
0.560555 0.000000 0.999394
0.846387 0.000097 1.000000
1.000000 0.000000 0.999715
1.000000 0.000000 0.999715
1.000000 0.000000 0.999715
1.000000 0.000000 0.999715
0.000249 0.907098 0.999500
0.000126 0.820431 1.000000
0.000436 0.685758 0.999403
0.286031 0.502013 0.999437
0.670549 0.324382 0.999797
1.000000 0.111650 0.999387
1.000000 0.000000 0.999715
0.999270 0.005668 0.999185
1.000000 0.042960 0.999148
0.002135 0.990721 1.000000
0.002135 0.990721 1.000000
0.000192 0.976765 1.000000
0.001217 0.919742 1.000000
0.040779 0.836521 0.999621
0.767588 0.710877 0.999547
0.999748 0.601000 0.999238
0.999894 0.425992 1.000000
1.000000 0.377650 0.999895
0.002135 0.990721 1.000000
0.002135 0.990721 1.000000
0.002135 0.990721 1.000000
0.002135 0.990721 1.000000
0.002135 0.991058 0.999120
0.000382 0.981762 1.000000
0.869867 0.909919 0.999918
1.000000 0.825328 0.999558
1.000000 0.730317 0.999269
0.002135 0.990721 1.000000
0.002135 0.990721 1.000000
0.002135 0.990721 1.000000
0.002135 0.990721 1.000000
0.002135 0.990721 1.000000
0.002135 0.990721 1.000000
0.291088 0.999905 1.000000
1.000000 1.000000 1.000000
0.996495 0.981744 1.000000
0.002135 0.990721 1.000000
0.002135 0.990721 1.000000
0.002135 0.990721 1.000000
0.002135 0.990721 1.000000
0.002135 0.990721 1.000000
0.002135 0.991058 0.999120
0.003503 0.990025 1.000000
0.824436 0.999956 0.989551
1.000000 1.000000 1.000000
