Sources/Resources/LUT/gfx-eterna-55-3d-lut-v100/33Grid/F-Log/FLog_to_ETERNA-BB_33grid_V.1.00.cube
#title:FLog_to_ETERNA-BB
#model:GFX ETERNA 55
#FUJIFILM Corporation
#Gamma:F-Log to ETERNA BLEACH BYPASS
#Gamut:F-Gamut to ITU-R BT.709
#Version:1.00
LUT_3D_SIZE 5
0.000000 0.000000 0.000000
0.205455 0.020661 0.040055
0.577897 0.014575 0.079680
0.586302 0.015051 0.080878
0.586302 0.015051 0.080878
0.023751 0.114093 0.026965
0.099821 0.094042 0.033492
0.466039 0.048097 0.071952
0.586302 0.015051 0.080878
0.586302 0.015051 0.080878
0.139326 0.520633 0.157577
0.105770 0.442771 0.123965
0.506724 0.462945 0.227719
0.758376 0.412547 0.281208
0.608342 0.073180 0.109250
0.257333 0.824800 0.277828
0.251092 0.808949 0.273032
0.459659 0.848194 0.320590
0.926061 0.925250 0.413806
0.908792 0.769637 0.412302
0.259872 0.829741 0.280004
0.259872 0.829741 0.280004
0.259872 0.829741 0.280004
0.738557 0.946516 0.376336
0.938536 0.969630 0.418121
0.017185 0.006482 0.084312
0.178274 0.022225 0.069027
0.559714 0.014991 0.073820
0.586302 0.015051 0.080878
0.586302 0.015051 0.080878
0.038582 0.126922 0.136172
0.102539 0.102539 0.102539
0.453517 0.060372 0.075859
0.586302 0.015051 0.080878
0.586302 0.015051 0.080878
0.177594 0.553203 0.309257
0.139930 0.485163 0.235845
0.518996 0.502569 0.291317
0.784331 0.463922 0.308379
0.616728 0.094973 0.120660
0.267664 0.837362 0.408777
0.261623 0.821561 0.368926
0.436383 0.850976 0.367312
0.923514 0.931977 0.411543
0.915224 0.791159 0.413105
0.262983 0.837572 0.342882
0.262206 0.834966 0.315504
0.261623 0.832987 0.310090
0.708455 0.939533 0.371317
0.938536 0.969630 0.418121
0.102146 0.033639 0.466914
0.181547 0.035439 0.309356
0.560279 0.022156 0.172508
0.586302 0.015051 0.080878
0.586302 0.015051 0.080878
0.115520 0.168636 0.490555
0.117531 0.128145 0.351125
0.483549 0.108361 0.289665
0.586302 0.015051 0.080878
0.586302 0.015051 0.080878
0.233017 0.612468 0.621132
0.205512 0.555208 0.542664
0.577148 0.577148 0.577148
0.848552 0.543834 0.507996
0.625507 0.115429 0.129362
0.290660 0.865023 0.720020
0.285787 0.855194 0.680613
0.406797 0.869502 0.666476
0.933633 0.937672 0.672637
0.920290 0.813041 0.415641
0.286170 0.872244 0.643211
0.282274 0.866081 0.590936
0.278378 0.860589 0.535203
0.695903 0.946817 0.580890
0.939904 0.968934 0.418121
0.178759 0.037365 0.606566
0.153934 0.036952 0.588148
0.611979 0.079392 0.556001
0.604072 0.020486 0.186179
0.586302 0.015051 0.080878
0.202884 0.174799 0.623731
0.165565 0.154347 0.595633
0.537020 0.165673 0.599586
0.651885 0.071318 0.458649
0.596652 0.017720 0.142782
0.290099 0.600696 0.720488
0.268413 0.584538 0.706371
0.562622 0.608503 0.770753
0.907107 0.597342 0.832739
0.721516 0.272454 0.439626
0.293207 0.844516 0.793231
0.294184 0.845829 0.792476
0.341098 0.854437 0.796433
0.934570 0.934570 0.934570
0.968868 0.856301 0.827883
0.299621 0.888699 0.797324
0.296692 0.888122 0.782282
0.296500 0.886486 0.765509
0.637402 0.948391 0.837581
0.975213 0.986525 0.808879
0.178759 0.037029 0.608297
0.178759 0.037365 0.606566
0.567189 0.083257 0.645008
0.676278 0.098565 0.588449
0.639199 0.058381 0.387202
0.195101 0.131314 0.619636
0.193148 0.129361 0.617683
0.420298 0.159553 0.645985
0.688180 0.114513 0.663578
0.664378 0.081609 0.518511
0.262288 0.435065 0.669726
0.265018 0.444665 0.673101
0.310352 0.469956 0.689532
0.876230 0.572629 0.878212
0.785939 0.329900 0.720129
0.288755 0.793643 0.775602
0.287205 0.778684 0.771028
0.288182 0.779661 0.772005
0.844879 0.877236 0.942488
0.967488 0.844133 0.954122
0.298836 0.890368 0.807931
0.298836 0.890368 0.807931
0.298836 0.890368 0.807931
0.415527 0.915023 0.846067
1.000000 1.000000 1.000000
