Sources/Resources/LUT/gfx-eterna-55-3d-lut-v100/33Grid/F-Log/FLog_to_ETERNA-BB_33grid_V.1.00.cube
#title:FLog_to_ETERNA-BB
#model:GFX ETERNA 55
#FUJIFILM Corporation
#Gamma:F-Log to ETERNA BLEACH BYPASS
#Gamut:F-Gamut to ITU-R BT.709
#Version:1.00
LUT_3D_SIZE 33
0.000000 0.000000 0.000000
0.000000 0.000000 0.000000
0.000000 0.000000 0.000000
0.029517 0.003997 0.004798
0.057082 0.005704 0.009371
0.081908 0.008135 0.017405
0.111426 0.012132 0.022203
0.149350 0.016268 0.029930
0.205455 0.020661 0.040055
0.276419 0.024052 0.050625
0.348956 0.020747 0.057290
0.407023 0.016769 0.062531
0.457461 0.020634 0.064535
0.500671 0.018329 0.065872
0.534104 0.015237 0.071200
0.558346 0.015352 0.075551
0.577897 0.014575 0.079680
0.586302 0.015051 0.080878
0.586302 0.015051 0.080878
0.586302 0.015051 0.080878
0.586302 0.015051 0.080878
0.586302 0.015051 0.080878
0.586302 0.015051 0.080878
0.586302 0.015051 0.080878
0.586302 0.015051 0.080878
0.586302 0.015051 0.080878
0.586302 0.015051 0.080878
0.586302 0.015051 0.080878
0.586302 0.015051 0.080878
0.586302 0.015051 0.080878
0.586302 0.015051 0.080878
0.586302 0.015051 0.080878
0.586302 0.015051 0.080878
0.000000 0.000000 0.000000
0.000000 0.000000 0.000000
0.000000 0.000000 0.000000
0.017790 0.002265 0.001644
0.050045 0.004531 0.008173
0.074871 0.007297 0.014475
0.102044 0.010343 0.021758
0.133907 0.014619 0.027531
0.185320 0.018117 0.037434
0.247487 0.023040 0.046051
0.313175 0.023223 0.052714
0.373590 0.019525 0.058934
0.428527 0.019287 0.061690
0.476035 0.019888 0.062496
0.511814 0.017074 0.068801
0.541142 0.016411 0.072399
0.565775 0.014852 0.075773
0.583957 0.014772 0.079902
0.586302 0.015051 0.080878
0.586302 0.015051 0.080878
0.586302 0.015051 0.080878
0.586302 0.015051 0.080878
0.586302 0.015051 0.080878
0.586302 0.015051 0.080878
0.586302 0.015051 0.080878
0.586302 0.015051 0.080878
0.586302 0.015051 0.080878
0.586302 0.015051 0.080878
0.586302 0.015051 0.080878
0.586302 0.015051 0.080878
0.586302 0.015051 0.080878
0.586302 0.015051 0.080878
0.586302 0.015051 0.080878
0.000000 0.000000 0.000000
0.000000 0.000000 0.000000
0.000000 0.000000 0.000000
0.008406 0.000813 0.000000
0.040269 0.004752 0.006972
0.067441 0.007797 0.014254
0.091291 0.009587 0.019582
0.121201 0.011574 0.025132
0.159126 0.015711 0.032859
0.216207 0.021079 0.043961
0.277789 0.023354 0.050625
0.341526 0.021583 0.055337
0.398224 0.017967 0.062309
0.447685 0.020855 0.063336
0.491872 0.019527 0.065648
0.525305 0.016435 0.070976
0.551309 0.014852 0.070891
0.570860 0.014073 0.075019
0.586302 0.015051 0.080878
0.586302 0.015051 0.080878
0.586302 0.015051 0.080878
0.586302 0.015051 0.080878
0.586302 0.015051 0.080878
0.586302 0.015051 0.080878
0.586302 0.015051 0.080878
0.586302 0.015051 0.080878
0.586302 0.015051 0.080878
0.586302 0.015051 0.080878
0.586302 0.015051 0.080878
0.586302 0.015051 0.080878
0.586302 0.015051 0.080878
0.586302 0.015051 0.080878
0.586302 0.015051 0.080878
0.000383 0.009657 0.000667
0.000192 0.004997 0.000000
0.000583 0.002987 0.000222
0.002347 0.000279 0.000977
0.030887 0.003300 0.004798
0.058059 0.006345 0.012079
0.081908 0.008135 0.017405
0.106735 0.011574 0.020250
0.139966 0.014816 0.027755
0.186296 0.019093 0.038410
0.247487 0.023040 0.046051
0.309461 0.023642 0.051738
0.368505 0.019968 0.061418
0.421098 0.019788 0.061468
0.469975 0.019690 0.062273
0.506730 0.018190 0.067825
0.536448 0.015852 0.070445
0.559714 0.014991 0.073820
0.577897 0.014911 0.077949
0.586302 0.015051 0.080878
0.586302 0.015051 0.080878
0.586302 0.015051 0.080878
0.586302 0.015051 0.080878
0.586302 0.015051 0.080878
0.586302 0.015051 0.080878
0.586302 0.015051 0.080878
0.586302 0.015051 0.080878
0.586302 0.015051 0.080878
0.586302 0.015051 0.080878
0.586302 0.015051 0.080878
0.586302 0.015051 0.080878
0.586302 0.015051 0.080878
0.586302 0.015051 0.080878
0.006031 0.033855 0.006887
0.005839 0.029194 0.005686
0.003303 0.024254 0.003512
0.002135 0.018281 0.003066
0.019733 0.015549 0.005243
0.050428 0.013852 0.010569
0.074086 0.010981 0.014699
0.095982 0.010482 0.019804
0.127263 0.012108 0.023625
0.164794 0.017583 0.034058
0.219922 0.020662 0.044938
0.280136 0.023633 0.051602
0.341526 0.021583 0.055337
0.397247 0.016990 0.061332
0.443971 0.020938 0.064090
0.488549 0.017936 0.065426
0.520614 0.016213 0.067294
0.546224 0.015631 0.071645
0.567144 0.014491 0.074042
0.585326 0.014075 0.079902
0.586302 0.015051 0.080878
0.586302 0.015051 0.080878
0.586302 0.015051 0.080878
0.586302 0.015051 0.080878
0.586302 0.015051 0.080878
0.586302 0.015051 0.080878
0.586302 0.015051 0.080878
0.586302 0.015051 0.080878
0.586302 0.015051 0.080878
0.586302 0.015051 0.080878
0.586302 0.015051 0.080878
0.586302 0.015051 0.080878
0.586302 0.015051 0.080878
0.010704 0.057075 0.012130
0.010512 0.052414 0.010929
0.008951 0.048452 0.009731
0.007391 0.044488 0.008531
0.011890 0.040386 0.009285
0.042979 0.037351 0.011906
0.068983 0.034759 0.017013
0.090688 0.029935 0.019187
0.116107 0.024358 0.024070
0.150518 0.022241 0.030375
0.195680 0.020881 0.038855
0.253547 0.023239 0.046273
0.314152 0.024200 0.053691
0.372613 0.018548 0.057957
0.423836 0.018729 0.059737
0.469975 0.019690 0.062273
0.505753 0.017213 0.066848
0.535472 0.014876 0.069469
0.558346 0.015352 0.075551
0.576920 0.013934 0.076972
0.586302 0.015051 0.080878
0.586302 0.015051 0.080878
0.586302 0.015051 0.080878
0.586302 0.015051 0.080878
0.586302 0.015051 0.080878
0.586302 0.015051 0.080878
0.586302 0.015051 0.080878
0.586302 0.015051 0.080878
0.586302 0.015051 0.080878
0.586302 0.015051 0.080878
0.586302 0.015051 0.080878
0.586302 0.015051 0.080878
0.586302 0.015051 0.080878
0.014207 0.074323 0.016926
0.014015 0.069662 0.015727
0.012062 0.067373 0.015503
0.011871 0.062712 0.014305
0.011287 0.060062 0.012351
0.036898 0.059145 0.018433
0.063487 0.059875 0.022032
0.086561 0.054354 0.024207
0.110219 0.051819 0.026605
0.141699 0.046102 0.033441
0.183931 0.041476 0.040722
0.237308 0.036604 0.045742
0.293424 0.030336 0.050761
0.351300 0.021362 0.056535
0.401940 0.017548 0.063285
0.449055 0.020157 0.063336
0.490895 0.018550 0.064671
0.521982 0.015516 0.067294
0.546224 0.015631 0.071645
0.567144 0.014155 0.075773
0.585326 0.014075 0.079902
0.586302 0.015051 0.080878
0.586302 0.015051 0.080878
0.586302 0.015051 0.080878
0.586302 0.015051 0.080878
0.586302 0.015051 0.080878
0.586302 0.015051 0.080878
0.586302 0.015051 0.080878
0.586302 0.015051 0.080878
0.586302 0.015051 0.080878
0.586302 0.015051 0.080878
0.586302 0.015051 0.080878
0.586302 0.015051 0.080878
0.018688 0.092883 0.020968
0.018104 0.089896 0.020746
0.016543 0.085932 0.019547
0.017328 0.082249 0.019324
0.015767 0.078285 0.018125
0.028282 0.076669 0.019324
0.058584 0.076311 0.027360
0.079503 0.075507 0.028027
0.104530 0.072610 0.028694
0.134250 0.069601 0.034778
0.169636 0.068798 0.040328
0.222621 0.065600 0.046324
0.279914 0.053303 0.053606
0.336030 0.047035 0.058625
0.385500 0.037920 0.061468
0.431649 0.027214 0.064090
0.474667 0.020249 0.064226
0.509470 0.016795 0.067825
0.536448 0.015852 0.070445
0.558346 0.015352 0.075551
0.576920 0.013934 0.076972
0.586302 0.015051 0.080878
0.586302 0.015051 0.080878
0.586302 0.015051 0.080878
0.586302 0.015051 0.080878
0.586302 0.015051 0.080878
0.586302 0.015051 0.080878
0.586302 0.015051 0.080878
0.586302 0.015051 0.080878
0.586302 0.015051 0.080878
0.586302 0.015051 0.080878
0.586302 0.015051 0.080878
0.586302 0.015051 0.080878
0.023751 0.114093 0.026965
0.022584 0.108456 0.024788
0.021024 0.103821 0.027051
0.020439 0.101506 0.023366
0.018295 0.094557 0.021945
0.019665 0.093860 0.021945
0.053683 0.093081 0.030957
0.076947 0.091885 0.036062
0.099821 0.094042 0.033492
0.127193 0.091089 0.036867
0.161604 0.088638 0.044902
0.208527 0.085915 0.047215
0.265620 0.080288 0.054942
0.325449 0.073603 0.060938
0.378826 0.068395 0.067688
0.425559 0.060674 0.070530
0.466039 0.048097 0.071952
0.502614 0.030941 0.072929
0.527651 0.017049 0.070223
0.549939 0.015213 0.072622
0.568121 0.014796 0.078481
0.587672 0.014689 0.079148
0.586302 0.015051 0.080878
0.586302 0.015051 0.080878
0.586302 0.015051 0.080878
0.586302 0.015051 0.080878
0.586302 0.015051 0.080878
0.586302 0.015051 0.080878
0.586302 0.015051 0.080878
0.586302 0.015051 0.080878
0.586302 0.015051 0.080878
0.586302 0.015051 0.080878
0.586302 0.015051 0.080878
0.028031 0.138651 0.034914
0.026863 0.133351 0.031008
0.025695 0.127714 0.028832
0.024135 0.123414 0.029364
0.023943 0.118753 0.028164
0.023751 0.114093 0.026965
0.044672 0.112617 0.031094
0.072629 0.111643 0.039883
0.095501 0.112792 0.042503
0.120137 0.111905 0.042417
0.153570 0.109486 0.044285
0.198733 0.108462 0.051035
0.253086 0.104231 0.058761
0.310177 0.099276 0.063027
0.364923 0.093034 0.071507
0.416348 0.085536 0.078036
0.462687 0.079155 0.083586
0.501014 0.070287 0.088691
0.532302 0.060917 0.089136
0.553827 0.040773 0.085008
0.566360 0.017840 0.075996
0.581611 0.014492 0.078925
0.586302 0.015051 0.080878
0.586302 0.015051 0.080878
0.586302 0.015051 0.080878
0.586302 0.015051 0.080878
0.586302 0.015051 0.080878
0.586302 0.015051 0.080878
0.586302 0.015051 0.080878
0.586302 0.015051 0.080878
0.586302 0.015051 0.080878
0.586302 0.015051 0.080878
0.586302 0.015051 0.080878
0.035432 0.171808 0.041801
0.033679 0.163186 0.039403
0.032904 0.155538 0.037981
0.031736 0.149901 0.035806
0.029199 0.144960 0.033628
0.029008 0.139965 0.034160
0.035854 0.136141 0.035891
0.070847 0.137012 0.042417
0.094113 0.136151 0.045793
0.118356 0.135932 0.051874
0.146704 0.135299 0.049304
0.187568 0.132379 0.051394
0.241922 0.128484 0.057390
0.299597 0.125843 0.065340
0.355712 0.118904 0.073820
0.406744 0.113081 0.081324
0.456015 0.109628 0.089806
0.500591 0.104945 0.099793
0.535787 0.099147 0.105874
0.561992 0.090220 0.108803
0.580969 0.076468 0.104145
0.591941 0.048899 0.097394
0.586302 0.015051 0.080878
0.586302 0.015051 0.080878
0.586302 0.015051 0.080878
0.586302 0.015051 0.080878
0.586302 0.015051 0.080878
0.586302 0.015051 0.080878
0.586302 0.015051 0.080878
0.586302 0.015051 0.080878
0.586302 0.015051 0.080878
0.586302 0.015051 0.080878
0.586302 0.015051 0.080878
0.043214 0.214286 0.051086
0.041856 0.203652 0.049441
0.039126 0.194053 0.046065
0.039722 0.185708 0.044646
0.037577 0.178758 0.043223
0.035432 0.172145 0.040070
0.034264 0.166172 0.039625
0.065935 0.165114 0.047660
0.095261 0.164115 0.052988
0.117551 0.161942 0.057117
0.144531 0.160662 0.061468
0.180894 0.162517 0.059343
0.232509 0.160352 0.063609
0.289602 0.154725 0.071336
0.349040 0.149378 0.080040
0.401048 0.144867 0.086789
0.455401 0.139626 0.099707
0.500563 0.138266 0.108187
0.538295 0.137071 0.118177
0.568799 0.130376 0.124036
0.590706 0.119218 0.124036
0.606943 0.105854 0.124567
0.613809 0.081049 0.114356
0.598204 0.042425 0.097173
0.587672 0.014689 0.079148
0.586302 0.015051 0.080878
0.586302 0.015051 0.080878
0.586302 0.015051 0.080878
0.586302 0.015051 0.080878
0.586302 0.015051 0.080878
0.586302 0.015051 0.080878
0.586302 0.015051 0.080878
0.586302 0.015051 0.080878
0.052942 0.270049 0.063970
0.051582 0.259416 0.062324
0.051009 0.245434 0.058727
0.047302 0.234521 0.056106
0.046527 0.226873 0.054683
0.044776 0.218250 0.052285
0.043023 0.209627 0.049887
0.061014 0.204884 0.052816
0.094055 0.203467 0.059121
0.118690 0.201572 0.064226
0.144693 0.198981 0.069332
0.176758 0.196586 0.074661
0.225634 0.196488 0.075464
0.282728 0.191870 0.078000
0.344510 0.186801 0.087679
0.402579 0.181815 0.098112
0.456539 0.178921 0.108547
0.505024 0.178144 0.122441
0.547448 0.177507 0.134383
0.579511 0.173768 0.146633
0.602979 0.166909 0.146102
0.620778 0.157171 0.149563
0.633110 0.140235 0.144457
0.621018 0.108200 0.126966
0.607758 0.070193 0.109028
0.590602 0.017283 0.083808
0.586302 0.015051 0.080878
0.586302 0.015051 0.080878
0.586302 0.015051 0.080878
0.586302 0.015051 0.080878
0.586302 0.015051 0.080878
0.586302 0.015051 0.080878
0.586302 0.015051 0.080878
0.067943 0.329020 0.080758
0.064631 0.316097 0.078890
0.061318 0.303846 0.073562
0.057614 0.292933 0.070942
0.057623 0.281603 0.069298
0.054502 0.274347 0.063438
0.051773 0.264412 0.061792
0.054713 0.256346 0.061347
0.094790 0.255766 0.070581
0.122164 0.252140 0.077417
0.147192 0.248573 0.081548
0.179256 0.246178 0.086876
0.223050 0.245180 0.097085
0.279748 0.243580 0.093676
0.343878 0.238790 0.104332
0.403899 0.236093 0.114989
0.462551 0.233421 0.129106
0.515143 0.230889 0.141270
0.561473 0.233821 0.158848
0.593145 0.232765 0.166883
0.618172 0.228188 0.176203
0.638317 0.218729 0.180640
0.652018 0.201433 0.173804
0.643832 0.173304 0.160218
0.629403 0.129994 0.138375
0.616728 0.094973 0.120660
0.603277 0.052641 0.099793
0.587672 0.014689 0.079148
0.586302 0.015051 0.080878
0.586302 0.015051 0.080878
0.586302 0.015051 0.080878
0.586302 0.015051 0.080878
0.586302 0.015051 0.080878
0.089197 0.391841 0.104161
0.084516 0.379952 0.100562
0.080226 0.366724 0.094257
0.074175 0.355868 0.088929
0.071447 0.345931 0.087285
0.070481 0.333960 0.082934
0.067753 0.324360 0.079558
0.064631 0.316097 0.078890
0.094350 0.313087 0.084974
0.127784 0.309323 0.093763
0.154764 0.307708 0.099844
0.186828 0.305313 0.105172
0.229252 0.305012 0.115383
0.282428 0.305802 0.126038
0.345187 0.303391 0.128042
0.410877 0.302901 0.138168
0.471483 0.302519 0.152508
0.531695 0.303137 0.171285
0.582324 0.308303 0.191793
0.622403 0.307386 0.202757
0.649384 0.305099 0.212301
0.667765 0.298011 0.217715
0.682050 0.283029 0.214561
0.676211 0.254843 0.203683
0.656709 0.201991 0.175757
0.638959 0.157762 0.150230
0.625116 0.117103 0.130339
0.611271 0.076445 0.110449
0.591185 0.019597 0.087492
0.586302 0.015051 0.080878
0.586302 0.015051 0.080878
0.586302 0.015051 0.080878
0.586302 0.015051 0.080878
0.113381 0.457591 0.130492
0.107723 0.444724 0.125918
0.099719 0.431916 0.118637
0.098753 0.419608 0.116017
0.094069 0.408391 0.108956
0.090365 0.397478 0.106336
0.086267 0.388575 0.102961
0.083146 0.380985 0.098833
0.092730 0.375767 0.100562
0.136524 0.374432 0.112505
0.166243 0.371422 0.118586
0.196545 0.371063 0.126622
0.236623 0.370483 0.135855
0.292146 0.370543 0.152680
0.355681 0.373426 0.168220
0.420585 0.377629 0.173376
0.486464 0.380791 0.189891
0.552930 0.386605 0.208359
0.612357 0.391244 0.225630
0.658295 0.396858 0.238992
0.692312 0.395073 0.253194
0.715972 0.391530 0.260786
0.728102 0.380256 0.261316
0.727729 0.360277 0.253813
0.696508 0.293689 0.224551
0.668016 0.237710 0.193472
0.647145 0.184882 0.169007
0.633110 0.140235 0.144457
0.617313 0.097623 0.122613
0.601324 0.050688 0.097840
0.587672 0.014689 0.079148
0.587672 0.014689 0.079148
0.587672 0.014689 0.079148
0.139326 0.520633 0.157577
0.134645 0.509080 0.152250
0.128987 0.496214 0.147676
0.124305 0.484661 0.142347
0.120600 0.474084 0.137997
0.115919 0.462530 0.132668
0.113774 0.455916 0.129515
0.109283 0.449024 0.125387
0.105770 0.442771 0.123965
0.147217 0.440821 0.136660
0.177912 0.439124 0.141988
0.208215 0.438765 0.150023
0.249269 0.438489 0.163695
0.302053 0.440282 0.178789
0.367541 0.445118 0.196282
0.438305 0.453498 0.215949
0.506724 0.462945 0.227719
0.576118 0.472359 0.245657
0.639059 0.482916 0.266078
0.694380 0.489647 0.283348
0.733279 0.493417 0.298973
0.761237 0.492442 0.307762
0.777667 0.483737 0.309492
0.788237 0.468500 0.308824
0.758376 0.412547 0.281208
0.718556 0.341494 0.246086
0.686752 0.272928 0.211410
0.659237 0.217253 0.184770
0.639343 0.166411 0.156090
0.627069 0.119056 0.132292
0.610295 0.075133 0.111203
0.609318 0.074156 0.110226
0.608342 0.073180 0.109250
0.168987 0.582923 0.187371
0.164304 0.571032 0.183773
0.159623 0.559479 0.178445
0.152596 0.547647 0.172140
0.149474 0.540056 0.168012
0.143615 0.533861 0.163882
0.143233 0.524876 0.159754
0.139719 0.518960 0.156601
0.137575 0.512010 0.155180
0.147159 0.507128 0.155180
0.192904 0.507747 0.169074
0.225946 0.505656 0.178840
0.262893 0.507809 0.190781
0.315284 0.511610 0.205122
0.380964 0.521107 0.223813
0.451727 0.529489 0.243480
0.526396 0.542448 0.263593
0.600674 0.557083 0.284684
0.668306 0.568868 0.303597
0.723818 0.579252 0.327257
0.762719 0.583357 0.341153
0.794974 0.585288 0.349411
0.817657 0.581104 0.354294
0.833110 0.571086 0.356778
0.816336 0.527162 0.335688
0.784331 0.463922 0.308379
0.745297 0.389858 0.269575
0.709586 0.316714 0.234453
0.673674 0.250240 0.199777
0.649873 0.194819 0.170653
0.633110 0.140235 0.144457
0.628820 0.127344 0.136422
0.627844 0.126368 0.135446
0.189657 0.642756 0.210552
0.186344 0.630505 0.205223
0.182246 0.621603 0.201848
0.181471 0.613955 0.200426
0.178350 0.606029 0.198028
0.175228 0.598438 0.193899
0.174060 0.592802 0.191722
0.170940 0.584876 0.189324
0.166057 0.579321 0.187902
0.164889 0.574020 0.183996
0.203598 0.574136 0.193230
0.239569 0.575311 0.204196
0.274171 0.577857 0.211700
0.322453 0.583415 0.227770
0.391847 0.592494 0.247437
0.466518 0.604781 0.271012
0.543140 0.619358 0.294808
0.616442 0.632343 0.318383
0.686611 0.649405 0.337743
0.747206 0.660017 0.355457
0.789430 0.666386 0.366114
0.824424 0.667258 0.372641
0.846713 0.664748 0.378500
0.867441 0.657940 0.384890
0.861602 0.629082 0.377473
0.834277 0.576724 0.358952
0.809702 0.513656 0.328407
0.773991 0.440175 0.295017
0.729289 0.363904 0.256743
0.691041 0.286155 0.217715
0.660022 0.213905 0.182817
0.648896 0.193842 0.169676
0.648705 0.188846 0.170207
0.210730 0.689921 0.229379
0.206823 0.686014 0.225472
0.205655 0.680041 0.225027
0.202534 0.672451 0.220899
0.202342 0.667454 0.221430
0.198827 0.661538 0.218277
0.196684 0.654924 0.215125
0.194146 0.649985 0.212948
0.192978 0.644348 0.210774
0.189072 0.639770 0.210328
0.194941 0.634970 0.211082
0.246940 0.641118 0.222938
0.280565 0.642015 0.232926
0.328848 0.648244 0.245535
0.396873 0.657684 0.266934
0.473888 0.670587 0.289753
0.552858 0.684772 0.317988
0.630064 0.703006 0.338546
0.701019 0.716384 0.357683
0.759270 0.727726 0.369231
0.808530 0.734597 0.384547
0.840786 0.736863 0.391074
0.867373 0.736922 0.398134
0.889079 0.731426 0.403769
0.892612 0.715352 0.400172
0.874075 0.671782 0.390441
0.856135 0.620541 0.375829
0.828036 0.560871 0.354156
0.799361 0.489236 0.318504
0.751931 0.403029 0.278585
0.704310 0.313168 0.232277
0.685192 0.268629 0.211941
0.682846 0.268350 0.210964
0.225550 0.732564 0.245055
0.222035 0.726649 0.241902
0.220475 0.722685 0.240703
0.220283 0.718024 0.239504
0.217747 0.713084 0.237328
0.216186 0.709122 0.236130
0.214626 0.705494 0.233200
0.212088 0.700219 0.232755
0.210528 0.696256 0.231554
0.210336 0.691931 0.228624
0.208777 0.687968 0.227426
0.245331 0.692130 0.238614
0.285992 0.694200 0.249801
0.330561 0.700848 0.261433
0.394871 0.710707 0.281855
0.472471 0.726259 0.306629
0.553785 0.742740 0.325457
0.632362 0.760277 0.346016
0.707031 0.773573 0.364399
0.767627 0.784857 0.378652
0.816887 0.792064 0.392237
0.852465 0.795922 0.398988
0.882768 0.795563 0.407024
0.901343 0.793472 0.411907
0.914057 0.784849 0.414391
0.902549 0.753112 0.410965
0.889682 0.711750 0.400703
0.874085 0.661123 0.385336
0.847356 0.600084 0.367125
0.816336 0.527162 0.335688
0.771454 0.434898 0.294570
0.737293 0.376713 0.264023
0.733780 0.370796 0.260871
0.234711 0.762678 0.254426
0.232758 0.760389 0.254202
0.233544 0.756705 0.253981
0.231982 0.753078 0.251051
0.229052 0.749476 0.251581
0.229446 0.747802 0.250605
0.228278 0.742501 0.246699
0.227694 0.739513 0.246477
0.227109 0.736527 0.246253
0.225550 0.732564 0.245055
0.223988 0.728602 0.243855
0.222035 0.726649 0.241902
0.280677 0.734972 0.259394
0.324270 0.740643 0.270051
0.382912 0.748631 0.289273
0.460512 0.765192 0.308855
0.542411 0.784321 0.329637
0.625677 0.803091 0.348687
0.701325 0.817362 0.368047
0.768957 0.829821 0.383499
0.818610 0.836025 0.392648
0.856533 0.840163 0.400376
0.884099 0.841535 0.406681
0.908732 0.839976 0.410053
0.927307 0.837885 0.414936
0.920290 0.813041 0.415641
0.912104 0.782560 0.414168
0.901189 0.742479 0.409321
0.886571 0.692157 0.398390
0.859447 0.633464 0.377695
0.827451 0.557884 0.353933
0.803852 0.496128 0.322632
0.798970 0.490910 0.319481
0.244074 0.786121 0.263351
0.245443 0.785087 0.265082
0.242513 0.781821 0.263882
0.240560 0.779868 0.261929
0.239976 0.777218 0.259976
0.241739 0.774847 0.259000
0.238417 0.773255 0.258778
0.236856 0.769291 0.257578
0.238617 0.766920 0.256601
0.235295 0.765328 0.256379
0.234711 0.762678 0.254426
0.232758 0.760389 0.254202
0.260323 0.761761 0.260508
0.311535 0.770919 0.276046
0.365486 0.778684 0.291586
0.439371 0.795665 0.310192
0.524985 0.815049 0.328489
0.608253 0.833817 0.347540
0.689566 0.850297 0.366366
0.759937 0.861360 0.381821
0.813889 0.870133 0.392168
0.856505 0.875165 0.400117
0.885045 0.877513 0.407399
0.913395 0.876208 0.408289
0.931968 0.874117 0.413172
0.930025 0.859825 0.414765
0.927307 0.837885 0.414936
0.918729 0.809078 0.414442
0.909768 0.770613 0.413278
0.894757 0.721629 0.405055
0.875062 0.662100 0.386313
0.848917 0.603711 0.370055
0.847356 0.600084 0.367125
0.250508 0.806298 0.271079
0.250901 0.804623 0.270102
0.248948 0.802335 0.269878
0.249340 0.800661 0.268901
0.249733 0.798987 0.267925
0.246803 0.795721 0.266727
0.247196 0.793711 0.267482
0.245242 0.791757 0.265528
0.244266 0.790445 0.266281
0.243682 0.787795 0.264328
0.244074 0.786121 0.263351
0.245443 0.785087 0.265082
0.242513 0.781821 0.263882
0.293727 0.791653 0.275961
0.342987 0.798524 0.291277
0.409834 0.814666 0.306953
0.497400 0.836340 0.325473
0.586729 0.854633 0.348207
0.669996 0.874074 0.363797
0.745059 0.886368 0.377742
0.807024 0.897290 0.390266
0.851008 0.901961 0.396484
0.885610 0.904506 0.403989
0.908482 0.905319 0.408340
0.933118 0.903424 0.413445
0.937426 0.894326 0.414731
0.933530 0.878080 0.414371
0.930419 0.857815 0.415521
0.922817 0.830321 0.414269
0.916786 0.795122 0.414304
0.902357 0.748452 0.409764
0.885786 0.695840 0.398613
0.886571 0.692157 0.398390
0.257333 0.824800 0.277828
0.256750 0.822150 0.275875
0.255774 0.820838 0.276629
0.255190 0.817852 0.276407
0.254213 0.816875 0.275430
0.253629 0.814224 0.273477
0.252652 0.812911 0.274230
0.250699 0.810958 0.272277
0.251092 0.808949 0.273032
0.250115 0.807972 0.272055
0.250508 0.806298 0.271079
0.250901 0.804623 0.270102
0.248948 0.802335 0.269878
0.251686 0.801276 0.268149
0.320879 0.816689 0.289991
0.376390 0.829426 0.301539
0.459659 0.848194 0.320590
0.554654 0.869031 0.341062
0.642614 0.889030 0.358605
0.722951 0.905205 0.372995
0.790977 0.915652 0.389202
0.838284 0.922250 0.393914
0.876208 0.926052 0.403371
0.905535 0.925388 0.406970
0.926061 0.925250 0.413806
0.940336 0.920927 0.415759
0.940346 0.909596 0.414113
0.937426 0.894326 0.414731
0.931968 0.874117 0.413172
0.927690 0.847879 0.413875
0.920874 0.816028 0.415864
0.908398 0.771647 0.411546
0.908792 0.769637 0.412302
0.259872 0.829741 0.280004
0.259872 0.829741 0.280004
0.259872 0.829741 0.280004
0.259872 0.829741 0.280004
0.259872 0.829741 0.280004
0.259872 0.829741 0.280004
0.259872 0.829404 0.281735
0.257525 0.829461 0.279027
0.257919 0.827788 0.278051
0.256942 0.826811 0.277074
0.257333 0.824800 0.277828
0.257727 0.823127 0.276852
0.255774 0.820838 0.276629
0.254797 0.819861 0.275652
0.290959 0.826369 0.284355
0.346472 0.838770 0.297633
0.418010 0.855807 0.313531
0.512613 0.878317 0.334980
0.606241 0.900523 0.351993
0.693615 0.917872 0.367582
0.767701 0.928853 0.382280
0.825367 0.937880 0.390144
0.865637 0.941961 0.400577
0.896916 0.942913 0.407859
0.921160 0.942693 0.413942
0.941102 0.940240 0.417093
0.941696 0.931897 0.415672
0.940336 0.920927 0.415759
0.938393 0.907306 0.413891
0.934888 0.889387 0.412554
0.929824 0.866832 0.413480
0.923793 0.831297 0.415245
0.923209 0.828310 0.415024
0.259872 0.829741 0.280004
0.259872 0.829741 0.280004
0.259872 0.829741 0.280004
0.259872 0.829741 0.280004
0.259872 0.829741 0.280004
0.259872 0.829741 0.280004
0.259872 0.829741 0.280004
0.259872 0.829741 0.280004
0.259872 0.829741 0.280004
0.259872 0.829741 0.280004
0.259872 0.829741 0.280004
0.259872 0.829741 0.280004
0.259872 0.829741 0.280004
0.259872 0.829741 0.280004
0.259872 0.829741 0.280004
0.312252 0.845546 0.292528
0.369718 0.860572 0.304296
0.457283 0.881908 0.324547
0.555209 0.906347 0.344488
0.651574 0.927494 0.359769
0.737389 0.940207 0.377622
0.806784 0.950966 0.388637
0.854482 0.954882 0.397562
0.888108 0.956115 0.405820
