Sources/Resources/LUT/gfx-eterna-55-3d-lut-v100/33Grid/F-Log/FLog_to_ETERNA_33grid_V.1.00.cube
#title:FLog_to_ETERNA
#model:GFX ETERNA 55
#FUJIFILM Corporation
#Gamma:F-Log to ETERNA
#Gamut:F-Gamut to ITU-R BT.709
#Version:1.00
LUT_3D_SIZE 9
0.005859 0.005859 0.005859
0.114949 0.007053 0.021981
0.341928 0.008242 0.054445
0.670567 0.011125 0.102808
0.933907 0.012824 0.140070
0.933907 0.012824 0.140070
0.933907 0.012824 0.140070
0.933907 0.012824 0.140070
0.933907 0.012824 0.140070
0.005619 0.060207 0.000769
0.040642 0.026412 0.005824
0.239875 0.008223 0.039523
0.504587 0.008887 0.078516
0.787085 0.011818 0.119153
0.933907 0.012824 0.140070
0.933907 0.012824 0.140070
0.933907 0.012824 0.140070
0.933907 0.012824 0.140070
0.006680 0.194520 0.000269
0.005138 0.167222 0.000000
0.166256 0.143931 0.004981
0.393848 0.112097 0.043118
0.672692 0.042754 0.097136
0.917096 0.011872 0.137671
0.933907 0.012824 0.140070
0.933907 0.012824 0.140070
0.933907 0.012824 0.140070
0.006151 0.359535 0.000044
0.007942 0.321825 0.001054
0.085973 0.293741 0.000969
0.317470 0.273207 0.004940
0.601752 0.249087 0.051695
0.861811 0.200846 0.097731
0.933907 0.012824 0.140070
0.933907 0.012824 0.140070
0.933907 0.012824 0.140070
0.008492 0.597819 0.000500
0.008139 0.553159 0.000090
0.007383 0.521842 0.000571
0.240643 0.499608 0.000105
0.550928 0.481971 0.005242
0.819767 0.455866 0.051328
0.933817 0.366924 0.081672
0.935341 0.173502 0.114195
0.933907 0.012824 0.140070
0.009476 0.825469 0.000000
0.009494 0.801799 0.001214
0.008144 0.779498 0.000000
0.031038 0.757649 0.000720
0.467819 0.738181 0.000457
0.768912 0.720726 0.020192
0.925933 0.681812 0.057164
0.927247 0.510760 0.069281
0.936967 0.339849 0.084328
0.022628 0.994840 0.000730
0.018339 0.980605 0.000000
0.017764 0.965952 0.000000
0.016797 0.952971 0.000321
0.256702 0.933921 0.000301
0.685660 0.916965 0.000000
0.926733 0.893470 0.053133
0.927597 0.796449 0.053598
0.925751 0.665147 0.057782
0.022818 0.999838 0.000199
0.022818 0.999838 0.000199
0.022818 0.999838 0.000199
0.022818 0.999838 0.000199
0.022818 0.999838 0.000199
0.448244 0.999627 0.000000
0.823223 0.999489 0.035708
0.931347 0.986022 0.061321
0.927901 0.899443 0.053578
0.022818 0.999838 0.000199
0.022818 0.999838 0.000199
0.022818 0.999838 0.000199
0.022818 0.999838 0.000199
0.022818 0.999838 0.000199
0.022818 0.999838 0.000199
0.594875 0.999669 0.000000
0.901225 1.000000 0.068242
0.932505 0.999629 0.082445
0.008587 0.005714 0.059417
0.105175 0.007610 0.019051
0.328438 0.008882 0.052269
0.639287 0.009836 0.097258
0.917096 0.011872 0.137671
0.933907 0.012824 0.140070
0.933907 0.012824 0.140070
0.933907 0.012824 0.140070
0.933907 0.012824 0.140070
0.009516 0.061330 0.079000
0.028320 0.028320 0.028320
0.227754 0.008164 0.037347
0.482689 0.009051 0.075141
0.766559 0.011283 0.115777
0.933907 0.012824 0.140070
0.933907 0.012824 0.140070
0.933907 0.012824 0.140070
0.933907 0.012824 0.140070
0.011361 0.195319 0.060972
0.008653 0.170449 0.016238
0.158433 0.146441 0.004004
0.380157 0.119743 0.039657
0.660168 0.056373 0.094121
0.907320 0.012093 0.136473
0.933907 0.012824 0.140070
0.933907 0.012824 0.140070
0.933907 0.012824 0.140070
0.012785 0.366992 0.038473
0.010085 0.328103 0.005937
0.066221 0.300518 0.000745
0.308863 0.279401 0.004188
0.594121 0.256930 0.048456
0.855741 0.212652 0.095692
0.934081 0.041827 0.135906
0.933907 0.012824 0.140070
0.933907 0.012824 0.140070
0.012983 0.605383 0.001169
0.010867 0.563432 0.000003
0.007958 0.536832 0.000000
0.229096 0.513868 0.000000
0.541535 0.492522 0.001251
0.812327 0.468034 0.051019
0.933605 0.385934 0.078569
0.935523 0.190502 0.111848
0.934281 0.034821 0.137192
0.008881 0.833814 0.000734
0.008901 0.810479 0.000907
0.009504 0.790131 0.001301
0.007763 0.769504 0.000720
0.454319 0.750152 0.000000
0.763235 0.730188 0.020636
0.924161 0.695850 0.058054
0.929581 0.523379 0.066711
0.937542 0.354839 0.082734
0.022235 0.996851 0.000000
0.020292 0.982894 0.000000
0.019325 0.969914 0.000679
0.014642 0.957353 0.000543
0.228543 0.939886 0.000610
0.675291 0.925195 0.001015
0.922817 0.900223 0.054332
0.927587 0.807780 0.055243
0.926718 0.677792 0.058671
0.022818 0.999838 0.000199
0.022818 0.999838 0.000199
0.022818 0.999838 0.000199
0.022818 0.999838 0.000199
0.022818 0.999838 0.000199
0.421264 0.999898 0.000000
0.812472 0.999069 0.031802
0.932513 0.991323 0.065227
0.930046 0.906057 0.056730
0.022818 0.999838 0.000199
0.022818 0.999838 0.000199
0.022818 0.999838 0.000199
0.022818 0.999838 0.000199
0.022818 0.999838 0.000199
0.022818 0.999838 0.000199
0.570241 1.000000 0.000000
0.895166 1.000000 0.066289
0.932505 0.999629 0.082445
0.015797 0.004972 0.215657
0.092640 0.002314 0.173423
0.311616 0.005818 0.120734
0.607615 0.010556 0.090953
0.889139 0.012174 0.132343
0.933907 0.012824 0.140070
0.933907 0.012824 0.140070
0.933907 0.012824 0.140070
0.933907 0.012824 0.140070
0.018869 0.068210 0.233199
0.015193 0.032377 0.178922
0.219137 0.003509 0.152449
0.463139 0.009829 0.071013
0.747008 0.011391 0.115109
0.933907 0.012824 0.140070
0.933907 0.012824 0.140070
0.933907 0.012824 0.140070
0.933907 0.012824 0.140070
0.020715 0.200519 0.223824
0.017029 0.175346 0.174652
0.152344 0.152344 0.152344
0.374075 0.127085 0.120593
0.643729 0.077753 0.087114
0.897545 0.012315 0.135273
0.933907 0.012824 0.140070
0.933907 0.012824 0.140070
0.933907 0.012824 0.140070
0.021937 0.376174 0.215613
0.019238 0.338629 0.176155
0.034128 0.310020 0.138788
0.305119 0.289951 0.131008
0.589027 0.269042 0.050856
0.847716 0.222504 0.091700
0.933859 0.073177 0.129257
0.933907 0.012824 0.140070
0.933907 0.012824 0.140070
0.026433 0.611757 0.207195
0.024318 0.576862 0.169690
0.020633 0.549673 0.130903
0.219291 0.526910 0.112551
0.541315 0.510092 0.065551
0.808209 0.482465 0.047472
0.932419 0.403295 0.077953
0.935313 0.209848 0.107016
0.934846 0.062151 0.132051
0.028211 0.829768 0.176454
0.023932 0.810587 0.140817
0.023367 0.791659 0.102694
0.019088 0.775503 0.051484
0.442772 0.758363 0.030766
0.757165 0.741658 0.020329
0.925519 0.706820 0.057969
0.928395 0.540740 0.066094
0.934009 0.372257 0.079410
0.038847 0.985654 0.099727
0.033974 0.975153 0.063782
0.029684 0.967975 0.026328
0.025788 0.956770 0.000012
0.179465 0.946655 0.000250
0.659647 0.929879 0.000793
0.915186 0.908402 0.049363
0.926600 0.818134 0.055910
0.926708 0.689795 0.056856
0.032594 0.999953 0.000000
0.030249 0.999337 0.000421
0.022818 0.999838 0.000199
0.022818 0.999838 0.000199
0.022818 0.999838 0.000199
0.387247 0.998994 0.000000
0.795265 1.000000 0.026919
0.933681 0.996624 0.069133
0.929451 0.914738 0.056421
0.025165 1.000000 0.001176
0.022818 0.999838 0.000199
0.022818 0.999838 0.000199
0.022818 0.999838 0.000199
0.022818 0.999838 0.000199
0.022818 0.999838 0.000199
0.545998 0.999431 0.000706
0.882067 0.999125 0.063137
0.932505 0.999629 0.082445
0.029832 0.011644 0.435750
0.032590 0.003717 0.349399
0.299667 0.000000 0.296093
0.592153 0.005355 0.226821
0.862552 0.011107 0.130477
0.933907 0.012824 0.140070
0.933907 0.012824 0.140070
0.933907 0.012824 0.140070
0.933907 0.012824 0.140070
0.031725 0.079230 0.459683
0.025513 0.047868 0.354778
0.208356 0.007510 0.305758
0.459202 0.002277 0.265852
0.730972 0.009684 0.157394
0.933907 0.012824 0.140070
0.933907 0.012824 0.140070
0.933907 0.012824 0.140070
0.933907 0.012824 0.140070
0.032596 0.211234 0.445871
0.027159 0.184495 0.357961
0.129240 0.162620 0.305651
0.371501 0.136887 0.282469
0.648381 0.093726 0.249656
0.887769 0.012536 0.134074
0.933907 0.012824 0.140070
0.933907 0.012824 0.140070
0.933907 0.012824 0.140070
0.035570 0.394170 0.446981
0.032095 0.354691 0.376684
0.027242 0.325898 0.314954
0.302734 0.302734 0.302734
0.598562 0.278470 0.277116
0.849841 0.236322 0.177741
0.935008 0.103492 0.124339
0.933907 0.012824 0.140070
0.933907 0.012824 0.140070
0.039875 0.622404 0.451207
0.035999 0.593241 0.397376
0.033683 0.568043 0.344743
0.201061 0.545672 0.312187
0.542242 0.525043 0.294519
0.814423 0.498368 0.231981
0.931422 0.425653 0.076804
0.935101 0.228858 0.103913
0.934826 0.086157 0.128419
0.047722 0.824240 0.444999
0.041682 0.809111 0.401687
0.038379 0.792922 0.356645
0.032732 0.778471 0.300243
0.430017 0.761563 0.296160
0.761425 0.745525 0.254797
0.927273 0.716116 0.056907
0.928577 0.558076 0.062016
0.934191 0.388921 0.078794
0.061489 0.969999 0.403636
0.057199 0.962821 0.366183
0.054671 0.953607 0.326024
0.049799 0.945460 0.277966
0.124892 0.937539 0.216027
0.648080 0.927146 0.207969
0.905994 0.911609 0.048386
0.926983 0.827791 0.056577
0.925330 0.702160 0.056769
0.055226 0.999662 0.284457
0.054059 0.999737 0.252864
0.052307 0.999180 0.208933
0.045471 0.999401 0.165759
0.044302 0.999813 0.132433
0.359269 0.999779 0.111749
0.775131 0.999600 0.015644
0.932896 0.999972 0.071086
0.931596 0.922360 0.054383
0.052307 0.999180 0.208933
0.046841 0.999712 0.160567
0.042743 1.000000 0.108738
0.040598 0.999655 0.074438
0.036109 0.999483 0.035700
0.033570 1.000000 0.004105
0.515303 1.000000 0.000570
0.865255 0.999517 0.053817
0.932505 0.999629 0.082445
0.045791 0.040482 0.733680
0.040545 0.020083 0.638317
0.280076 0.000000 0.533887
0.588017 0.000000 0.446332
0.853532 0.005006 0.322609
0.933907 0.012824 0.140070
0.933907 0.012824 0.140070
0.933907 0.012824 0.140070
0.933907 0.012824 0.140070
0.047111 0.097784 0.734979
0.040315 0.067133 0.610816
0.186803 0.020310 0.527668
0.458781 0.000000 0.469036
0.736217 0.001517 0.399848
0.938005 0.009292 0.207473
0.933907 0.012824 0.140070
0.933907 0.012824 0.140070
0.933907 0.012824 0.140070
0.047004 0.232509 0.701156
0.041767 0.200779 0.604149
0.064287 0.174409 0.518106
0.366569 0.149676 0.486543
0.658309 0.105850 0.452445
0.900446 0.003532 0.378481
0.933907 0.012824 0.140070
0.933907 0.012824 0.140070
0.933907 0.012824 0.140070
0.049002 0.418164 0.682254
0.045136 0.380695 0.611204
0.040089 0.347912 0.544813
0.288018 0.324051 0.522829
0.606527 0.295603 0.502093
0.863082 0.250278 0.439504
0.942379 0.149471 0.245179
0.933907 0.012824 0.140070
0.933907 0.012824 0.140070
0.052148 0.631782 0.670548
0.048070 0.607946 0.624082
0.045945 0.586400 0.577840
0.149004 0.562476 0.542081
0.541016 0.541016 0.541016
0.819256 0.511513 0.494274
0.942698 0.446635 0.350371
0.935666 0.255851 0.100503
0.934616 0.105503 0.123587
0.064899 0.816848 0.660742
0.058073 0.804057 0.624575
0.054961 0.791522 0.585922
0.053218 0.778960 0.543809
0.398890 0.762873 0.542383
0.759423 0.748137 0.529290
0.945395 0.718152 0.410074
0.933813 0.586446 0.176328
0.933002 0.406282 0.078175
0.077889 0.952943 0.628341
0.075552 0.946373 0.599762
0.070479 0.941871 0.567723
0.068535 0.934301 0.534707
0.063662 0.927160 0.481458
0.630443 0.918406 0.504820
0.912197 0.902213 0.423160
0.938290 0.830911 0.242148
0.926296 0.715139 0.055930
0.074940 0.990487 0.536984
0.074355 0.992878 0.509074
0.070449 0.994349 0.477481
0.067912 0.995793 0.442426
0.065768 0.996238 0.402935
0.320905 0.997511 0.403942
0.766475 0.999605 0.346712
0.932896 0.999972 0.071086
0.930419 0.928054 0.053852
0.070449 0.994685 0.475750
0.066936 0.996161 0.434528
0.064791 0.997278 0.391574
0.058932 0.999820 0.342453
0.057179 0.999934 0.295063
0.054059 0.999401 0.254593
0.505680 0.999244 0.270180
0.843358 0.999345 0.052172
0.932505 0.999629 0.082445
0.060763 0.088077 0.989015
0.055517 0.067342 0.895383
0.227234 0.013977 0.796883
0.585037 0.000060 0.726769
0.858374 0.000098 0.617868
0.946393 0.005209 0.352128
0.933907 0.012824 0.140070
0.933907 0.012824 0.140070
0.933907 0.012824 0.140070
0.060342 0.130466 0.960317
0.054520 0.097093 0.856164
0.086635 0.056527 0.758094
0.450919 0.000000 0.720364
0.744191 0.000000 0.661250
0.956923 0.000010 0.539737
0.933907 0.012824 0.140070
0.933907 0.012824 0.140070
0.933907 0.012824 0.140070
0.059851 0.258558 0.910251
0.053830 0.227823 0.827310
0.050154 0.197031 0.747074
0.346767 0.170092 0.716043
0.669787 0.125539 0.697879
0.917802 0.000032 0.659363
0.948538 0.003758 0.396812
0.933907 0.012824 0.140070
0.933907 0.012824 0.140070
0.060489 0.436939 0.872398
0.056029 0.406135 0.811422
0.051760 0.378648 0.758566
0.240451 0.351782 0.736087
0.606861 0.317890 0.737676
0.874561 0.265934 0.705704
0.960694 0.164569 0.556285
0.937422 0.010338 0.186485
0.933907 0.012824 0.140070
0.062478 0.635269 0.848218
0.059175 0.617737 0.810098
0.055872 0.600540 0.770246
0.054724 0.579298 0.728441
0.508318 0.557759 0.746152
0.819791 0.526457 0.732871
0.957692 0.461822 0.652602
0.949614 0.346355 0.428844
0.936118 0.178124 0.131192
0.074463 0.803038 0.826696
0.071150 0.795828 0.795410
0.069991 0.784236 0.763903
0.064726 0.774738 0.732395
0.326719 0.761194 0.731759
0.747070 0.747070 0.747070
0.960989 0.715679 0.698855
0.952490 0.621429 0.555419
0.940727 0.475410 0.310175
0.088439 0.929786 0.788433
0.083949 0.926590 0.765269
0.082198 0.922671 0.738645
0.081029 0.921066 0.715704
0.077717 0.914529 0.680957
0.580762 0.904521 0.715184
0.903168 0.891648 0.698269
0.960912 0.827837 0.601262
0.944216 0.730231 0.376663
0.089578 0.983531 0.722863
0.087625 0.985947 0.698415
0.086064 0.986690 0.672988
0.085873 0.986734 0.647563
0.080598 0.988230 0.619430
0.165646 0.990030 0.592684
0.742969 0.998017 0.630695
0.962940 0.989580 0.525512
0.946215 0.921599 0.328344
0.087434 0.985992 0.672988
0.084896 0.986765 0.641394
0.079621 0.989269 0.608071
0.078453 0.989346 0.576477
0.074940 0.990487 0.536984
0.073772 0.992243 0.496739
0.483745 0.993985 0.534684
0.845243 0.999622 0.482679
0.938948 1.000000 0.131790
0.062305 0.113358 1.000000
0.063090 0.109674 1.000000
0.059997 0.069435 0.984218
0.549601 0.012820 0.959595
0.855789 0.000000 0.893867
0.966670 0.000000 0.720649
0.943272 0.006357 0.303008
0.933907 0.012824 0.140070
0.933907 0.012824 0.140070
0.063251 0.149672 0.999414
0.063655 0.135995 1.000000
0.060370 0.095801 0.958844
0.401390 0.037191 0.931582
0.746498 0.000159 0.902418
0.972127 0.000000 0.829497
0.956340 0.000048 0.523941
0.933907 0.012824 0.140070
0.933907 0.012824 0.140070
0.063547 0.267359 0.983734
0.062972 0.252033 0.987059
0.060656 0.226835 0.934426
0.276136 0.196382 0.902985
0.662691 0.153032 0.909012
0.921248 0.042586 0.893798
0.965693 0.000000 0.714480
0.945808 0.005920 0.332872
0.933907 0.012824 0.140070
0.064386 0.437390 0.954090
0.064789 0.423040 0.958391
0.061878 0.402154 0.927947
0.061908 0.374882 0.888402
0.571034 0.342072 0.921294
0.866297 0.288463 0.911199
0.974709 0.184157 0.829852
0.956923 0.000010 0.539737
0.945808 0.004912 0.338064
0.066586 0.618054 0.926089
0.066395 0.613394 0.924891
0.065035 0.603096 0.921516
0.063293 0.588182 0.891515
0.427931 0.566986 0.900919
0.797855 0.538338 0.909122
0.969180 0.474885 0.872164
0.962078 0.356025 0.671879
0.957131 0.230096 0.485216
0.077412 0.770534 0.892093
0.077019 0.772544 0.891340
0.077804 0.768524 0.892848
0.075659 0.764263 0.877583
0.176554 0.752691 0.860995
0.700519 0.741207 0.899352
0.959008 0.711760 0.886995
0.963778 0.644186 0.759851
0.955278 0.547918 0.626797
0.090412 0.893282 0.868430
0.088650 0.896325 0.865946
0.090019 0.895628 0.865946
0.090412 0.896307 0.852856
0.088660 0.891715 0.829691
0.474008 0.885364 0.853965
0.873047 0.873047 0.873047
0.974172 0.828205 0.813011
0.962331 0.749647 0.700328
0.099725 0.979766 0.852699
0.098749 0.980134 0.844801
0.099536 0.979810 0.827274
0.097583 0.981218 0.808016
0.096021 0.981287 0.786051
0.095829 0.982340 0.755434
0.673153 0.987974 0.805559
0.980508 0.972784 0.780079
0.969039 0.910173 0.695663
0.097189 0.981211 0.817645
0.095630 0.981617 0.793950
0.094068 0.981687 0.771985
0.090747 0.984464 0.749266
0.088208 0.984565 0.721132
0.087040 0.985313 0.686078
0.346870 0.987145 0.689039
0.822915 0.999062 0.732586
0.968004 1.000000 0.586882
0.062686 0.123352 0.999363
0.062888 0.116681 0.998918
0.062898 0.104678 1.000000
0.408983 0.063246 1.000000
0.826835 0.000203 0.999872
0.982265 0.000000 0.997317
0.965311 0.000000 0.663629
0.945999 0.004531 0.365218
0.941712 0.007435 0.275851
0.063059 0.144676 0.999944
0.062285 0.136693 1.000000
0.063271 0.126337 0.999586
0.249617 0.094489 1.000000
0.710690 0.017809 0.999683
0.967406 0.000047 1.000000
0.973103 0.000000 0.832203
0.952242 0.001227 0.468652
0.948538 0.004093 0.395083
0.063184 0.233359 0.988430
0.063374 0.238020 0.989628
0.063374 0.238356 0.987898
0.063383 0.226352 0.989715
0.603608 0.183882 0.999356
0.906913 0.096076 0.998617
0.979728 0.000492 0.965723
0.964334 0.000000 0.657461
0.954387 0.000000 0.515067
0.065804 0.376004 0.966632
0.065603 0.383010 0.965348
0.064817 0.386694 0.965570
0.064817 0.386694 0.965570
0.462106 0.362393 0.999559
0.833417 0.311394 0.999280
0.983458 0.208359 0.999229
0.972127 0.000557 0.822574
0.962381 0.000390 0.643395
0.065275 0.546732 0.936988
0.064681 0.555748 0.934949
0.065265 0.558736 0.935172
0.066826 0.563370 0.932910
0.257835 0.562376 0.959602
0.743683 0.540078 0.999415
0.975996 0.481531 0.999961
0.970446 0.365194 0.868278
0.969395 0.243411 0.744270
0.072186 0.705965 0.904192
0.071007 0.711659 0.903661
0.070806 0.718665 0.902375
0.073344 0.723941 0.902821
0.072951 0.726623 0.898605
0.596906 0.720421 0.969754
0.923419 0.696381 0.999562
0.972948 0.634402 0.914668
0.964832 0.544096 0.801316
0.084008 0.834742 0.878266
0.083807 0.841413 0.878711
0.083998 0.846745 0.876449
0.084190 0.852078 0.874188
0.084381 0.856739 0.875386
0.305500 0.851733 0.903723
0.808143 0.846664 0.982102
0.981591 0.812486 0.951586
0.973053 0.756166 0.852797
0.096433 0.942165 0.857926
0.097994 0.946463 0.857395
0.097209 0.950147 0.857616
0.097401 0.955144 0.857086
0.097591 0.960141 0.856555
0.097591 0.960141 0.856555
0.537867 0.957489 0.923301
0.947266 0.947266 0.947266
0.982309 0.902907 0.886735
0.099725 0.979766 0.852699
0.099725 0.979766 0.852699
0.099725 0.979766 0.852699
0.099725 0.979766 0.852699
0.099725 0.979766 0.852699
0.099142 0.980139 0.835172
0.097583 0.981218 0.808016
0.769718 0.992032 0.874039
0.985753 0.999904 0.840833
0.062686 0.123352 0.999363
0.062686 0.123352 0.999363
0.062305 0.113358 1.000000
0.062315 0.101691 1.000000
0.715159 0.048709 1.000000
0.990672 0.000195 0.998515
0.978560 0.000000 0.939321
0.964133 0.000000 0.692517
0.961213 0.000803 0.610070
0.063645 0.147663 1.000000
0.063846 0.140991 0.999723
0.064831 0.130301 1.000000
0.062305 0.113358 1.000000
0.578677 0.070106 0.999546
0.932020 0.000000 0.999972
0.984611 0.000000 0.998293
0.970375 0.000000 0.778644
0.967062 0.000000 0.711020
0.063002 0.216023 0.992509
0.063394 0.214350 0.991533
0.063394 0.214350 0.991533
0.064179 0.209993 0.994769
0.411401 0.208528 0.999648
0.843137 0.143508 0.998753
0.992040 0.000000 0.998515
0.977000 0.000000 0.917355
0.971543 0.000258 0.808508
0.063890 0.325702 0.973676
0.064082 0.330698 0.973145
0.064666 0.334020 0.971637
0.065642 0.334996 0.972613
0.245104 0.348599 0.997266
0.733690 0.331963 1.000000
0.987930 0.239259 0.999726
0.983778 0.061682 0.999817
0.977392 0.000000 0.905996
0.064741 0.483393 0.947578
0.064347 0.485403 0.946824
0.065516 0.491713 0.945539
0.065314 0.498383 0.945985
0.064137 0.504413 0.943723
0.609968 0.524742 1.000000
0.923596 0.486707 0.999378
0.978440 0.365474 1.000000
0.978738 0.253221 0.943374
0.067724 0.661045 0.915894
0.068128 0.647032 0.918464
0.066950 0.653063 0.916204
0.068118 0.659035 0.916649
0.066939 0.665065 0.914386
0.431750 0.665478 0.957695
0.824709 0.671593 1.000000
0.979996 0.607441 1.000000
0.973419 0.530653 0.959370
0.081874 0.815117 0.882122
0.080514 0.803812 0.883937
0.079345 0.797502 0.885222
0.079154 0.792170 0.887485
0.080322 0.798479 0.886199
0.078369 0.796526 0.884246
0.704176 0.796678 0.972493
0.974957 0.788225 0.999680
0.979113 0.731493 0.981074
0.096041 0.944174 0.857171
0.095849 0.938841 0.859433
0.092920 0.935240 0.859965
0.093705 0.931220 0.861473
0.091751 0.928594 0.862979
0.093322 0.921562 0.860804
0.369580 0.907296 0.903566
0.873390 0.907865 0.984121
0.988369 0.882269 0.994246
0.099725 0.979766 0.852699
0.099725 0.979766 0.852699
0.099725 0.979766 0.852699
0.099725 0.979766 0.852699
0.099725 0.979766 0.852699
0.099725 0.979766 0.852699
0.099725 0.979766 0.852699
0.652212 0.986570 0.936234
1.000000 1.000000 1.000000
