Sources/Resources/LUT/gfx-eterna-55-3d-lut-v100/33Grid/F-Log/FLog_to_ETERNA_33grid_V.1.00.cube
#title:FLog_to_ETERNA
#model:GFX ETERNA 55
#FUJIFILM Corporation
#Gamma:F-Log to ETERNA
#Gamut:F-Gamut to ITU-R BT.709
#Version:1.00
LUT_3D_SIZE 5
0.005859 0.005859 0.005859
0.341928 0.008242 0.054445
0.933907 0.012824 0.140070
0.933907 0.012824 0.140070
0.933907 0.012824 0.140070
0.006680 0.194520 0.000269
0.166256 0.143931 0.004981
0.672692 0.042754 0.097136
0.933907 0.012824 0.140070
0.933907 0.012824 0.140070
0.008492 0.597819 0.000500
0.007383 0.521842 0.000571
0.550928 0.481971 0.005242
0.933817 0.366924 0.081672
0.933907 0.012824 0.140070
0.022628 0.994840 0.000730
0.017764 0.965952 0.000000
0.256702 0.933921 0.000301
0.926733 0.893470 0.053133
0.925751 0.665147 0.057782
0.022818 0.999838 0.000199
0.022818 0.999838 0.000199
0.022818 0.999838 0.000199
0.594875 0.999669 0.000000
0.932505 0.999629 0.082445
0.015797 0.004972 0.215657
0.311616 0.005818 0.120734
0.889139 0.012174 0.132343
0.933907 0.012824 0.140070
0.933907 0.012824 0.140070
0.020715 0.200519 0.223824
0.152344 0.152344 0.152344
0.643729 0.077753 0.087114
0.933907 0.012824 0.140070
0.933907 0.012824 0.140070
0.026433 0.611757 0.207195
0.020633 0.549673 0.130903
0.541315 0.510092 0.065551
0.932419 0.403295 0.077953
0.934846 0.062151 0.132051
0.038847 0.985654 0.099727
0.029684 0.967975 0.026328
0.179465 0.946655 0.000250
0.915186 0.908402 0.049363
0.926708 0.689795 0.056856
0.025165 1.000000 0.001176
0.022818 0.999838 0.000199
0.022818 0.999838 0.000199
0.545998 0.999431 0.000706
0.932505 0.999629 0.082445
0.045791 0.040482 0.733680
0.280076 0.000000 0.533887
0.853532 0.005006 0.322609
0.933907 0.012824 0.140070
0.933907 0.012824 0.140070
0.047004 0.232509 0.701156
0.064287 0.174409 0.518106
0.658309 0.105850 0.452445
0.933907 0.012824 0.140070
0.933907 0.012824 0.140070
0.052148 0.631782 0.670548
0.045945 0.586400 0.577840
0.541016 0.541016 0.541016
0.942698 0.446635 0.350371
0.934616 0.105503 0.123587
0.077889 0.952943 0.628341
0.070479 0.941871 0.567723
0.063662 0.927160 0.481458
0.912197 0.902213 0.423160
0.926296 0.715139 0.055930
0.070449 0.994685 0.475750
0.064791 0.997278 0.391574
0.057179 0.999934 0.295063
0.505680 0.999244 0.270180
0.932505 0.999629 0.082445
0.062305 0.113358 1.000000
0.059997 0.069435 0.984218
0.855789 0.000000 0.893867
0.943272 0.006357 0.303008
0.933907 0.012824 0.140070
0.063547 0.267359 0.983734
0.060656 0.226835 0.934426
0.662691 0.153032 0.909012
0.965693 0.000000 0.714480
0.933907 0.012824 0.140070
0.066586 0.618054 0.926089
0.065035 0.603096 0.921516
0.427931 0.566986 0.900919
0.969180 0.474885 0.872164
0.957131 0.230096 0.485216
0.090412 0.893282 0.868430
0.090019 0.895628 0.865946
0.088660 0.891715 0.829691
0.873047 0.873047 0.873047
0.962331 0.749647 0.700328
0.097189 0.981211 0.817645
0.094068 0.981687 0.771985
0.088208 0.984565 0.721132
0.346870 0.987145 0.689039
0.968004 1.000000 0.586882
0.062686 0.123352 0.999363
0.062305 0.113358 1.000000
0.715159 0.048709 1.000000
0.978560 0.000000 0.939321
0.961213 0.000803 0.610070
0.063002 0.216023 0.992509
0.063394 0.214350 0.991533
0.411401 0.208528 0.999648
0.992040 0.000000 0.998515
0.971543 0.000258 0.808508
0.064741 0.483393 0.947578
0.065516 0.491713 0.945539
0.064137 0.504413 0.943723
0.923596 0.486707 0.999378
0.978738 0.253221 0.943374
0.081874 0.815117 0.882122
0.079345 0.797502 0.885222
0.080322 0.798479 0.886199
0.704176 0.796678 0.972493
0.979113 0.731493 0.981074
0.099725 0.979766 0.852699
0.099725 0.979766 0.852699
0.099725 0.979766 0.852699
0.099725 0.979766 0.852699
1.000000 1.000000 1.000000
