Sources/Resources/LUT/gfx-eterna-55-3d-lut-v100/33Grid/F-Log/FLog_to_ETERNA-BB_33grid_V.1.00.cube
#title:FLog_to_ETERNA-BB
#model:GFX ETERNA 55
#FUJIFILM Corporation
#Gamma:F-Log to ETERNA BLEACH BYPASS
#Gamut:F-Gamut to ITU-R BT.709
#Version:1.00
LUT_3D_SIZE 9
0.000000 0.000000 0.000000
0.057082 0.005704 0.009371
0.205455 0.020661 0.040055
0.457461 0.020634 0.064535
0.577897 0.014575 0.079680
0.586302 0.015051 0.080878
0.586302 0.015051 0.080878
0.586302 0.015051 0.080878
0.586302 0.015051 0.080878
0.006031 0.033855 0.006887
0.019733 0.015549 0.005243
0.127263 0.012108 0.023625
0.341526 0.021583 0.055337
0.520614 0.016213 0.067294
0.586302 0.015051 0.080878
0.586302 0.015051 0.080878
0.586302 0.015051 0.080878
0.586302 0.015051 0.080878
0.023751 0.114093 0.026965
0.018295 0.094557 0.021945
0.099821 0.094042 0.033492
0.265620 0.080288 0.054942
0.466039 0.048097 0.071952
0.568121 0.014796 0.078481
0.586302 0.015051 0.080878
0.586302 0.015051 0.080878
0.586302 0.015051 0.080878
0.052942 0.270049 0.063970
0.046527 0.226873 0.054683
0.094055 0.203467 0.059121
0.225634 0.196488 0.075464
0.456539 0.178921 0.108547
0.602979 0.166909 0.146102
0.607758 0.070193 0.109028
0.586302 0.015051 0.080878
0.586302 0.015051 0.080878
0.139326 0.520633 0.157577
0.120600 0.474084 0.137997
0.105770 0.442771 0.123965
0.249269 0.438489 0.163695
0.506724 0.462945 0.227719
0.733279 0.493417 0.298973
0.758376 0.412547 0.281208
0.639343 0.166411 0.156090
0.608342 0.073180 0.109250
0.225550 0.732564 0.245055
0.217747 0.713084 0.237328
0.210528 0.696256 0.231554
0.285992 0.694200 0.249801
0.553785 0.742740 0.325457
0.816887 0.792064 0.392237
0.914057 0.784849 0.414391
0.847356 0.600084 0.367125
0.733780 0.370796 0.260871
0.257333 0.824800 0.277828
0.254213 0.816875 0.275430
0.251092 0.808949 0.273032
0.248948 0.802335 0.269878
0.459659 0.848194 0.320590
0.790977 0.915652 0.389202
0.926061 0.925250 0.413806
0.931968 0.874117 0.413172
0.908792 0.769637 0.412302
0.259872 0.829741 0.280004
0.259872 0.829741 0.280004
0.259872 0.829741 0.280004
0.259872 0.829741 0.280004
0.298570 0.841861 0.287422
0.630463 0.923973 0.356171
0.888490 0.965435 0.408218
0.941082 0.963239 0.418652
0.939742 0.929606 0.415449
0.259872 0.829741 0.280004
0.259872 0.829741 0.280004
0.259872 0.829741 0.280004
0.259872 0.829741 0.280004
0.259872 0.829741 0.280004
0.381053 0.863977 0.308426
0.738557 0.946516 0.376336
0.923093 0.967981 0.415723
0.938536 0.969630 0.418121
0.002536 0.001579 0.019480
0.052391 0.004809 0.009149
0.193727 0.018592 0.038633
0.436542 0.021774 0.062137
0.568121 0.014796 0.078481
0.586302 0.015051 0.080878
0.586302 0.015051 0.080878
0.586302 0.015051 0.080878
0.586302 0.015051 0.080878
0.010129 0.036708 0.041410
0.016602 0.016602 0.016602
0.118463 0.013305 0.023402
0.325298 0.023282 0.054892
0.511814 0.017074 0.068801
0.586302 0.015051 0.080878
0.586302 0.015051 0.080878
0.586302 0.015051 0.080878
0.586302 0.015051 0.080878
0.029803 0.118228 0.066903
0.023762 0.099402 0.042625
0.096105 0.093789 0.035977
0.256036 0.085506 0.053211
0.459384 0.055909 0.074882
0.564799 0.014212 0.073066
0.586302 0.015051 0.080878
0.586302 0.015051 0.080878
0.586302 0.015051 0.080878
0.062113 0.281102 0.111495
0.051400 0.237710 0.088898
0.093068 0.211469 0.071902
0.218397 0.201649 0.076441
0.451254 0.186035 0.111477
0.604922 0.179521 0.153160
0.612630 0.086070 0.117285
0.586302 0.015051 0.080878
0.586302 0.015051 0.080878
0.155143 0.533526 0.212472
0.132701 0.489410 0.181531
0.117287 0.458136 0.151703
0.248474 0.453168 0.167294
0.502998 0.474022 0.231847
0.735807 0.509351 0.304523
0.771061 0.436909 0.293816
0.646953 0.180558 0.166077
0.614785 0.082025 0.115332
0.232184 0.739350 0.286945
0.225358 0.723199 0.268082
0.215602 0.705126 0.241097
0.283053 0.702266 0.250247
0.549869 0.749157 0.328387
0.817662 0.799712 0.393660
0.915024 0.797494 0.415281
0.855158 0.619564 0.374852
0.747833 0.394462 0.273481
0.255965 0.825497 0.277828
0.255190 0.817852 0.276407
0.250699 0.810958 0.272277
0.249531 0.805321 0.270102
0.451252 0.848053 0.317660
0.784916 0.915792 0.387249
0.927622 0.929885 0.411543
0.932745 0.882100 0.412863
0.912496 0.780886 0.413191
0.259872 0.829741 0.280004
0.259872 0.829741 0.280004
0.259872 0.829741 0.280004
0.259872 0.829741 0.280004
0.297202 0.842222 0.289153
0.616389 0.921626 0.353773
0.883799 0.964877 0.406266
0.940297 0.966923 0.418875
0.940326 0.932594 0.415672
0.259872 0.829741 0.280004
0.259872 0.829741 0.280004
0.259872 0.829741 0.280004
0.259872 0.829741 0.280004
0.259872 0.829741 0.280004
0.374409 0.861466 0.304520
0.725852 0.943136 0.375669
0.920746 0.968038 0.413016
0.938536 0.969630 0.418121
0.017185 0.006482 0.084312
0.051203 0.010073 0.070829
0.178274 0.022225 0.069027
0.417775 0.018196 0.061247
0.559714 0.014991 0.073820
0.586302 0.015051 0.080878
0.586302 0.015051 0.080878
0.586302 0.015051 0.080878
0.586302 0.015051 0.080878
0.023408 0.041971 0.107973
0.014830 0.019886 0.072868
0.113369 0.016342 0.072524
0.308676 0.024973 0.064075
0.502039 0.017632 0.065872
0.586302 0.015051 0.080878
0.586302 0.015051 0.080878
0.586302 0.015051 0.080878
0.586302 0.015051 0.080878
0.038582 0.126922 0.136172
0.030587 0.107150 0.104750
0.102539 0.102539 0.102539
0.255241 0.091447 0.101801
0.453517 0.060372 0.075859
0.561084 0.014294 0.073820
0.586302 0.015051 0.080878
0.586302 0.015051 0.080878
0.586302 0.015051 0.080878
0.079289 0.299587 0.193992
0.062908 0.256676 0.158081
0.100862 0.230181 0.143571
0.226583 0.219360 0.143671
0.457295 0.201837 0.151329
0.602959 0.188228 0.156312
0.617313 0.097623 0.122613
0.586302 0.015051 0.080878
0.586302 0.015051 0.080878
0.177594 0.553203 0.309257
0.155736 0.514091 0.268156
0.139930 0.485163 0.235845
0.263104 0.478380 0.247526
0.518996 0.502569 0.291317
0.741263 0.528216 0.313004
0.784331 0.463922 0.308379
0.655732 0.201014 0.174780
0.616728 0.094973 0.120660
0.244276 0.752901 0.399614
0.239211 0.736731 0.367660
0.231409 0.720948 0.340898
0.289869 0.717648 0.333051
0.550827 0.762712 0.384567
0.815307 0.809083 0.402979
0.918145 0.806091 0.414218
0.863353 0.637705 0.379871
0.761888 0.418463 0.284359
0.267664 0.837362 0.408777
0.263960 0.829811 0.388852
0.261623 0.821561 0.368926
0.260657 0.812614 0.349000
0.436383 0.850976 0.367312
0.774749 0.918023 0.385296
0.923514 0.931977 0.411543
0.933911 0.887738 0.415038
0.915224 0.791159 0.413105
0.265128 0.840825 0.363339
0.264936 0.838180 0.351758
0.264351 0.837210 0.341153
0.263374 0.837578 0.333254
0.300906 0.845405 0.331574
0.601338 0.917967 0.352129
0.874417 0.963424 0.404091
0.941274 0.968236 0.418121
0.941887 0.936556 0.416871
0.262983 0.837572 0.342882
0.262791 0.835599 0.327839
0.262206 0.834966 0.315504
0.261623 0.832987 0.310090
0.261623 0.832987 0.310090
0.372062 0.861187 0.303543
0.708455 0.939533 0.371317
0.916055 0.967144 0.412793
0.938536 0.969630 0.418121
0.050973 0.019818 0.235410
0.048445 0.015310 0.171024
0.172003 0.026586 0.140114
0.408181 0.022647 0.123458
0.549939 0.015213 0.072622
0.586302 0.015051 0.080878
0.586302 0.015051 0.080878
0.586302 0.015051 0.080878
0.586302 0.015051 0.080878
0.060125 0.056558 0.270652
0.039436 0.032829 0.181543
0.115504 0.021517 0.143079
0.304358 0.030616 0.140574
0.499291 0.022292 0.109048
0.585326 0.014075 0.079902
0.586302 0.015051 0.080878
0.586302 0.015051 0.080878
0.586302 0.015051 0.080878
0.059654 0.146528 0.296899
0.046003 0.121285 0.222833
0.106819 0.112983 0.183169
0.253651 0.108035 0.174754
0.464239 0.079662 0.162570
0.561276 0.016266 0.088863
0.586302 0.015051 0.080878
0.586302 0.015051 0.080878
0.586302 0.015051 0.080878
0.107973 0.333004 0.366438
0.086517 0.285928 0.296759
0.106299 0.253223 0.250516
0.243164 0.243164 0.243164
0.476223 0.228273 0.239683
0.620326 0.213053 0.231356
0.623554 0.113140 0.129140
0.586302 0.015051 0.080878
0.586302 0.015051 0.080878
0.207647 0.586596 0.478243
0.191850 0.549697 0.426980
0.174875 0.517820 0.378648
0.285343 0.511354 0.370628
0.544951 0.538486 0.398090
0.771720 0.560365 0.418801
0.803459 0.494442 0.340915
0.661381 0.223867 0.187922
0.620826 0.103876 0.124036
0.267693 0.771443 0.568237
0.261260 0.756642 0.532825
0.252481 0.741227 0.498163
0.297260 0.735923 0.476558
0.555287 0.781418 0.507839
0.824661 0.823693 0.517380
0.927316 0.815464 0.470399
0.873894 0.656463 0.384136
0.773991 0.440175 0.295017
0.280521 0.856786 0.592001
0.277210 0.849239 0.562445
0.276635 0.839291 0.538082
0.272345 0.831104 0.505821
0.425208 0.860011 0.504293
0.774135 0.923153 0.523254
0.925457 0.932491 0.480899
0.937426 0.894326 0.414731
0.919907 0.803383 0.414973
0.276425 0.859980 0.526329
0.275257 0.857704 0.506849
0.273503 0.853786 0.480223
0.272335 0.851846 0.459011
0.281528 0.851662 0.444414
0.595056 0.923241 0.478504
0.871084 0.962746 0.459157
0.941274 0.968236 0.418121
0.941102 0.940240 0.417093
0.273503 0.853786 0.480223
0.272729 0.850844 0.454575
0.270001 0.846621 0.423512
0.268439 0.845346 0.408468
0.265903 0.843767 0.388988
0.383571 0.873095 0.409066
0.695348 0.939747 0.421723
0.908626 0.967644 0.412571
0.938536 0.969630 0.418121
0.102146 0.033639 0.466914
0.087497 0.030416 0.393429
0.181547 0.035439 0.309356
0.412844 0.034010 0.249746
0.560279 0.022156 0.172508
0.586302 0.015051 0.080878
0.586302 0.015051 0.080878
0.586302 0.015051 0.080878
0.586302 0.015051 0.080878
0.108178 0.066149 0.480723
0.084749 0.045495 0.382960
0.125442 0.029703 0.306152
0.316258 0.036145 0.269347
0.510215 0.031215 0.214348
0.591569 0.018165 0.145266
0.586302 0.015051 0.080878
0.586302 0.015051 0.080878
0.586302 0.015051 0.080878
0.115520 0.168636 0.490555
0.091114 0.141965 0.417773
0.117531 0.128145 0.351125
0.268079 0.127146 0.321191
0.483549 0.108361 0.289665
0.581582 0.023953 0.210183
0.586302 0.015051 0.080878
0.586302 0.015051 0.080878
0.586302 0.015051 0.080878
0.140763 0.365675 0.531962
0.119500 0.321578 0.472133
0.107418 0.284933 0.418387
0.265395 0.279739 0.407710
0.504112 0.277715 0.408806
0.657608 0.256985 0.378512
0.653598 0.167947 0.247856
0.586302 0.015051 0.080878
0.586302 0.015051 0.080878
0.233017 0.612468 0.621132
0.220925 0.584130 0.584605
0.205512 0.555208 0.542664
0.305229 0.547987 0.532469
0.577148 0.577148 0.577148
0.809786 0.595573 0.591692
0.848552 0.543834 0.507996
0.683047 0.257983 0.229554
0.625507 0.115429 0.129362
0.280953 0.787607 0.698657
0.277841 0.773053 0.670387
0.274339 0.759839 0.644825
0.291552 0.752155 0.622105
0.554271 0.796192 0.665722
0.838111 0.835780 0.693989
0.953089 0.825306 0.626241
0.903172 0.695987 0.480750
0.785308 0.465235 0.307624
0.290660 0.865023 0.720020
0.288908 0.859423 0.702046
0.285787 0.855194 0.680613
0.285797 0.847223 0.661664
0.406797 0.869502 0.666476
0.773511 0.928859 0.718229
0.933633 0.937672 0.672637
0.947565 0.900211 0.554863
0.920290 0.813041 0.415641
0.288898 0.875795 0.677734
0.287338 0.874521 0.662692
0.287147 0.873221 0.644188
0.282264 0.871363 0.623730
0.281096 0.869423 0.602519
0.584659 0.931857 0.658438
0.872807 0.969740 0.649918
0.952006 0.971153 0.529145
0.941102 0.940240 0.417093
0.286170 0.872244 0.643211
0.284026 0.870000 0.617562
0.282274 0.866081 0.590936
0.280129 0.864172 0.563558
0.278378 0.860589 0.535203
0.369074 0.881211 0.542363
0.695903 0.946817 0.580890
0.909392 0.967466 0.514274
0.939904 0.968934 0.418121
0.153934 0.036616 0.589879
0.132631 0.034484 0.553934
0.179948 0.040168 0.503356
0.428631 0.053674 0.449743
0.589748 0.046178 0.374149
0.610516 0.024963 0.214759
0.586302 0.015051 0.080878
0.586302 0.015051 0.080878
0.586302 0.015051 0.080878
0.151761 0.064668 0.588199
0.126560 0.048307 0.541511
0.124235 0.035446 0.485332
0.331078 0.046526 0.451148
0.537539 0.050637 0.402453
0.621823 0.041862 0.329378
0.596652 0.018057 0.141050
0.586302 0.015051 0.080878
0.586302 0.015051 0.080878
0.165343 0.185025 0.592445
0.142299 0.161929 0.557649
0.122576 0.142107 0.514422
0.287781 0.145435 0.492301
0.516924 0.140994 0.470986
0.618661 0.064809 0.407969
0.613244 0.029522 0.244090
0.586302 0.015051 0.080878
0.586302 0.015051 0.080878
0.210914 0.391620 0.625559
0.181819 0.355652 0.595817
0.154283 0.324320 0.563813
0.280004 0.314843 0.556992
0.540215 0.323307 0.576196
0.705238 0.306612 0.571997
0.698490 0.218295 0.444801
0.598605 0.018329 0.151656
0.586302 0.015051 0.080878
0.242189 0.619151 0.691155
0.234778 0.600350 0.670340
0.226784 0.578562 0.649301
0.308512 0.573395 0.650020
0.586684 0.604389 0.711696
0.822442 0.625699 0.754594
0.884656 0.583042 0.708266
0.789616 0.420849 0.490609
0.655934 0.182917 0.233171
0.286812 0.784056 0.752968
0.283107 0.775158 0.739965
0.282724 0.768190 0.725453
0.278434 0.756643 0.710495
0.531569 0.801529 0.774879
0.839844 0.839844 0.839844
0.964397 0.827083 0.818734
0.948064 0.740959 0.705383
0.862215 0.573878 0.497355
0.295150 0.861497 0.777793
0.292221 0.859912 0.767942
0.293398 0.855899 0.759821
0.290468 0.854313 0.749969
0.382344 0.868231 0.762852
0.751204 0.928825 0.845445
0.941618 0.940880 0.849333
0.966291 0.908112 0.773450
0.951520 0.835699 0.611114
0.294154 0.885872 0.766262
0.294547 0.885541 0.758364
0.293963 0.884236 0.749489
0.294748 0.882905 0.737152
0.293187 0.881293 0.723840
0.525403 0.929672 0.773711
0.872576 0.976796 0.828343
0.968578 0.979738 0.766988
0.955529 0.947255 0.625829
0.292986 0.883595 0.746781
0.293771 0.882264 0.734446
0.292210 0.880652 0.721132
0.291043 0.878376 0.701652
0.289875 0.876100 0.682172
0.340505 0.886642 0.674992
0.701148 0.952093 0.754124
0.918925 0.977231 0.738805
0.950829 0.973150 0.547649
0.178759 0.037365 0.606566
0.178759 0.037365 0.606566
0.153934 0.036952 0.588148
0.430948 0.063077 0.583707
0.611979 0.079392 0.556001
0.652861 0.071285 0.464817
0.604072 0.020486 0.186179
0.586302 0.015051 0.080878
0.586302 0.015051 0.080878
0.179334 0.051683 0.608433
0.170545 0.041213 0.608297
0.144551 0.036507 0.580780
0.328511 0.052055 0.575040
0.556265 0.070301 0.560472
0.650888 0.081241 0.521527
0.630812 0.044989 0.332532
0.593138 0.016173 0.117133
0.586302 0.015051 0.080878
0.202884 0.174799 0.623731
0.187834 0.171811 0.618625
0.165565 0.154347 0.595633
0.275439 0.155890 0.590766
0.537020 0.165673 0.599586
0.648312 0.112215 0.574383
0.651885 0.071318 0.458649
0.607586 0.023713 0.203176
0.596652 0.017720 0.142782
0.248263 0.376398 0.657374
0.231461 0.364451 0.651602
0.213691 0.341876 0.634555
0.261994 0.328468 0.628301
0.547021 0.347334 0.674489
0.730217 0.337519 0.698559
0.742809 0.257016 0.626035
0.631003 0.047968 0.342382
0.607586 0.023377 0.204905
0.290099 0.600696 0.720488
0.283455 0.597849 0.718312
0.268413 0.584538 0.706371
0.279960 0.572295 0.696296
0.562622 0.608503 0.770753
0.825745 0.633485 0.842899
0.907107 0.597342 0.832739
0.827290 0.459410 0.655825
0.721516 0.272454 0.439626
0.284879 0.756415 0.763301
0.283118 0.758787 0.764278
0.284879 0.756415 0.763301
0.282734 0.751146 0.753226
0.481918 0.786586 0.810723
0.816770 0.833603 0.898234
0.955779 0.826124 0.914801
0.952516 0.768643 0.842413
0.925048 0.671100 0.731410
0.293207 0.844516 0.793231
0.294184 0.845493 0.794208
0.294184 0.845829 0.792476
0.292815 0.847199 0.789016
0.341098 0.854437 0.796433
0.697444 0.913958 0.891673
0.934570 0.934570 0.934570
0.978584 0.911296 0.904708
0.968868 0.856301 0.827883
0.298836 0.890368 0.807931
0.300205 0.890006 0.806199
0.300598 0.889340 0.800032
0.298645 0.888059 0.794617
0.297668 0.888426 0.786718
0.434495 0.916971 0.820555
0.844409 0.977289 0.916819
0.985170 0.982803 0.913290
0.975625 0.953114 0.851335
0.299621 0.888699 0.797324
0.298645 0.888731 0.791156
0.296692 0.888122 0.782282
0.296107 0.886481 0.775137
0.296500 0.886486 0.765509
0.294939 0.884540 0.753926
0.637402 0.948391 0.837581
0.919874 0.983972 0.890074
0.975213 0.986525 0.808879
0.178759 0.037029 0.608297
0.178759 0.037365 0.606566
0.178759 0.037365 0.606566
0.383238 0.060411 0.628340
0.613519 0.091566 0.634899
0.681746 0.102401 0.614320
0.645250 0.063523 0.421949
0.611100 0.026606 0.221902
0.603488 0.019851 0.173844
0.178951 0.041690 0.609496
0.178759 0.037029 0.608297
0.178759 0.037029 0.608297
0.278456 0.049110 0.618696
0.551948 0.077961 0.626590
0.665518 0.102083 0.624258
0.666523 0.086207 0.532047
0.623785 0.039542 0.293347
0.613244 0.029858 0.242361
0.195676 0.145967 0.619774
0.197236 0.149929 0.620972
0.198213 0.150906 0.621949
0.220895 0.147395 0.623371
0.520388 0.170295 0.653675
0.657475 0.130230 0.646051
0.677840 0.100512 0.600032
0.646035 0.060175 0.419996
0.629835 0.045020 0.326363
0.226828 0.295233 0.643242
0.228188 0.306203 0.643157
0.231118 0.309469 0.644356
0.231118 0.309469 0.644356
0.508313 0.340159 0.701595
0.729422 0.342788 0.750610
0.764283 0.276388 0.718383
0.671396 0.103429 0.533384
0.645059 0.060544 0.412097
0.278640 0.514993 0.694997
0.278047 0.523002 0.698148
0.281560 0.529253 0.699570
0.280383 0.534947 0.699039
0.486796 0.575550 0.762394
0.800334 0.620675 0.872711
0.910821 0.587177 0.883898
0.849740 0.476062 0.768184
0.762512 0.311263 0.611985
0.278091 0.693931 0.743051
0.277891 0.700267 0.745227
0.276713 0.705960 0.744695
0.274166 0.712016 0.745894
0.392810 0.738288 0.787715
0.760291 0.804189 0.906563
0.940346 0.804742 0.954020
0.958184 0.757744 0.909371
0.929530 0.670505 0.834090
0.291677 0.807568 0.781907
0.290890 0.810916 0.783860
0.291081 0.815576 0.785058
0.292643 0.819539 0.786258
0.294596 0.821492 0.788211
0.613792 0.882172 0.889257
0.907600 0.917797 0.963184
0.974084 0.905317 0.955868
0.966110 0.864563 0.912504
0.295724 0.871110 0.803887
0.297677 0.873399 0.804109
0.298654 0.875048 0.801625
0.296893 0.877084 0.804332
0.298846 0.879037 0.806285
0.366670 0.895147 0.828129
0.778728 0.959390 0.941390
0.973633 0.973633 0.973633
0.986558 0.952050 0.948069
0.298836 0.890368 0.807931
0.298836 0.890368 0.807931
0.298836 0.890368 0.807931
0.298836 0.890368 0.807931
0.298836 0.890368 0.807931
0.297859 0.890063 0.803493
0.518346 0.934693 0.860594
0.899920 0.986329 0.947402
0.991019 0.995288 0.945019
0.178759 0.037029 0.608297
0.178759 0.037029 0.608297
0.178759 0.037365 0.606566
0.195573 0.037982 0.610696
0.567189 0.083257 0.645008
0.689156 0.114817 0.668016
0.676278 0.098565 0.588449
0.647978 0.069427 0.444360
0.639199 0.058381 0.387202
0.179143 0.046351 0.610696
0.178368 0.038703 0.609274
0.178759 0.037029 0.608297
0.178759 0.037365 0.606566
0.488412 0.070373 0.635278
0.661793 0.106776 0.661267
0.684868 0.106967 0.634024
0.659495 0.079415 0.499785
0.651301 0.069338 0.453234
0.195101 0.131314 0.619636
0.193148 0.129361 0.617683
0.193148 0.129361 0.617683
0.192957 0.124363 0.618216
0.420298 0.159553 0.645985
0.641628 0.137553 0.667040
0.688180 0.114513 0.663578
0.673349 0.096980 0.578598
0.664378 0.081609 0.518511
0.212218 0.233244 0.632399
0.214363 0.240530 0.632090
0.214948 0.243516 0.632313
0.214554 0.245190 0.633289
0.368184 0.287697 0.662515
0.676840 0.332981 0.741992
0.766236 0.273300 0.746292
0.699496 0.146295 0.641578
0.673159 0.093327 0.572208
0.262288 0.435065 0.669726
0.263265 0.436378 0.668973
0.265018 0.444665 0.673101
0.265793 0.452312 0.674523
0.310352 0.469956 0.689532
0.700475 0.575655 0.826762
0.876230 0.572629 0.878212
0.849942 0.459982 0.816192
0.785939 0.329900 0.720129
0.291621 0.648976 0.733457
0.291439 0.632984 0.730613
0.292607 0.638957 0.731058
0.290644 0.647999 0.732480
0.290836 0.652660 0.733681
0.637194 0.726036 0.852305
0.891497 0.773198 0.936167
0.954689 0.721436 0.942730
0.930123 0.651070 0.889774
0.288755 0.793643 0.775602
0.287004 0.785020 0.773204
0.287205 0.778684 0.771028
0.287990 0.775000 0.770804
0.288182 0.779661 0.772005
0.456670 0.816127 0.827632
0.844879 0.877236 0.942488
0.968234 0.884093 0.969128
0.967488 0.844133 0.954122
0.296701 0.872087 0.804864
0.298856 0.868378 0.801180
0.296903 0.866088 0.800958
0.295926 0.864775 0.801711
0.299056 0.861706 0.800734
0.297103 0.859753 0.798781
0.669083 0.922897 0.911460
0.942564 0.952661 0.974644
0.985582 0.944688 0.979973
0.298836 0.890368 0.807931
0.298836 0.890368 0.807931
0.298836 0.890368 0.807931
0.298836 0.890368 0.807931
0.298836 0.890368 0.807931
0.298836 0.890368 0.807931
0.415527 0.915023 0.846067
0.850458 0.980415 0.961949
1.000000 1.000000 1.000000
