Sources/Resources/LUT/gfx-eterna-55-3d-lut-v100/33Grid/F-Log/FLog_to_ETERNA_33grid_V.1.00.cube
#title:FLog_to_ETERNA
#model:GFX ETERNA 55
#FUJIFILM Corporation
#Gamma:F-Log to ETERNA
#Gamut:F-Gamut to ITU-R BT.709
#Version:1.00
LUT_3D_SIZE 33
0.005859 0.005859 0.005859
0.005859 0.005859 0.005859
0.005859 0.005859 0.005859
0.062750 0.007239 0.012301
0.114949 0.007053 0.021981
0.163434 0.007621 0.028953
0.213288 0.007827 0.034196
0.271546 0.008174 0.042366
0.341928 0.008242 0.054445
0.424429 0.009040 0.065238
0.512993 0.009700 0.077985
0.591779 0.010580 0.089530
0.670567 0.011125 0.102808
0.744662 0.011448 0.112403
0.815042 0.011852 0.122750
0.883078 0.011642 0.133851
0.933907 0.012824 0.140070
0.933907 0.012824 0.140070
0.933907 0.012824 0.140070
0.933907 0.012824 0.140070
0.933907 0.012824 0.140070
0.933907 0.012824 0.140070
0.933907 0.012824 0.140070
0.933907 0.012824 0.140070
0.933907 0.012824 0.140070
0.933907 0.012824 0.140070
0.933907 0.012824 0.140070
0.933907 0.012824 0.140070
0.933907 0.012824 0.140070
0.933907 0.012824 0.140070
0.933907 0.012824 0.140070
0.933907 0.012824 0.140070
0.933907 0.012824 0.140070
0.005859 0.005859 0.005859
0.005859 0.005859 0.005859
0.005859 0.005859 0.005859
0.044569 0.006648 0.011634
0.099114 0.007413 0.018828
0.148967 0.007284 0.025802
0.197451 0.007852 0.032774
0.251997 0.008616 0.039968
0.317686 0.008127 0.050094
0.389043 0.009507 0.061418
0.466854 0.009075 0.073718
0.545641 0.010292 0.083535
0.622082 0.010558 0.095836
0.698524 0.011158 0.106407
0.768904 0.011563 0.116754
0.838308 0.010991 0.126125
0.904974 0.011479 0.137226
0.933907 0.012824 0.140070
0.933907 0.012824 0.140070
0.933907 0.012824 0.140070
0.933907 0.012824 0.140070
0.933907 0.012824 0.140070
0.933907 0.012824 0.140070
0.933907 0.012824 0.140070
0.933907 0.012824 0.140070
0.933907 0.012824 0.140070
0.933907 0.012824 0.140070
0.933907 0.012824 0.140070
0.933907 0.012824 0.140070
0.933907 0.012824 0.140070
0.933907 0.012824 0.140070
0.933907 0.012824 0.140070
0.933907 0.012824 0.140070
0.005859 0.005859 0.005859
0.005859 0.005859 0.005859
0.005859 0.005859 0.005859
0.025017 0.007427 0.007503
0.084647 0.007076 0.015676
0.134500 0.006947 0.022648
0.181615 0.008212 0.029621
0.230099 0.008780 0.036593
0.286013 0.008511 0.045520
0.352681 0.008998 0.056621
0.426776 0.009319 0.066215
0.503217 0.009585 0.078516
0.579658 0.010187 0.089085
0.656100 0.010452 0.101386
0.726480 0.011193 0.110004
0.796861 0.011261 0.122083
0.863528 0.012419 0.129722
0.925502 0.012348 0.138872
0.933907 0.012824 0.140070
0.933907 0.012824 0.140070
0.933907 0.012824 0.140070
0.933907 0.012824 0.140070
0.933907 0.012824 0.140070
0.933907 0.012824 0.140070
0.933907 0.012824 0.140070
0.933907 0.012824 0.140070
0.933907 0.012824 0.140070
0.933907 0.012824 0.140070
0.933907 0.012824 0.140070
0.933907 0.012824 0.140070
0.933907 0.012824 0.140070
0.933907 0.012824 0.140070
0.933907 0.012824 0.140070
0.005064 0.021882 0.002535
0.005266 0.014876 0.003821
0.003705 0.010578 0.004352
0.010551 0.006755 0.006082
0.068810 0.007100 0.014254
0.117295 0.007668 0.021226
0.162064 0.008319 0.028953
0.208203 0.008607 0.034949
0.261771 0.008060 0.042898
0.320031 0.008405 0.051070
0.389043 0.009507 0.061418
0.464508 0.009132 0.071013
0.539580 0.010095 0.083313
0.613676 0.010417 0.092906
0.686402 0.011101 0.104230
0.756784 0.011506 0.114578
0.824818 0.011295 0.125680
0.887769 0.012536 0.134074
0.933907 0.012824 0.140070
0.933907 0.012824 0.140070
0.933907 0.012824 0.140070
0.933907 0.012824 0.140070
0.933907 0.012824 0.140070
0.933907 0.012824 0.140070
0.933907 0.012824 0.140070
0.933907 0.012824 0.140070
0.933907 0.012824 0.140070
0.933907 0.012824 0.140070
0.933907 0.012824 0.140070
0.933907 0.012824 0.140070
0.933907 0.012824 0.140070
0.933907 0.012824 0.140070
0.933907 0.012824 0.140070
0.005619 0.060207 0.000769
0.005236 0.050550 0.000102
0.005438 0.043880 0.000000
0.006031 0.035199 0.000000
0.040642 0.026412 0.005824
0.099104 0.019753 0.015281
0.144467 0.011385 0.025047
0.190022 0.008352 0.032551
0.239875 0.008223 0.039523
0.293443 0.007674 0.047473
0.357763 0.008218 0.055868
0.429121 0.009936 0.065461
0.504587 0.008887 0.078516
0.577313 0.009908 0.088109
0.650039 0.010591 0.099433
0.721789 0.010299 0.109780
0.787085 0.011818 0.119153
0.852776 0.011664 0.127547
0.913381 0.011953 0.138426
0.933907 0.012824 0.140070
0.933907 0.012824 0.140070
0.933907 0.012824 0.140070
0.933907 0.012824 0.140070
0.933907 0.012824 0.140070
0.933907 0.012824 0.140070
0.933907 0.012824 0.140070
0.933907 0.012824 0.140070
0.933907 0.012824 0.140070
0.933907 0.012824 0.140070
0.933907 0.012824 0.140070
0.933907 0.012824 0.140070
0.933907 0.012824 0.140070
0.933907 0.012824 0.140070
0.004804 0.099229 0.000000
0.005399 0.090548 0.000000
0.005207 0.085552 0.000000
0.005801 0.076871 0.000153
0.013824 0.068025 0.000000
0.077178 0.055590 0.008187
0.126840 0.050799 0.013961
0.172011 0.037437 0.024258
0.217184 0.024409 0.032825
0.271347 0.015180 0.041083
0.330784 0.009161 0.053246
0.397842 0.008309 0.061639
0.470569 0.008993 0.072966
0.543294 0.010013 0.082558
0.617391 0.009999 0.093883
0.686402 0.011101 0.104230
0.754437 0.011226 0.113601
0.820127 0.010736 0.123727
0.883078 0.011642 0.133851
0.933907 0.012824 0.140070
0.933907 0.012824 0.140070
0.933907 0.012824 0.140070
0.933907 0.012824 0.140070
0.933907 0.012824 0.140070
0.933907 0.012824 0.140070
0.933907 0.012824 0.140070
0.933907 0.012824 0.140070
0.933907 0.012824 0.140070
0.933907 0.012824 0.140070
0.933907 0.012824 0.140070
0.933907 0.012824 0.140070
0.933907 0.012824 0.140070
0.933907 0.012824 0.140070
0.006930 0.129513 0.000254
0.006154 0.121530 0.000562
0.004987 0.115556 0.000116
0.006163 0.109862 0.000649
0.005388 0.102215 0.000000
0.049383 0.096226 0.000340
0.107844 0.090239 0.006336
0.154970 0.079836 0.013396
0.200725 0.069796 0.022185
0.251565 0.058639 0.031950
0.306511 0.045055 0.043445
0.372997 0.028878 0.055164
0.441434 0.014990 0.067107
0.512993 0.009700 0.077985
0.585719 0.010047 0.091038
0.656100 0.010452 0.101386
0.724136 0.010578 0.110757
0.789432 0.012097 0.120130
0.852776 0.011664 0.127547
0.912011 0.012987 0.136694
0.933907 0.012824 0.140070
0.933907 0.012824 0.140070
0.933907 0.012824 0.140070
0.933907 0.012824 0.140070
0.933907 0.012824 0.140070
0.933907 0.012824 0.140070
0.933907 0.012824 0.140070
0.933907 0.012824 0.140070
0.933907 0.012824 0.140070
0.933907 0.012824 0.140070
0.933907 0.012824 0.140070
0.933907 0.012824 0.140070
0.933907 0.012824 0.140070
0.005923 0.163202 0.000749
0.005148 0.155554 0.000000
0.003980 0.149581 0.000000
0.004182 0.142575 0.000167
0.006728 0.136183 0.000700
0.020420 0.129545 0.000000
0.085726 0.121080 0.000000
0.136758 0.115592 0.005546
0.183098 0.108537 0.014559
0.233153 0.101737 0.021086
0.286338 0.090860 0.031828
0.346560 0.081492 0.042039
0.416760 0.064560 0.056464
0.489305 0.048244 0.070136
0.559313 0.026652 0.083364
0.628143 0.010754 0.096059
0.696178 0.010880 0.105431
0.761868 0.010389 0.115554
0.824818 0.011631 0.123949
0.886792 0.011559 0.133097
0.933907 0.012824 0.140070
0.933907 0.012824 0.140070
0.933907 0.012824 0.140070
0.933907 0.012824 0.140070
0.933907 0.012824 0.140070
0.933907 0.012824 0.140070
0.933907 0.012824 0.140070
0.933907 0.012824 0.140070
0.933907 0.012824 0.140070
0.933907 0.012824 0.140070
0.933907 0.012824 0.140070
0.933907 0.012824 0.140070
0.933907 0.012824 0.140070
0.006680 0.194520 0.000269
0.006882 0.187849 0.000000
0.006105 0.179866 0.000133
0.005913 0.174869 0.000663
0.005138 0.167222 0.000000
0.004947 0.162226 0.000000
0.061455 0.154956 0.000356
0.116201 0.150395 0.000184
0.166256 0.143931 0.004981
0.215335 0.135482 0.013992
0.266365 0.129322 0.023226
0.326196 0.121965 0.032683
0.393848 0.112097 0.043118
0.466192 0.102787 0.055504
0.534237 0.090573 0.068421
0.605221 0.069957 0.082625
0.672692 0.042754 0.097136
0.738602 0.011250 0.112179
0.800576 0.011179 0.121329
0.861182 0.011805 0.130477
0.917096 0.011872 0.137671
0.933907 0.012824 0.140070
0.933907 0.012824 0.140070
0.933907 0.012824 0.140070
0.933907 0.012824 0.140070
0.933907 0.012824 0.140070
0.933907 0.012824 0.140070
0.933907 0.012824 0.140070
0.933907 0.012824 0.140070
0.933907 0.012824 0.140070
0.933907 0.012824 0.140070
0.933907 0.012824 0.140070
0.933907 0.012824 0.140070
0.006651 0.229521 0.000013
0.005875 0.221538 0.000320
0.006468 0.213194 0.000000
0.006670 0.206187 0.000184
0.006478 0.201190 0.000714
0.006680 0.194520 0.000269
0.027408 0.189056 0.000000
0.094668 0.183213 0.000000
0.149414 0.178652 0.000000
0.198100 0.172550 0.005390
0.249131 0.166390 0.014624
0.307199 0.161740 0.023328
0.372114 0.153602 0.032032
0.441719 0.145688 0.044418
0.513087 0.135065 0.057559
0.583083 0.125477 0.068968
0.650938 0.108266 0.082418
0.716445 0.090776 0.094890
0.778641 0.059691 0.108956
0.838108 0.017999 0.124840
0.898915 0.011617 0.135273
0.933907 0.012824 0.140070
0.933907 0.012824 0.140070
0.933907 0.012824 0.140070
0.933907 0.012824 0.140070
0.933907 0.012824 0.140070
0.933907 0.012824 0.140070
0.933907 0.012824 0.140070
0.933907 0.012824 0.140070
0.933907 0.012824 0.140070
0.933907 0.012824 0.140070
0.933907 0.012824 0.140070
0.933907 0.012824 0.140070
0.008182 0.268485 0.000952
0.006430 0.259526 0.000285
0.007023 0.250846 0.000594
0.007617 0.242500 0.000000
0.005080 0.236890 0.000456
0.007627 0.230497 0.000989
0.005090 0.225222 0.000543
0.072742 0.217707 0.000000
0.130226 0.211750 0.000000
0.181257 0.207271 0.000000
0.233659 0.201086 0.005047
0.289380 0.195821 0.014504
0.352534 0.190055 0.024183
0.422722 0.185127 0.036793
0.494674 0.178164 0.046695
0.561933 0.169969 0.058106
0.631932 0.160045 0.071247
0.696654 0.146239 0.083942
0.760792 0.129446 0.096414
0.825133 0.105983 0.108442
0.885969 0.063592 0.124325
0.933907 0.012824 0.140070
0.933907 0.012824 0.140070
0.933907 0.012824 0.140070
0.933907 0.012824 0.140070
0.933907 0.012824 0.140070
0.933907 0.012824 0.140070
0.933907 0.012824 0.140070
0.933907 0.012824 0.140070
0.933907 0.012824 0.140070
0.933907 0.012824 0.140070
0.933907 0.012824 0.140070
0.933907 0.012824 0.140070
0.005606 0.309879 0.000164
0.006199 0.301199 0.000473
0.006792 0.292518 0.000782
0.006017 0.284534 0.001089
0.006611 0.276191 0.000000
0.008182 0.268485 0.000952
0.007014 0.262849 0.000000
0.033410 0.259255 0.000000
0.109469 0.251880 0.000694
0.163631 0.244332 0.000302
0.216032 0.239491 0.000000
0.270386 0.235596 0.005148
0.334514 0.230807 0.015805
0.404119 0.223228 0.026462
0.474308 0.218636 0.037340
0.546260 0.211336 0.048973
0.615865 0.203758 0.059628
0.682148 0.193915 0.073524
0.749217 0.180724 0.085465
0.811594 0.166640 0.097184
0.873981 0.140886 0.108989
0.930508 0.107259 0.125316
0.934664 0.044814 0.136129
0.933907 0.012824 0.140070
0.933907 0.012824 0.140070
0.933907 0.012824 0.140070
0.933907 0.012824 0.140070
0.933907 0.012824 0.140070
0.933907 0.012824 0.140070
0.933907 0.012824 0.140070
0.933907 0.012824 0.140070
0.933907 0.012824 0.140070
0.933907 0.012824 0.140070
0.006151 0.359535 0.000044
0.005767 0.349877 0.000000
0.006754 0.339187 0.000438
0.007347 0.330506 0.000745
0.007942 0.321825 0.001054
0.006189 0.312866 0.000387
0.006391 0.306195 0.000000
0.006592 0.299524 0.000000
0.085973 0.293741 0.000969
0.144826 0.287423 0.000000
0.199572 0.282862 0.000000
0.254318 0.278300 0.000000
0.317470 0.273207 0.004940
0.385315 0.268335 0.014844
0.459220 0.262989 0.028429
0.529802 0.256387 0.040063
0.601752 0.249087 0.051695
0.670381 0.240532 0.061376
0.738034 0.229992 0.075270
0.801386 0.217220 0.086233
0.861811 0.200846 0.097731
0.920675 0.180172 0.109759
0.936730 0.148798 0.117827
0.935602 0.094476 0.126378
0.933907 0.012824 0.140070
0.933907 0.012824 0.140070
0.933907 0.012824 0.140070
0.933907 0.012824 0.140070
0.933907 0.012824 0.140070
0.933907 0.012824 0.140070
0.933907 0.012824 0.140070
0.933907 0.012824 0.140070
0.933907 0.012824 0.140070
0.007471 0.416836 0.001343
0.007873 0.403496 0.000453
0.006514 0.392526 0.000540
0.007501 0.382172 0.000000
0.006141 0.371202 0.000000
0.005366 0.363219 0.000265
0.008306 0.355153 0.000000
0.007529 0.347170 0.000129
0.039402 0.341123 0.000000
0.119759 0.336652 0.000000
0.180959 0.330278 0.000591
0.238051 0.326331 0.000000
0.301596 0.320571 0.000000
0.370808 0.315676 0.006155
0.442367 0.310385 0.017035
0.517640 0.304342 0.030620
0.590568 0.298355 0.041500
0.658804 0.291473 0.052155
0.726065 0.283279 0.063567
0.791371 0.272796 0.074754
0.852379 0.259408 0.086473
0.908112 0.241804 0.099476
0.936088 0.217832 0.106707
0.935142 0.180509 0.112910
0.935572 0.130486 0.120929
0.934454 0.064159 0.131297
0.933907 0.012824 0.140070
0.933907 0.012824 0.140070
0.933907 0.012824 0.140070
0.933907 0.012824 0.140070
0.933907 0.012824 0.140070
0.933907 0.012824 0.140070
0.933907 0.012824 0.140070
0.007814 0.473499 0.000000
0.007825 0.461832 0.000024
0.006465 0.450863 0.000109
0.006081 0.441205 0.000000
0.007068 0.430515 0.000504
0.006685 0.420857 0.000000
0.006303 0.411200 0.000000
0.007873 0.403496 0.000453
0.007098 0.395512 0.000762
0.092931 0.388588 0.000000
0.159799 0.384421 0.000024
0.220998 0.378383 0.000000
0.282782 0.374995 0.000126
0.353757 0.369071 0.000000
0.429028 0.364035 0.007062
0.502933 0.359025 0.018918
0.578207 0.353317 0.030773
0.647421 0.347412 0.042406
0.717026 0.339498 0.054793
0.778618 0.329768 0.063274
0.840209 0.319368 0.075215
0.897894 0.304388 0.086711
0.935838 0.285191 0.094610
0.935666 0.255851 0.100503
0.936290 0.210825 0.107993
0.935935 0.164485 0.116234
0.933831 0.109187 0.123809
0.934684 0.021143 0.138031
0.933907 0.012824 0.140070
0.933907 0.012824 0.140070
0.933907 0.012824 0.140070
0.933907 0.012824 0.140070
0.933907 0.012824 0.140070
0.007958 0.536496 0.000707
0.008359 0.523155 0.000000
0.008369 0.511487 0.000000
0.007986 0.501830 0.000000
0.006628 0.490524 0.001051
0.008983 0.479472 0.000384
0.008208 0.471489 0.000691
0.007825 0.461832 0.000024
0.007633 0.456836 0.000554
0.043221 0.450370 0.000469
0.134722 0.445317 0.000656
0.196506 0.442265 0.000000
0.262789 0.435110 0.000003
0.333371 0.430861 0.000000
0.411383 0.425775 0.000996
0.488026 0.421050 0.004199
0.565645 0.415621 0.017032
0.635834 0.410693 0.029640
0.705439 0.403114 0.040296
0.768985 0.395002 0.052460
0.830575 0.384938 0.062672
0.889239 0.371608 0.071684
0.937542 0.354839 0.082734
0.936192 0.331529 0.086368
0.935445 0.286864 0.095586
0.936068 0.241838 0.103075
0.936108 0.193825 0.110340
0.934587 0.141513 0.118137
0.933859 0.073177 0.129257
0.933907 0.012824 0.140070
0.933907 0.012824 0.140070
0.933907 0.012824 0.140070
0.933907 0.012824 0.140070
0.008492 0.597819 0.000500
0.007525 0.585175 0.000000
0.007535 0.573507 0.000000
0.006176 0.562537 0.000000
0.008139 0.553159 0.000090
0.009125 0.542469 0.001152
0.008349 0.534822 0.000000
0.008551 0.528151 0.000000
0.007383 0.521842 0.000571
0.007585 0.515172 0.000126
0.093025 0.509920 0.000090
0.170060 0.503859 0.000585
0.240643 0.499608 0.000105
0.313571 0.495638 0.000602
0.391581 0.490888 0.000343
0.471940 0.486753 0.000000
0.550928 0.481971 0.005242
0.624832 0.477297 0.015368
0.693069 0.470079 0.027754
0.758567 0.464257 0.040140
0.819767 0.455866 0.051328
0.876665 0.444570 0.063046
0.926923 0.429755 0.076051
0.932217 0.409966 0.078399
0.933817 0.366924 0.081672
0.936201 0.319527 0.088183
0.935848 0.273187 0.096426
0.936280 0.222828 0.106176
0.935341 0.173502 0.114195
0.934807 0.110163 0.124785
0.934099 0.017821 0.139539
0.934493 0.015811 0.140294
0.933907 0.012824 0.140070
0.009420 0.657467 0.000000
0.007669 0.648172 0.000380
0.009047 0.635807 0.000465
0.007687 0.624838 0.000551
0.008282 0.616156 0.000860
0.007505 0.608509 0.000000
0.007707 0.601503 0.000723
0.007909 0.594832 0.000278
0.007717 0.589835 0.000809
0.007919 0.583165 0.000364
0.020241 0.576888 0.000364
0.137747 0.570252 0.000465
0.212044 0.565583 0.000962
0.288687 0.561867 0.000000
0.370020 0.558373 0.000669
0.453115 0.552843 0.000000
0.535819 0.548987 0.000000
0.612462 0.543926 0.004555
0.682651 0.538662 0.018894
0.746780 0.533536 0.031282
0.806611 0.526179 0.040739
0.864094 0.517198 0.056139
0.917673 0.504647 0.065905
0.928242 0.488739 0.068699
0.929641 0.452032 0.074149
0.932419 0.403295 0.077953
0.936957 0.351852 0.082513
0.934650 0.303223 0.090530
0.935083 0.252864 0.100282
0.935906 0.200831 0.109054
0.934587 0.141513 0.118137
0.936751 0.124456 0.123192
0.936166 0.121468 0.122968
0.008003 0.716164 0.000618
0.007619 0.706507 0.000000
0.010951 0.696432 0.000257
0.010177 0.688449 0.000567
0.009401 0.680801 0.000000
0.008234 0.674492 0.000431
0.008433 0.667822 0.000000
0.008635 0.661151 0.000000
0.007467 0.655178 0.000000
0.008645 0.649484 0.000000
0.007477 0.643175 0.000911
0.080797 0.637531 0.000431
0.177383 0.631697 0.000000
0.258717 0.628539 0.000000
0.345136 0.624265 0.000771
0.431553 0.620327 0.000000
0.515625 0.615774 0.000000
0.593638 0.611024 0.000000
0.668518 0.607326 0.010788
0.733039 0.600527 0.022200
0.794823 0.594786 0.035339
0.852307 0.586141 0.049011
0.904123 0.575961 0.059753
0.927398 0.562762 0.066676
0.928597 0.533733 0.067379
0.928242 0.488739 0.068699
0.931996 0.440642 0.075211
0.934191 0.388921 0.078794
0.936775 0.334516 0.086590
0.935255 0.282204 0.094386
0.935303 0.221851 0.105199
0.935906 0.200831 0.109054
0.935323 0.197844 0.108832
0.008346 0.772827 0.000000
0.008939 0.764146 0.000000
0.010117 0.758452 0.000050
0.010319 0.751781 0.000000
0.009151 0.745472 0.000891
0.009351 0.738801 0.000444
0.009553 0.732131 0.000000
0.009362 0.727135 0.000531
0.008586 0.719151 0.000840
0.007418 0.713178 0.000394
0.008596 0.707484 0.000925
0.009773 0.702126 0.000000
0.128257 0.696466 0.000805
0.220734 0.692725 0.000237
0.309890 0.687393 0.000000
0.402369 0.683651 0.000000
0.494848 0.679574 0.000046
0.576574 0.674742 0.000000
0.651848 0.670715 0.002238
0.720668 0.666484 0.014847
0.782843 0.659069 0.027011
0.839936 0.652435 0.039929
0.892730 0.642895 0.053379
0.925387 0.631821 0.059015
0.927360 0.610775 0.059409
0.927199 0.570105 0.063660
0.930167 0.526366 0.066933
0.927860 0.478409 0.071492
0.931816 0.423979 0.075828
0.936364 0.360869 0.080473
0.936413 0.300517 0.091285
0.935265 0.270201 0.096203
0.934680 0.266879 0.097711
0.009476 0.825469 0.000000
0.009284 0.820472 0.000000
0.009484 0.813802 0.000000
0.009294 0.808804 0.000000
0.009494 0.801799 0.001214
0.009302 0.797138 0.000016
0.009504 0.790131 0.001301
0.008336 0.784494 0.000000
0.008144 0.779498 0.000000
0.009322 0.773803 0.000186
0.007763 0.769504 0.000720
0.010309 0.763449 0.000000
0.031038 0.757649 0.000720
0.172393 0.754146 0.000000
0.270931 0.750265 0.000613
0.369864 0.744712 0.001023
0.467819 0.738181 0.000457
0.556582 0.734522 0.000644
0.634594 0.729772 0.000386
0.706152 0.725155 0.007804
0.768912 0.720726 0.020192
0.828350 0.714035 0.035817
0.880751 0.706506 0.048513
0.925138 0.696827 0.059031
0.925933 0.681812 0.057164
0.926938 0.647115 0.061859
0.926776 0.607116 0.062648
0.926815 0.560111 0.064723
0.927247 0.510760 0.069281
0.930033 0.450357 0.073172
0.933999 0.384260 0.077593
0.936182 0.343533 0.084551
0.936967 0.339849 0.084328
0.010996 0.876100 0.000168
0.010805 0.871103 0.000699
0.009637 0.865131 0.000254
0.009446 0.860135 0.000785
0.010624 0.854440 0.001316
0.009062 0.850477 0.000117
0.011610 0.844085 0.000648
0.010442 0.838112 0.000203
0.009274 0.832139 0.000000
0.008691 0.828816 0.001265
0.008891 0.822483 0.000000
0.008307 0.819159 0.000597
0.009484 0.813802 0.000000
0.098249 0.809807 0.001316
0.219468 0.803087 0.000664
0.325831 0.797369 0.000000
0.430430 0.794024 0.000000
0.527993 0.789166 0.000000
0.612065 0.784613 0.000000
0.687339 0.780586 0.003024
0.753812 0.775740 0.016386
0.815597 0.769999 0.029527
0.870343 0.762749 0.043199
0.918052 0.754325 0.055672
0.926468 0.743471 0.055227
0.925319 0.714162 0.054953
0.925348 0.678490 0.058671
0.926555 0.637457 0.061191
0.926594 0.590788 0.061535
0.929180 0.536720 0.067602
0.929622 0.476374 0.068786
0.932006 0.428641 0.077028
0.931422 0.425653 0.076804
0.013696 0.921374 0.000000
0.012528 0.915402 0.000000
0.013706 0.909707 0.000000
0.013514 0.904710 0.000441
0.011561 0.902421 0.000219
0.011762 0.895751 0.000000
0.011178 0.892765 0.000000
0.012356 0.887070 0.000083
0.012164 0.882073 0.000613
0.009235 0.878808 0.000000
0.009043 0.873811 0.000000
0.009829 0.870127 0.000000
0.009637 0.865131 0.000254
0.009053 0.862144 0.000032
0.154910 0.854203 0.001023
0.274761 0.848181 0.000372
0.386790 0.844334 0.000472
0.491781 0.838977 0.001104
0.585629 0.834876 0.000000
0.665987 0.830403 0.000000
0.736176 0.826149 0.008676
0.798936 0.820712 0.026254
0.856027 0.814077 0.039172
0.907452 0.805907 0.049160
0.926227 0.797146 0.053598
0.927616 0.773114 0.053770
0.926468 0.743471 0.055227
0.926496 0.708133 0.057215
0.926728 0.666460 0.057027
0.925789 0.617470 0.063315
0.927398 0.562762 0.066676
0.928224 0.512073 0.068528
0.927247 0.510760 0.069281
0.018942 0.960257 0.000012
0.014642 0.957353 0.000543
0.016797 0.952971 0.000321
0.016605 0.947974 0.000852
0.016414 0.943315 0.000000
0.016222 0.938318 0.000183
0.017007 0.934634 0.000000
0.016424 0.931647 0.000000
0.013494 0.928045 0.000270
0.013302 0.923048 0.000801
0.013111 0.918389 0.000000
0.012528 0.915402 0.000000
0.013313 0.911382 0.000887
0.013121 0.906721 0.000000
0.013514 0.904710 0.000441
0.203554 0.896114 0.000285
0.326729 0.891684 0.000000
0.445210 0.886360 0.000000
0.548834 0.881701 0.000000
0.637990 0.876368 0.000000
0.714241 0.872981 0.004957
0.779346 0.868832 0.018321
0.839760 0.863453 0.033191
0.893530 0.855226 0.045886
0.926771 0.846801 0.053477
0.927960 0.828768 0.057554
0.926418 0.801806 0.054797
0.927032 0.770128 0.053547
0.927061 0.734790 0.055536
0.926314 0.691805 0.056101
0.925378 0.643151 0.060661
0.927571 0.591765 0.062512
0.926987 0.588779 0.062288
0.022628 0.994840 0.000730
0.021067 0.990542 0.001262
0.020484 0.987555 0.001040
0.020292 0.982894 0.000000
0.018339 0.980605 0.000000
0.017754 0.977283 0.001125
0.017170 0.974295 0.000902
0.019325 0.969914 0.000679
0.017764 0.965952 0.000000
0.019525 0.963244 0.000234
0.019333 0.958247 0.000764
0.014642 0.957353 0.000543
0.016797 0.952971 0.000321
0.015237 0.948671 0.000852
0.016022 0.944988 0.000628
0.100488 0.938761 0.000000
0.256702 0.933921 0.000301
0.384959 0.928376 0.000848
0.503049 0.925062 0.000000
0.601588 0.921518 0.000000
0.685660 0.916965 0.000000
0.758196 0.912316 0.012649
0.818217 0.908947 0.026766
0.876677 0.901614 0.039683
0.926733 0.893470 0.053133
0.928505 0.879432 0.052242
0.927155 0.856122 0.055876
0.927960 0.828768 0.057554
0.927597 0.796449 0.053598
0.925673 0.758486 0.057095
0.927273 0.716116 0.056907
0.926334 0.667462 0.061464
0.925751 0.665147 0.057782
0.022818 0.999838 0.000199
0.022818 0.999838 0.000199
0.022818 0.999838 0.000199
0.022818 0.999838 0.000199
0.024188 0.999140 0.000199
0.022818 0.999838 0.000199
0.020473 0.999558 0.000000
0.021450 1.000000 0.000199
0.020473 0.999558 0.000000
0.022235 0.996851 0.000000
0.021652 0.993864 0.000000
0.021067 0.990542 0.001262
0.020484 0.987555 0.001040
0.020875 0.985881 0.000063
0.017945 0.982279 0.000593
0.018339 0.980605 0.000000
0.157157 0.971491 0.000000
0.303204 0.968546 0.000000
0.437129 0.965208 0.000000
0.552873 0.961278 0.000000
0.649066 0.957119 0.000000
0.727662 0.954011 0.006531
0.795506 0.948132 0.021625
0.857290 0.942056 0.036496
0.909690 0.934190 0.050922
0.931203 0.924369 0.053629
0.928093 0.904440 0.053046
0.928111 0.880769 0.054950
0.926963 0.852134 0.051215
0.926600 0.818134 0.055910
0.927998 0.782435 0.056168
0.927646 0.737440 0.057489
0.925108 0.732501 0.055312
0.022818 0.999838 0.000199
0.022818 0.999838 0.000199
0.022818 0.999838 0.000199
0.022818 0.999838 0.000199
0.022818 0.999838 0.000199
0.022818 0.999838 0.000199
0.022818 0.999838 0.000199
0.022818 0.999838 0.000199
0.022818 0.999838 0.000199
0.022818 0.999838 0.000199
0.022818 0.999838 0.000199
0.022818 0.999838 0.000199
0.022818 0.999838 0.000199
0.022818 0.999838 0.000199
0.022818 0.999838 0.000199
0.024188 0.999140 0.000199
0.022818 0.999838 0.000199
0.195061 1.000000 0.000043
0.346776 0.999569 0.000000
0.484416 0.996148 0.000000
0.598792 0.992581 0.000312
0.689900 0.989536 0.000000
0.762435 0.984888 0.013332
0.828911 0.979370 0.030156
0.885027 0.971422 0.043828
