Sources/Resources/LUT/gfx-eterna-55-3d-lut-v100/33Grid/F-Log2/FLog2_to_CLASSIC-Neg._33grid_V.1.00.cube
#title:FLog2_to_CLASSIC-Neg.
#model:GFX ETERNA 55
#FUJIFILM Corporation
#Gamma:F-Log2 to CLASSIC Neg.
#Gamut:F-Gamut to ITU-R BT.709
#Version:1.00
LUT_3D_SIZE 33
0.000000 0.000000 0.000000
0.000000 0.000000 0.000000
0.000000 0.000000 0.000000
0.000000 0.000000 0.000000
0.010752 0.001091 0.000445
0.033625 0.002913 0.000000
0.052783 0.004817 0.000000
0.074680 0.005326 0.000000
0.097552 0.006811 0.000324
0.130200 0.008411 0.000683
0.164219 0.009650 0.000000
0.210941 0.013933 0.000340
0.270178 0.017272 0.000000
0.356002 0.021680 0.000000
0.480143 0.029894 0.000200
0.626180 0.038616 0.000574
0.757750 0.046666 0.000000
0.842206 0.051771 0.000160
0.897726 0.055192 0.000000
0.936042 0.055639 0.016812
0.937210 0.055562 0.048405
0.937210 0.055898 0.046676
0.937210 0.055898 0.046676
0.937210 0.055898 0.046676
0.937210 0.055898 0.046676
0.937210 0.055898 0.046676
0.937210 0.055898 0.046676
0.937210 0.055898 0.046676
0.937210 0.055898 0.046676
0.937210 0.055898 0.046676
0.937210 0.055898 0.046676
0.937210 0.055898 0.046676
0.937210 0.055898 0.046676
0.000000 0.000000 0.000000
0.000000 0.000000 0.000000
0.000000 0.000000 0.000000
0.000000 0.000000 0.000000
0.010752 0.001091 0.000445
0.029910 0.002995 0.000360
0.051806 0.003504 0.000273
0.074680 0.005326 0.000000
0.095208 0.006532 0.000000
0.123165 0.007238 0.000000
0.159134 0.010430 0.000067
0.206250 0.013039 0.000116
0.270178 0.017272 0.000000
0.375160 0.023584 0.000000
0.515138 0.032109 0.000000
0.667234 0.041029 0.000402
0.786684 0.048684 0.000000
0.862734 0.052977 0.000075
0.912193 0.056201 0.000000
0.936234 0.056602 0.037047
0.937210 0.055562 0.048405
0.937210 0.055898 0.046676
0.937210 0.055898 0.046676
0.937210 0.055898 0.046676
0.937210 0.055898 0.046676
0.937210 0.055898 0.046676
0.937210 0.055898 0.046676
0.937210 0.055898 0.046676
0.937210 0.055898 0.046676
0.937210 0.055898 0.046676
0.937210 0.055898 0.046676
0.937210 0.055898 0.046676
0.937210 0.055898 0.046676
0.000000 0.000000 0.000000
0.000000 0.000000 0.000000
0.000000 0.000000 0.000000
0.000000 0.000000 0.000000
0.008406 0.000813 0.000000
0.027564 0.002380 0.001113
0.044377 0.004004 0.000051
0.069989 0.004432 0.000000
0.092861 0.005917 0.000102
0.120427 0.008296 0.001215
0.156789 0.009814 0.000820
0.210941 0.013933 0.000340
0.286990 0.018562 0.000000
0.400379 0.025684 0.000000
0.550130 0.034324 0.000000
0.703598 0.042548 0.000007
0.810926 0.049472 0.000000
0.879938 0.052590 0.000000
0.929006 0.056481 0.005229
0.937210 0.055562 0.048405
0.937210 0.055898 0.046676
0.937210 0.055898 0.046676
0.937210 0.055898 0.046676
0.937210 0.055898 0.046676
0.937210 0.055898 0.046676
0.937210 0.055898 0.046676
0.937210 0.055898 0.046676
0.937210 0.055898 0.046676
0.937210 0.055898 0.046676
0.937210 0.055898 0.046676
0.937210 0.055898 0.046676
0.937210 0.055898 0.046676
0.937210 0.055898 0.046676
0.000000 0.000000 0.000000
0.000000 0.000000 0.000000
0.000000 0.000000 0.000000
0.000000 0.000000 0.000000
0.008406 0.000813 0.000000
0.021896 0.000509 0.000000
0.042030 0.003389 0.000803
0.066274 0.004513 0.000000
0.090516 0.005637 0.000000
0.123165 0.007238 0.000000
0.164219 0.009650 0.000000
0.218371 0.013768 0.000000
0.301457 0.019571 0.000000
0.423251 0.027505 0.000000
0.579065 0.036343 0.000000
0.731162 0.045262 0.000000
0.830084 0.051376 0.000000
0.895382 0.054913 0.000000
0.935651 0.056976 0.019520
0.937210 0.055562 0.048405
0.937210 0.055898 0.046676
0.937210 0.055898 0.046676
0.937210 0.055898 0.046676
0.937210 0.055898 0.046676
0.937210 0.055898 0.046676
0.937210 0.055898 0.046676
0.937210 0.055898 0.046676
0.937210 0.055898 0.046676
0.937210 0.055898 0.046676
0.937210 0.055898 0.046676
0.937210 0.055898 0.046676
0.937210 0.055898 0.046676
0.937210 0.055898 0.046676
0.000000 0.006671 0.000445
0.000000 0.006671 0.000445
0.000000 0.006671 0.000445
0.000000 0.006671 0.000445
0.002145 0.007286 0.000000
0.019350 0.006900 0.000000
0.039878 0.008107 0.000000
0.066465 0.009510 0.000000
0.093446 0.008903 0.000324
0.124333 0.013211 0.000000
0.169495 0.013531 0.000000
0.227754 0.015557 0.000000
0.314555 0.021276 0.000000
0.447495 0.028294 0.000000
0.612690 0.038920 0.000129
0.757750 0.046666 0.000000
0.849635 0.051606 0.000000
0.907502 0.055307 0.000000
0.936234 0.056939 0.035316
0.937210 0.055562 0.048405
0.937210 0.055898 0.046676
0.937210 0.055898 0.046676
0.937210 0.055898 0.046676
0.937210 0.055898 0.046676
0.937210 0.055898 0.046676
0.937210 0.055898 0.046676
0.937210 0.055898 0.046676
0.937210 0.055898 0.046676
0.937210 0.055898 0.046676
0.937210 0.055898 0.046676
0.937210 0.055898 0.046676
0.937210 0.055898 0.046676
0.937210 0.055898 0.046676
0.000000 0.019676 0.003066
0.000000 0.019676 0.003066
0.000000 0.019676 0.003066
0.000000 0.017666 0.003821
0.000000 0.019676 0.003066
0.015232 0.020324 0.001028
0.038498 0.020472 0.000000
0.065087 0.021538 0.001079
0.092650 0.024254 0.000460
0.122953 0.025576 0.000000
0.173199 0.025116 0.000000
0.235759 0.029711 0.000000
0.330774 0.031246 0.000000
0.474858 0.037680 0.000000
0.644553 0.044540 0.000000
0.782969 0.048766 0.000000
0.865078 0.053592 0.000000
0.921969 0.056316 0.000000
0.936234 0.056267 0.038777
0.937210 0.055562 0.048405
0.937210 0.055898 0.046676
0.937210 0.055898 0.046676
0.937210 0.055898 0.046676
0.937210 0.055898 0.046676
0.937210 0.055898 0.046676
0.937210 0.055898 0.046676
0.937210 0.055898 0.046676
0.937210 0.055898 0.046676
0.937210 0.055898 0.046676
0.937210 0.055898 0.046676
0.937210 0.055898 0.046676
0.937210 0.055898 0.046676
0.937210 0.055898 0.046676
0.000162 0.038655 0.006133
0.000000 0.035667 0.005910
0.000000 0.035667 0.005910
0.000162 0.038655 0.006133
0.000162 0.038655 0.006133
0.007593 0.038154 0.006356
0.033786 0.041567 0.005737
0.064090 0.043560 0.001660
0.091070 0.043625 0.000000
0.128802 0.044110 0.000425
0.175526 0.048730 0.000000
0.245323 0.048164 0.000000
0.346983 0.052883 0.000000
0.497519 0.057839 0.000000
0.670930 0.064281 0.000000
0.802309 0.066998 0.000691
0.869176 0.063167 0.000000
0.915123 0.059803 0.000000
0.935257 0.056634 0.030878
0.937210 0.055898 0.046676
0.937210 0.056234 0.044945
0.937210 0.056234 0.044945
0.937210 0.056234 0.044945
0.937210 0.055898 0.046676
0.937210 0.055898 0.046676
0.937210 0.055898 0.046676
0.937210 0.055898 0.046676
0.937210 0.055898 0.046676
0.937210 0.055898 0.046676
0.937210 0.055898 0.046676
0.937210 0.055898 0.046676
0.937210 0.055898 0.046676
0.937210 0.055898 0.046676
0.001119 0.062293 0.010399
0.001119 0.062293 0.010399
0.001119 0.062293 0.010399
0.001119 0.062293 0.010399
0.001119 0.062293 0.010399
0.004049 0.065559 0.011597
0.027316 0.065706 0.009782
0.058200 0.070350 0.007656
0.087527 0.071030 0.004331
0.124284 0.070875 0.002961
0.175114 0.074074 0.000000
0.246471 0.077472 0.000000
0.356930 0.080992 0.000285
0.516850 0.087738 0.000129
0.674032 0.095878 0.000000
0.789575 0.098619 0.000000
0.862109 0.096658 0.000000
0.909033 0.094271 0.000090
0.936607 0.080279 0.025515
0.937200 0.068238 0.043128
0.936809 0.069576 0.045836
0.937785 0.070888 0.045081
0.936617 0.064915 0.044636
0.936034 0.061928 0.044414
0.937210 0.056570 0.043215
0.937210 0.056234 0.044945
0.937210 0.056234 0.044945
0.937210 0.056234 0.044945
0.937210 0.055898 0.046676
0.937210 0.055898 0.046676
0.937210 0.055898 0.046676
0.937210 0.055898 0.046676
0.937210 0.055898 0.046676
0.002267 0.090256 0.017594
0.002267 0.090256 0.017594
0.001482 0.093604 0.019547
0.001482 0.093604 0.019547
0.001482 0.093604 0.019547
0.003435 0.095557 0.021500
0.014580 0.095311 0.019238
0.047622 0.095910 0.015160
0.082223 0.100135 0.014012
0.122694 0.100233 0.010157
0.173131 0.104770 0.008700
0.247620 0.106443 0.001742
0.353578 0.114403 0.000000
0.497662 0.120836 0.000000
0.656213 0.128278 0.000000
0.779377 0.135516 0.000000
0.853474 0.137519 0.000227
0.905088 0.136362 0.000000
0.936761 0.131945 0.024641
0.938330 0.119199 0.051882
0.937556 0.111888 0.048732
0.937947 0.109879 0.049484
0.937172 0.102231 0.048062
0.937765 0.093550 0.048371
0.936991 0.085904 0.046950
0.937584 0.077559 0.045527
0.937785 0.070888 0.045081
0.937011 0.063241 0.043660
0.935449 0.058942 0.044192
0.937210 0.056234 0.044945
0.937210 0.056234 0.044945
0.937210 0.056234 0.044945
0.937210 0.055898 0.046676
0.004192 0.125194 0.029671
0.003799 0.127541 0.027188
0.004382 0.129856 0.030872
0.004382 0.129856 0.030872
0.004382 0.129856 0.030872
0.003405 0.128543 0.031624
0.003990 0.131193 0.033577
0.033316 0.132209 0.028524
0.072418 0.133005 0.024668
0.112103 0.136451 0.022766
0.163326 0.137641 0.019355
0.237814 0.139314 0.012399
0.336153 0.144457 0.002117
0.472414 0.153736 0.000000
0.634680 0.161098 0.000000
0.765857 0.170486 0.000313
0.847967 0.175309 0.000000
0.899773 0.178813 0.000241
0.938090 0.177580 0.026026
0.939660 0.164835 0.053270
0.939278 0.155178 0.052601
0.939086 0.150181 0.053132
0.939287 0.143511 0.052687
0.938512 0.135863 0.051266
0.939105 0.127519 0.049844
0.938724 0.117862 0.049175
0.937947 0.109879 0.049484
0.937172 0.101895 0.049793
0.936789 0.092238 0.049124
0.937775 0.082219 0.046727
0.937001 0.074572 0.045306
0.937594 0.066228 0.043883
0.936034 0.061928 0.044414
0.005713 0.173137 0.044370
0.005320 0.175148 0.043618
0.004929 0.176822 0.044595
0.004929 0.176822 0.044595
0.004929 0.176822 0.044595
0.004929 0.176822 0.044595
0.005512 0.179809 0.044817
0.010596 0.178693 0.045793
0.053412 0.179071 0.042915
0.098967 0.179061 0.034843
0.150189 0.179914 0.033165
0.220571 0.183343 0.027938
0.318324 0.185500 0.017434
0.453610 0.195148 0.006981
0.614507 0.204213 0.000880
0.751745 0.214470 0.000000
0.839521 0.221502 0.000000
0.895627 0.225222 0.012011
0.935896 0.226950 0.034559
0.941372 0.218111 0.065707
0.941584 0.201453 0.056695
0.939248 0.189508 0.055806
0.940818 0.182139 0.055360
0.940043 0.174492 0.053937
0.939660 0.164835 0.053270
0.939862 0.158164 0.052825
0.939086 0.150181 0.053132
0.939287 0.143511 0.052687
0.938905 0.133853 0.052019
0.938522 0.124532 0.049621
0.939509 0.113841 0.050685
0.938732 0.106195 0.049262
0.937374 0.095224 0.049348
0.008191 0.244384 0.065066
0.007799 0.246058 0.066043
0.007014 0.249742 0.066266
0.007991 0.251055 0.065512
0.007206 0.254739 0.065735
0.007206 0.254739 0.065735
0.007406 0.247732 0.067019
0.008584 0.242710 0.064090
0.028920 0.238920 0.064535
0.082880 0.239723 0.055933
0.133912 0.236587 0.049593
0.202340 0.237391 0.045874
0.295986 0.241640 0.035371
0.430688 0.247966 0.026425
0.594323 0.257317 0.011671
0.737621 0.268443 0.006855
0.831460 0.275000 0.009663
0.890102 0.283995 0.023695
0.931348 0.286699 0.047218
0.944054 0.284031 0.079036
0.943095 0.260728 0.073039
0.941746 0.240780 0.059368
0.941172 0.226461 0.057500
0.941766 0.218118 0.056078
0.941382 0.208460 0.055410
0.940024 0.197826 0.053765
0.940224 0.190820 0.055051
0.940818 0.182139 0.055360
0.939459 0.171505 0.053714
0.940054 0.162825 0.054024
0.939278 0.155178 0.052601
0.938502 0.147195 0.052910
0.938512 0.135863 0.051266
0.012987 0.349231 0.095132
0.012393 0.357239 0.098285
0.012192 0.363574 0.100461
0.011407 0.366922 0.102414
0.012000 0.358913 0.099262
0.012987 0.349231 0.095132
0.012997 0.337900 0.093488
0.012222 0.330588 0.090337
0.010468 0.321292 0.091398
0.055047 0.319298 0.087543
0.114485 0.317311 0.078941
0.183698 0.315103 0.071540
0.272653 0.317786 0.064273
0.405401 0.322158 0.053374
0.572358 0.332765 0.040575
0.723872 0.340715 0.030566
0.823377 0.349479 0.032844
0.886127 0.357055 0.043413
0.927373 0.360431 0.063476
0.946722 0.360945 0.095738
0.944789 0.335321 0.095688
0.945010 0.307670 0.083300
0.942492 0.282084 0.067453
0.942896 0.270087 0.059641
0.941536 0.259454 0.057997
0.942522 0.248762 0.059058
0.941162 0.238128 0.057414
0.941172 0.226461 0.057500
0.941183 0.215131 0.055857
0.940799 0.205137 0.056918
0.940024 0.197490 0.055496
0.939641 0.187833 0.054829
0.939258 0.178176 0.054160
0.017933 0.501710 0.145089
0.017924 0.512368 0.150196
0.016756 0.506732 0.148019
0.017158 0.494399 0.141937
0.017560 0.481394 0.139317
0.015225 0.469783 0.136694
0.016020 0.455776 0.129637
0.017005 0.445758 0.127238
0.014277 0.435486 0.127324
0.016240 0.426444 0.125902
0.088583 0.421167 0.117523
0.155452 0.418680 0.109144
0.247144 0.419967 0.101878
0.375987 0.420097 0.088805
0.544706 0.428670 0.073297
0.705018 0.436093 0.060052
0.814692 0.443298 0.060821
0.880180 0.449478 0.071390
0.923771 0.454478 0.085507
0.949967 0.452179 0.114308
0.948617 0.427525 0.124863
0.948647 0.394875 0.113007
0.946722 0.360945 0.095738
0.945374 0.340662 0.083797
0.945192 0.325006 0.079223
0.943641 0.310383 0.072918
0.943067 0.296401 0.069321
0.942492 0.282420 0.065722
0.941919 0.269110 0.058664
0.942904 0.258757 0.057997
0.942914 0.247089 0.058082
0.941162 0.238128 0.057414
0.941172 0.226461 0.057500
0.024633 0.661469 0.204366
0.023273 0.651507 0.199262
0.023867 0.642828 0.199570
0.022900 0.631527 0.191757
0.021934 0.619220 0.189137
0.020967 0.607584 0.183055
0.021762 0.593577 0.175996
0.020210 0.578282 0.173153
0.019828 0.568626 0.172484
0.020231 0.555957 0.168133
0.037053 0.546250 0.165426
0.121125 0.543714 0.155008
0.213020 0.538665 0.145565
0.334432 0.539633 0.130539
0.508043 0.542764 0.113078
0.681846 0.550221 0.098547
0.803449 0.553832 0.095102
0.874806 0.555884 0.102965
0.919576 0.555527 0.115883
0.953201 0.554071 0.137984
0.954389 0.533348 0.155906
0.952857 0.496063 0.146312
0.950743 0.457137 0.129575
0.948425 0.424545 0.115011
0.948637 0.407215 0.109461
0.947871 0.388910 0.102934
0.945736 0.371637 0.094675
0.946531 0.356958 0.091078
0.944981 0.342335 0.084773
0.945776 0.327992 0.079445
0.943832 0.314708 0.075848
0.944627 0.300365 0.070519
0.944054 0.286719 0.065191
0.028644 0.765966 0.255423
0.028843 0.759968 0.251516
0.028460 0.751319 0.245657
0.029055 0.743310 0.242503
0.026910 0.736696 0.239352
0.026921 0.726038 0.234246
0.026930 0.715716 0.227410
0.025571 0.705418 0.224035
0.025581 0.694422 0.220661
0.025590 0.683764 0.215555
0.025207 0.674105 0.214887
0.064902 0.666557 0.209609
0.165596 0.660985 0.196929
0.284078 0.658350 0.182434
0.454367 0.660225 0.163020
0.645184 0.663308 0.143520
0.785362 0.666508 0.136306
0.864934 0.665721 0.137245
0.913811 0.663607 0.148434
0.950959 0.657407 0.168582
0.958006 0.643217 0.188903
0.956082 0.606598 0.185477
0.954752 0.563315 0.171976
0.951861 0.517750 0.148624
0.952465 0.498410 0.143829
0.950330 0.481137 0.135570
0.950541 0.463807 0.130020
0.949775 0.445837 0.121762
0.949594 0.430518 0.115458
0.948436 0.413550 0.111637
0.948647 0.396556 0.104355
0.945728 0.382295 0.099782
0.945938 0.365302 0.092500
0.034242 0.839426 0.307933
0.032682 0.836134 0.303274
0.031514 0.830833 0.299368
0.031715 0.824500 0.297191
0.033286 0.818476 0.289825
0.031141 0.811862 0.286673
0.030365 0.804887 0.281790
0.030959 0.797550 0.275176
0.029207 0.789263 0.271048
0.029802 0.781254 0.267894
0.029419 0.772270 0.263767
0.029035 0.762948 0.261367
0.095318 0.757811 0.251034
0.213408 0.756512 0.239246
0.376661 0.757215 0.218633
0.583313 0.761619 0.193634
0.752818 0.765835 0.181364
0.851356 0.762627 0.179288
0.908055 0.759346 0.184531
0.945204 0.754156 0.199489
0.961240 0.743092 0.222961
0.959509 0.710797 0.222464
0.958763 0.670166 0.210919
0.956657 0.619908 0.192535
0.956485 0.594265 0.179394
0.954351 0.576656 0.172868
0.954561 0.559664 0.165586
0.952426 0.541718 0.160789
0.953029 0.523387 0.150801
0.951871 0.506755 0.145251
0.951106 0.488448 0.138722
0.949948 0.472152 0.131441
0.950159 0.454823 0.125891
0.037315 0.895270 0.363546
0.037123 0.890945 0.360616
0.035562 0.887655 0.355958
0.035372 0.883666 0.351297
0.035180 0.879677 0.346637
0.035380 0.874016 0.341000
0.034214 0.869051 0.335363
0.035784 0.862691 0.329727
0.033639 0.856749 0.323113
0.032864 0.849774 0.318230
0.033457 0.842102 0.313347
0.032289 0.836465 0.311172
0.031514 0.828817 0.309750
0.123015 0.826453 0.296094
0.270039 0.828182 0.278496
0.478060 0.832223 0.251765
0.691749 0.837127 0.231426
0.823915 0.838176 0.222035
0.892735 0.835626 0.225992
0.936337 0.829966 0.235003
0.964103 0.821643 0.256437
0.964121 0.797300 0.261802
0.962782 0.764340 0.255137
0.961452 0.721729 0.238175
0.959921 0.685789 0.221661
0.958763 0.669830 0.212648
0.958581 0.654174 0.208074
0.956446 0.637237 0.198085
0.956657 0.620244 0.190805
0.956868 0.603250 0.183524
0.955709 0.586619 0.177972
0.954944 0.568648 0.169716
0.953786 0.552016 0.164164
0.040598 0.931769 0.423992
0.038645 0.930488 0.418578
0.039430 0.928148 0.411435
0.038847 0.925833 0.407750
0.039631 0.922821 0.404065
0.039046 0.920507 0.400383
0.037880 0.915542 0.394746
0.037688 0.911889 0.388355
0.037888 0.906563 0.380988
0.038090 0.900901 0.375351
0.036922 0.895936 0.369715
0.037123 0.889937 0.365808
0.037325 0.883939 0.361902
0.036157 0.877966 0.361457
0.150530 0.878431 0.341769
0.334894 0.883326 0.321292
0.582602 0.890814 0.292661
0.775371 0.896186 0.273383
0.871173 0.894708 0.269577
0.924549 0.889836 0.274597
0.960137 0.880682 0.288356
0.966992 0.863848 0.297094
0.966821 0.836190 0.294336
0.965481 0.803901 0.284212
0.963759 0.763637 0.264766
0.963184 0.750664 0.255977
0.961634 0.736377 0.247941
0.962035 0.724044 0.241859
0.961854 0.708725 0.235555
0.959326 0.693799 0.224813
0.960514 0.677781 0.218507
0.959356 0.661485 0.211226
0.958198 0.645189 0.203945
0.042924 0.943619 0.485364
0.041948 0.943315 0.480925
0.040971 0.943346 0.474758
0.042340 0.943993 0.467835
0.042733 0.943664 0.459937
0.041756 0.944368 0.450308
0.039803 0.943087 0.444894
0.040588 0.940411 0.439480
0.040004 0.938433 0.434067
0.040790 0.935757 0.428653
0.040598 0.931769 0.423992
0.039037 0.928477 0.419332
0.038847 0.924489 0.414672
0.038655 0.919828 0.413473
0.039833 0.914470 0.412273
0.178058 0.917733 0.392723
0.401523 0.924433 0.363199
0.668388 0.934496 0.331020
0.826162 0.936980 0.315598
0.901828 0.932287 0.312632
0.944454 0.925651 0.320668
0.968705 0.913427 0.328566
0.969309 0.892744 0.330692
0.967769 0.866454 0.324473
0.966427 0.834839 0.310886
0.965079 0.814889 0.297214
0.965087 0.804567 0.290378
0.964121 0.792932 0.284297
0.964524 0.781270 0.274753
0.963557 0.769972 0.266941
0.962983 0.756326 0.261613
0.962409 0.743353 0.252824
0.961834 0.730043 0.245766
0.043891 0.942485 0.557203
0.045260 0.942795 0.552012
0.044283 0.942490 0.547575
0.045652 0.942801 0.542383
0.044676 0.943170 0.534485
0.043699 0.943201 0.528316
0.044092 0.943208 0.518688
0.043115 0.943239 0.512519
0.043507 0.942909 0.504620
0.043901 0.942916 0.494992
0.041554 0.943981 0.487093
0.041948 0.943651 0.479196
0.042340 0.943993 0.467835
0.042733 0.943328 0.461669
0.041172 0.940373 0.455278
0.040588 0.937723 0.453325
0.204425 0.941747 0.431204
0.467182 0.953903 0.399022
0.727986 0.963769 0.366621
0.860543 0.963480 0.354524
0.920373 0.958476 0.351867
0.958307 0.951281 0.357948
0.968484 0.936710 0.363449
0.969481 0.914689 0.362868
0.969893 0.891025 0.355141
0.969137 0.863068 0.338317
0.968362 0.856429 0.331703
0.967979 0.847780 0.325844
0.966619 0.838491 0.317277
0.967605 0.829144 0.311417
0.967616 0.819494 0.301121
0.966256 0.809869 0.294285
0.965289 0.798232 0.288203
0.047988 0.942314 0.607300
0.047988 0.942650 0.605571
0.047011 0.942345 0.601133
0.047011 0.943353 0.595941
0.046035 0.943385 0.589773
0.046428 0.942383 0.585335
0.045452 0.942079 0.580899
0.046820 0.942390 0.575707
0.045843 0.942757 0.567808
0.044867 0.942789 0.561639
0.045260 0.942459 0.553742
0.045260 0.943131 0.550281
0.045652 0.942801 0.542383
0.044676 0.943506 0.532754
0.042723 0.943233 0.522148
0.043115 0.943239 0.512519
0.070488 0.943311 0.500320
0.263448 0.956031 0.468398
0.526208 0.970539 0.424106
0.773129 0.981711 0.395694
0.881051 0.981972 0.385414
0.934821 0.976434 0.384264
0.962002 0.968149 0.389903
0.966120 0.954053 0.391719
0.970438 0.933959 0.389630
0.970266 0.907980 0.378218
0.970668 0.895983 0.370405
0.971262 0.888984 0.362062
0.969118 0.883042 0.355450
0.969712 0.875369 0.350567
0.969329 0.867057 0.342977
0.967577 0.859440 0.335387
0.968564 0.850430 0.327797
0.048179 0.942940 0.629266
0.048179 0.942940 0.629266
0.048179 0.942940 0.629266
0.048179 0.942940 0.629266
0.048179 0.942940 0.629266
0.048179 0.942940 0.629266
0.048179 0.943277 0.627535
0.047203 0.942973 0.623098
0.047596 0.942306 0.616929
0.047596 0.943314 0.611739
0.047988 0.942650 0.605571
0.047011 0.942681 0.599402
0.046035 0.942713 0.593234
0.046428 0.942383 0.585335
0.046820 0.942054 0.577438
0.045843 0.942421 0.569540
0.044867 0.942789 0.561639
0.171555 0.949653 0.536676
0.365885 0.961339 0.506484
0.631966 0.977103 0.464145
0.814174 0.988061 0.435239
0.897069 0.992563 0.417368
0.943016 0.989870 0.413512
0.959445 0.980830 0.416973
0.964931 0.966373 0.417058
0.968275 0.945639 0.412262
0.970831 0.929932 0.400766
0.969663 0.924631 0.396860
0.971232 0.918608 0.389491
0.971434 0.912609 0.385585
0.971635 0.907284 0.378218
0.970860 0.900308 0.373335
0.971453 0.893308 0.364991
0.048179 0.942940 0.629266
0.048179 0.942940 0.629266
0.048179 0.942940 0.629266
0.048179 0.942940 0.629266
0.048179 0.942940 0.629266
0.048179 0.942940 0.629266
0.048179 0.942940 0.629266
0.048179 0.942940 0.629266
0.048179 0.942940 0.629266
0.048179 0.942940 0.629266
0.048179 0.942940 0.629266
0.048179 0.942940 0.629266
0.048179 0.942605 0.630995
0.047203 0.941964 0.628290
0.047596 0.941634 0.620390
0.046620 0.942002 0.612492
0.047988 0.942314 0.607300
0.104294 0.944740 0.592753
0.247795 0.952891 0.568457
0.457568 0.967573 0.533743
0.698429 0.980564 0.494725
0.841930 0.988716 0.470430
0.911335 0.992849 0.455574
0.951805 0.993618 0.448258
0.958067 0.988153 0.442844
0.962183 0.975402 0.437737
0.967086 0.959303 0.430680
0.968265 0.954618 0.426019
0.969834 0.948257 0.420383
0.969643 0.944270 0.415723
0.969844 0.938606 0.410086
0.970045 0.932945 0.404449
0.968878 0.927979 0.398813
0.048179 0.942940 0.629266
0.048179 0.942940 0.629266
0.048179 0.942940 0.629266
0.048179 0.942940 0.629266
0.048179 0.942940 0.629266
0.048179 0.942940 0.629266
0.048179 0.942940 0.629266
0.048179 0.942940 0.629266
0.048179 0.942940 0.629266
0.048179 0.942940 0.629266
0.048179 0.942940 0.629266
0.048179 0.942940 0.629266
0.048179 0.942605 0.630995
0.048179 0.942605 0.630995
0.048179 0.942268 0.632727
0.048179 0.942268 0.632727
0.048179 0.941932 0.634456
0.057955 0.942047 0.633925
0.182881 0.949602 0.618589
0.332441 0.957951 0.594515
0.548669 0.970820 0.560778
0.751797 0.982317 0.525617
0.865578 0.991464 0.505621
0.925600 0.993135 0.493782
0.957665 0.995109 0.476613
0.956889 0.991159 0.456156
0.961388 0.987057 0.456910
0.962375 0.977711 0.451051
0.964530 0.974337 0.445637
0.963362 0.969373 0.440000
0.966493 0.966303 0.439023
0.966301 0.962314 0.434364
0.967480 0.957629 0.429704
0.048179 0.942940 0.629266
0.048179 0.942940 0.629266
0.048179 0.942940 0.629266
0.048179 0.942940 0.629266
0.048179 0.942940 0.629266
0.048179 0.942940 0.629266
0.048179 0.942940 0.629266
0.048179 0.942940 0.629266
0.048179 0.942940 0.629266
0.048179 0.942940 0.629266
0.048179 0.942940 0.629266
0.048179 0.942940 0.629266
0.048179 0.942605 0.630995
0.048179 0.942605 0.630995
0.048179 0.942268 0.632727
0.048179 0.942268 0.632727
0.048179 0.941932 0.634456
0.048179 0.941932 0.634456
0.139087 0.947576 0.623952
0.264013 0.954795 0.610347
0.444854 0.965778 0.584903
0.658341 0.978361 0.559817
0.807510 0.987040 0.543642
0.888644 0.992232 0.535398
0.934197 0.992559 0.525597
0.956879 0.994089 0.501063
0.957081 0.993131 0.471199
0.957865 0.991127 0.462324
0.958259 0.989117 0.463077
0.959627 0.988756 0.461348
0.959044 0.985770 0.461124
0.960805 0.983734 0.458418
0.961984 0.979385 0.452028
0.048179 0.942940 0.629266
0.048179 0.942940 0.629266
0.048179 0.942940 0.629266
0.048179 0.942940 0.629266
0.048179 0.942940 0.629266
0.048179 0.942940 0.629266
0.048179 0.942940 0.629266
0.048179 0.942940 0.629266
0.048179 0.942940 0.629266
0.048179 0.942940 0.629266
0.048179 0.942940 0.629266
0.048179 0.942940 0.629266
0.048179 0.942940 0.629266
0.048179 0.942605 0.630995
0.048179 0.942605 0.630995
0.048179 0.942268 0.632727
0.048179 0.941932 0.634456
0.048179 0.941932 0.634456
0.086889 0.944738 0.629848
0.207123 0.951063 0.616020
0.363720 0.959913 0.596605
0.575840 0.973530 0.569789
0.759027 0.984119 0.548781
0.862055 0.990493 0.536993
