Sources/Resources/LUT/gfx-eterna-55-3d-lut-v100/33Grid/F-Log2/FLog2_to_ETERNA-BB_33grid_V.1.00.cube
#title:FLog2_to_ETERNA-BB
#model:GFX ETERNA 55
#FUJIFILM Corporation
#Gamma:F-Log2 to ETERNA BLEACH BYPASS
#Gamut:F-Gamut to ITU-R BT.709
#Version:1.00
LUT_3D_SIZE 5
0.000000 0.000000 0.000000
0.081516 0.010145 0.016653
0.446890 0.035870 0.065202
0.622971 0.110153 0.128919
0.622971 0.110153 0.128919
0.023187 0.088108 0.025183
0.097858 0.101740 0.041836
0.547486 0.133862 0.119153
0.638959 0.157762 0.150230
0.623554 0.113140 0.129140
0.321099 0.775258 0.348554
0.299635 0.731447 0.322051
0.754127 0.788091 0.423113
0.888716 0.694737 0.422309
0.835063 0.572703 0.360460
0.518414 0.912171 0.556633
0.518414 0.912171 0.556633
0.641558 0.938038 0.580173
0.951413 0.973448 0.561716
0.949871 0.951192 0.534730
0.518414 0.912171 0.556633
0.518414 0.912171 0.556633
0.547540 0.918178 0.560676
0.856589 0.966156 0.616680
0.952389 0.973752 0.566152
0.005266 0.007482 0.041890
0.093426 0.021147 0.057257
0.517845 0.044543 0.108565
0.622971 0.110153 0.128919
0.622971 0.110153 0.128919
0.034484 0.120708 0.118954
0.118164 0.118164 0.118164
0.574447 0.146173 0.173515
0.634087 0.141212 0.145434
0.622971 0.110153 0.128919
0.317729 0.794026 0.543445
0.301376 0.732582 0.423000
0.758053 0.764630 0.447957
0.876039 0.659717 0.404593
0.817898 0.530789 0.338618
0.494544 0.914896 0.648039
0.511951 0.915570 0.607484
0.648787 0.939503 0.605066
0.951221 0.972484 0.541480
0.949488 0.942207 0.530602
0.494153 0.915561 0.654208
0.509213 0.916292 0.610946
0.551637 0.921368 0.593468
0.861280 0.967050 0.616902
0.952389 0.973752 0.566152
0.048396 0.065244 0.213854
0.143795 0.076100 0.216134
0.653951 0.180343 0.414390
0.702578 0.252980 0.375411
0.675445 0.218725 0.288871
0.133009 0.287187 0.528125
0.187975 0.253964 0.520757
0.721658 0.307558 0.584023
0.727949 0.295993 0.430048
0.677006 0.222016 0.293531
0.289330 0.810313 0.765356
0.283499 0.775502 0.728605
0.807617 0.807617 0.807617
0.937342 0.710580 0.675777
0.867290 0.581405 0.513821
0.374684 0.904354 0.793965
0.419846 0.910387 0.764375
0.615324 0.944662 0.769066
0.967994 0.979777 0.751191
0.956899 0.939500 0.662167
0.369991 0.903124 0.795473
0.416130 0.909799 0.768590
0.500194 0.922961 0.737321
0.872194 0.975542 0.784415
0.961359 0.979377 0.676421
0.157904 0.199209 0.581754
0.240175 0.238319 0.610039
0.861459 0.476691 0.837008
0.857744 0.486855 0.785848
0.823393 0.431402 0.716032
0.278248 0.516666 0.695973
0.272992 0.491131 0.687047
0.840039 0.599442 0.877903
0.884091 0.532524 0.832808
0.837639 0.456367 0.747145
0.287014 0.774024 0.769828
0.283136 0.737133 0.755798
0.600017 0.763203 0.852664
0.960912 0.765328 0.923128
0.939477 0.694581 0.855353
0.298836 0.890368 0.807931
0.298836 0.890368 0.807931
0.381127 0.906815 0.832926
0.970703 0.970703 0.970703
0.981293 0.940198 0.928676
0.298836 0.890368 0.807931
0.298836 0.890368 0.807931
0.298836 0.890368 0.807931
0.833849 0.977161 0.936609
0.989460 0.994350 0.928246
0.256247 0.412541 0.664485
0.260143 0.428451 0.666574
0.898854 0.634080 0.905074
0.919994 0.603272 0.905468
0.919994 0.603272 0.905468
0.276104 0.510054 0.692820
0.272609 0.481811 0.684649
0.813623 0.626034 0.878794
0.919994 0.603272 0.905468
0.919994 0.603272 0.905468
0.285654 0.763727 0.766453
0.278848 0.723569 0.751222
0.581463 0.742969 0.842761
0.963258 0.759893 0.953523
0.953713 0.720460 0.941754
0.298836 0.890368 0.807931
0.298836 0.890368 0.807931
0.372338 0.897018 0.829329
0.953900 0.956404 0.977043
0.982269 0.931092 0.981567
0.298836 0.890368 0.807931
0.298836 0.890368 0.807931
0.298836 0.890368 0.807931
0.783018 0.972953 0.945965
1.000000 1.000000 1.000000
