Sources/Resources/LUT/gfx-eterna-55-3d-lut-v100/33Grid/F-Log2/FLog2_to_PROVIA_33grid_V.1.00.cube
#title:FLog2_to_PROVIA
#model:GFX ETERNA 55
#FUJIFILM Corporation
#Gamma:F-Log2 to PROVIA
#Gamut:F-Gamut to ITU-R BT.709
#Version:1.00
LUT_3D_SIZE 33
0.000000 0.000000 0.000000
0.000000 0.000000 0.000000
0.000000 0.000000 0.000000
0.002347 0.000616 0.000000
0.020528 0.001206 0.000000
0.047115 0.001937 0.003512
0.075072 0.002307 0.005379
0.105375 0.002956 0.008224
0.144477 0.002406 0.011289
0.200391 0.002811 0.016755
0.253958 0.002935 0.021242
0.317302 0.002838 0.026929
0.384754 0.000313 0.034347
0.461588 0.000000 0.043941
0.556212 0.000097 0.056910
0.665301 0.000282 0.078223
0.785142 0.000214 0.106901
0.897161 0.000000 0.150179
0.969879 0.000221 0.221985
0.993910 0.000191 0.321871
0.999960 0.000000 0.387766
0.999960 0.000000 0.384305
1.000000 0.000000 0.376406
1.000000 0.000000 0.376406
1.000000 0.000000 0.376406
1.000000 0.000000 0.376406
1.000000 0.000000 0.376406
1.000000 0.000000 0.376406
1.000000 0.000000 0.376406
1.000000 0.000000 0.376406
1.000000 0.000000 0.376406
1.000000 0.000000 0.376406
1.000000 0.000000 0.376406
0.000000 0.000000 0.000000
0.000000 0.000000 0.000000
0.000000 0.000000 0.000000
0.000000 0.000000 0.000000
0.020528 0.001206 0.000000
0.044769 0.001658 0.002535
0.071358 0.002726 0.004403
0.103030 0.002676 0.007247
0.140761 0.002826 0.010313
0.188269 0.002752 0.014577
0.249267 0.002041 0.021019
0.310266 0.001665 0.025731
0.384754 0.000313 0.034347
0.476055 0.000250 0.043632
0.581823 0.000000 0.061261
0.700688 0.000000 0.082044
0.820137 0.000413 0.116891
0.936456 0.000720 0.170020
0.986883 0.000000 0.256731
1.000000 0.000305 0.363316
0.999960 0.000000 0.387766
0.998984 0.000000 0.378137
1.000000 0.000000 0.376406
1.000000 0.000000 0.376406
1.000000 0.000000 0.376406
1.000000 0.000000 0.376406
1.000000 0.000000 0.376406
1.000000 0.000000 0.376406
1.000000 0.000000 0.376406
1.000000 0.000000 0.376406
1.000000 0.000000 0.376406
1.000000 0.000000 0.376406
1.000000 0.000000 0.376406
0.000000 0.000000 0.000000
0.000000 0.000000 0.000000
0.000000 0.000000 0.000000
0.000000 0.000000 0.000000
0.016813 0.001288 0.000667
0.038709 0.001460 0.002313
0.065297 0.002528 0.004179
0.096969 0.002480 0.007023
0.137046 0.002908 0.011066
0.184555 0.003171 0.013601
0.244184 0.002819 0.021773
0.317302 0.002838 0.026929
0.400590 0.000000 0.037500
0.497951 0.000000 0.048739
0.608410 0.000246 0.064858
0.731966 0.000096 0.092786
0.852786 0.000000 0.127633
0.955220 0.000000 0.195136
0.991766 0.000000 0.287570
0.999568 0.000623 0.390472
0.999960 0.000000 0.384305
1.000000 0.000000 0.376406
1.000000 0.000000 0.376406
1.000000 0.000000 0.376406
1.000000 0.000000 0.376406
1.000000 0.000000 0.376406
1.000000 0.000000 0.376406
1.000000 0.000000 0.376406
1.000000 0.000000 0.376406
1.000000 0.000000 0.376406
1.000000 0.000000 0.376406
1.000000 0.000000 0.376406
1.000000 0.000000 0.376406
0.000000 0.000000 0.000000
0.000000 0.000000 0.000000
0.000000 0.000000 0.000000
0.000000 0.000000 0.000000
0.016813 0.001288 0.000667
0.034995 0.001879 0.001337
0.062951 0.001914 0.004934
0.093254 0.002898 0.006046
0.130987 0.002710 0.010844
0.188269 0.002752 0.014577
0.253958 0.002935 0.021242
0.327078 0.002617 0.028129
0.414081 0.000000 0.037946
0.516132 0.000341 0.049406
0.632653 0.000026 0.070942
0.758555 0.000155 0.099844
0.884064 0.000000 0.143567
0.968902 0.000000 0.219277
0.997233 0.000775 0.327285
0.999960 0.000000 0.387766
0.998984 0.000000 0.379867
1.000000 0.000000 0.376406
1.000000 0.000000 0.376406
1.000000 0.000000 0.376406
1.000000 0.000000 0.376406
1.000000 0.000000 0.376406
1.000000 0.000000 0.376406
1.000000 0.000000 0.376406
1.000000 0.000000 0.376406
1.000000 0.000000 0.376406
1.000000 0.000000 0.376406
1.000000 0.000000 0.376406
1.000000 0.000000 0.376406
0.000575 0.014654 0.000136
0.000575 0.014654 0.000136
0.000575 0.014654 0.000136
0.000575 0.014654 0.000136
0.011719 0.013735 0.001337
0.032247 0.015277 0.000000
0.059227 0.014670 0.000411
0.093637 0.013563 0.001524
0.136453 0.012596 0.005566
0.189629 0.014730 0.009300
0.259426 0.012821 0.015965
0.338022 0.009377 0.024581
0.426977 0.008699 0.034622
0.535684 0.000235 0.050074
0.654549 0.000199 0.072586
0.785142 0.000214 0.106901
0.912605 0.000000 0.161231
0.982584 0.000000 0.243418
1.000000 0.000305 0.363316
0.999960 0.000000 0.387766
0.998984 0.000000 0.379867
1.000000 0.000000 0.376406
1.000000 0.000000 0.376406
1.000000 0.000000 0.376406
1.000000 0.000000 0.376406
1.000000 0.000000 0.376406
1.000000 0.000000 0.376406
1.000000 0.000000 0.376406
1.000000 0.000000 0.376406
1.000000 0.000000 0.376406
1.000000 0.000000 0.376406
1.000000 0.000000 0.376406
1.000000 0.000000 0.376406
0.000000 0.032015 0.000000
0.000000 0.032015 0.000000
0.000000 0.032015 0.000000
0.001542 0.027298 0.001028
0.000000 0.032015 0.000000
0.027737 0.030710 0.000411
0.053348 0.031138 0.000000
0.090496 0.028971 0.000000
0.134873 0.032976 0.000000
0.189811 0.032067 0.005223
0.265669 0.030690 0.010379
0.346217 0.029871 0.017489
0.442410 0.024032 0.026551
0.556785 0.017776 0.041472
0.680936 0.009617 0.066246
0.817207 0.000000 0.103577
0.940563 0.000000 0.166559
0.991181 0.000336 0.268312
0.999377 0.000000 0.368507
0.999960 0.000000 0.387766
0.998984 0.000000 0.379867
1.000000 0.000000 0.376406
1.000000 0.000000 0.376406
1.000000 0.000000 0.376406
1.000000 0.000000 0.376406
1.000000 0.000000 0.376406
1.000000 0.000000 0.376406
1.000000 0.000000 0.376406
1.000000 0.000000 0.376406
1.000000 0.000000 0.376406
1.000000 0.000000 0.376406
1.000000 0.000000 0.376406
1.000000 0.000000 0.376406
0.001521 0.050632 0.000854
0.000000 0.046669 0.000000
0.000000 0.046669 0.000000
0.001521 0.050632 0.000854
0.001521 0.050632 0.000854
0.017358 0.050943 0.000547
0.047660 0.052265 0.000000
0.085393 0.053086 0.000000
0.133294 0.052011 0.000000
0.194290 0.052307 0.000613
0.270148 0.051266 0.004039
0.354805 0.048355 0.011147
0.457643 0.046036 0.018926
0.575733 0.039025 0.036555
0.705943 0.032408 0.054629
0.840846 0.022653 0.093692
0.946613 0.014189 0.151122
0.999186 0.021884 0.230602
1.000000 0.008028 0.333144
0.999377 0.000000 0.370239
0.999960 0.003653 0.365269
0.999176 0.007338 0.365493
0.999960 0.003653 0.365269
1.000000 0.000299 0.372945
1.000000 0.000000 0.376406
1.000000 0.000000 0.376406
1.000000 0.000000 0.376406
1.000000 0.000000 0.376406
1.000000 0.000000 0.376406
1.000000 0.000000 0.376406
1.000000 0.000000 0.376406
1.000000 0.000000 0.376406
1.000000 0.000000 0.376406
0.001110 0.075977 0.000000
0.001110 0.075977 0.000000
0.001110 0.075977 0.000000
0.001110 0.075977 0.000000
0.001110 0.075977 0.000000
0.005409 0.078881 0.000000
0.038449 0.078807 0.000000
0.075789 0.081302 0.000000
0.122320 0.080924 0.000000
0.187426 0.079128 0.000442
0.267975 0.079990 0.000000
0.359668 0.079598 0.000285
0.467006 0.072504 0.012277
0.591740 0.070692 0.019969
0.710807 0.063986 0.042036
0.824397 0.058389 0.072755
0.934271 0.050185 0.118071
1.000000 0.047253 0.191161
0.998965 0.039790 0.293173
1.000000 0.029011 0.345087
1.000000 0.029011 0.345087
0.999941 0.031021 0.344332
0.999751 0.025352 0.348324
1.000000 0.020996 0.351563
0.998975 0.015688 0.357286
0.999367 0.013005 0.361501
0.999176 0.008010 0.362032
0.999960 0.003317 0.367000
0.999377 0.000000 0.371968
1.000000 0.000000 0.376406
1.000000 0.000000 0.376406
1.000000 0.000000 0.376406
1.000000 0.000000 0.376406
0.002449 0.110281 0.000000
0.002449 0.110281 0.000000
0.003425 0.111593 0.000000
0.003425 0.111593 0.000000
0.003425 0.111593 0.000000
0.003034 0.113267 0.000000
0.020822 0.115869 0.000000
0.061294 0.115295 0.000000
0.109777 0.117207 0.000000
0.180943 0.115943 0.000000
0.263838 0.116748 0.000371
0.360424 0.110915 0.000000
0.466583 0.111531 0.000883
0.578614 0.106676 0.006175
0.696311 0.101675 0.023052
0.812831 0.100687 0.048047
0.920944 0.095864 0.089149
1.000000 0.090658 0.147641
1.000000 0.083840 0.242731
1.000000 0.069726 0.315410
1.000000 0.061710 0.321887
1.000000 0.061710 0.321887
0.999337 0.055065 0.324902
0.999539 0.047386 0.329649
0.999347 0.041718 0.333641
1.000000 0.037362 0.336879
0.999941 0.031021 0.344332
0.999751 0.024680 0.351785
0.999559 0.019011 0.355778
0.999951 0.016664 0.358262
1.000000 0.009322 0.361277
0.999960 0.003653 0.365269
1.000000 0.000299 0.372945
0.000256 0.161332 0.000000
0.000841 0.164318 0.000000
0.001424 0.167304 0.000000
0.001424 0.167304 0.000000
0.001424 0.167304 0.000000
0.001424 0.167304 0.000000
0.001030 0.169314 0.000000
0.039157 0.168125 0.000000
0.090379 0.168643 0.000000
0.162130 0.170366 0.000000
0.248155 0.168102 0.000000
0.348063 0.163860 0.000000
0.449924 0.161908 0.000000
0.561561 0.159736 0.000418
0.678282 0.156782 0.000742
0.797539 0.154400 0.025737
0.906236 0.153907 0.060141
0.999682 0.152728 0.112379
1.000000 0.147262 0.190919
1.000000 0.134117 0.274203
1.000000 0.117111 0.286180
0.999884 0.111778 0.288442
0.999501 0.100777 0.294695
0.998724 0.091450 0.301925
1.000000 0.083073 0.306672
1.000000 0.069726 0.315410
1.000000 0.061710 0.321887
0.999731 0.053392 0.323926
0.999932 0.045712 0.328672
0.998764 0.038395 0.335148
0.999155 0.035377 0.341093
0.999751 0.025688 0.346595
1.000000 0.020996 0.351563
0.000781 0.233984 0.000989
0.000000 0.238004 0.000000
0.000000 0.239679 0.000456
0.000000 0.239679 0.000456
0.000000 0.239679 0.000456
0.000000 0.239679 0.000456
0.000187 0.242666 0.000680
0.000187 0.242666 0.000680
0.054148 0.242124 0.000000
0.128445 0.237455 0.000000
0.222293 0.233018 0.000000
0.322393 0.233436 0.000000
0.428755 0.227719 0.000000
0.542737 0.225825 0.000742
0.660827 0.222510 0.000000
0.781847 0.222126 0.000860
0.890936 0.221639 0.025632
0.994157 0.220574 0.077341
0.999623 0.215674 0.148203
0.999030 0.207215 0.236148
1.000000 0.184521 0.239026
0.999451 0.168186 0.247543
0.999652 0.159836 0.255750
1.000000 0.149810 0.262980
0.998887 0.136824 0.273450
1.000000 0.123115 0.280457
0.999491 0.114125 0.285957
0.999501 0.100777 0.294695
0.999700 0.092426 0.302901
0.999710 0.079414 0.309910
0.999329 0.068412 0.316164
0.999922 0.058724 0.321663
0.999539 0.047723 0.327918
0.000311 0.328996 0.001278
0.000000 0.331007 0.000524
0.000000 0.336701 0.000000
0.000693 0.338990 0.000215
0.000000 0.339687 0.000215
0.000000 0.339687 0.000215
0.000000 0.333017 0.000000
0.000000 0.328020 0.000302
0.014395 0.320348 0.000302
0.089276 0.319003 0.000000
0.183515 0.312555 0.000000
0.289484 0.308510 0.000000
0.403860 0.304943 0.000434
0.520973 0.300315 0.000000
0.641993 0.300267 0.000000
0.764774 0.297511 0.000121
0.874065 0.295058 0.000223
0.980417 0.294959 0.030188
0.998588 0.293102 0.103450
0.999163 0.291624 0.186648
1.000000 0.263896 0.205856
0.999595 0.240257 0.201590
0.999996 0.224899 0.211082
1.000000 0.211216 0.221550
0.999623 0.199878 0.229536
1.000000 0.184521 0.239026
1.000000 0.171173 0.247764
0.999652 0.159836 0.255750
0.998686 0.145176 0.265243
1.000000 0.134117 0.274203
0.999289 0.121803 0.281212
0.999299 0.108456 0.289950
0.999700 0.093098 0.299441
0.000000 0.447678 0.000000
0.000595 0.455326 0.001085
0.000000 0.461020 0.000554
0.000002 0.464006 0.000778
0.000204 0.457336 0.000333
0.000000 0.447678 0.000000
0.000222 0.434002 0.000504
0.000000 0.428029 0.000058
0.000041 0.417674 0.000000
0.031521 0.412965 0.001034
0.130453 0.407747 0.000000
0.250697 0.399715 0.000000
0.366442 0.395786 0.000000
0.495093 0.388231 0.000465
0.620219 0.386089 0.000257
0.742417 0.380684 0.000000
0.857768 0.378428 0.000000
0.956892 0.377535 0.000785
0.999506 0.374164 0.051995
1.000000 0.370341 0.137681
1.000000 0.346619 0.174637
0.999728 0.319961 0.176317
0.999163 0.295321 0.167614
1.000000 0.282285 0.171160
0.999575 0.267625 0.180653
0.999585 0.254277 0.189391
0.999010 0.237607 0.199637
0.999996 0.224899 0.211082
0.999030 0.209567 0.224035
0.999040 0.196556 0.231043
1.000000 0.182175 0.241513
0.999451 0.167514 0.251003
0.999069 0.156513 0.257258
0.000479 0.595332 0.000054
0.000000 0.604013 0.000000
0.000000 0.599017 0.000278
0.000679 0.588326 0.001340
0.000000 0.577692 0.000000
0.000699 0.565327 0.000000
0.000000 0.554357 0.000000
0.000000 0.542690 0.000000
0.000000 0.534010 0.000262
0.000000 0.524352 0.000000
0.060176 0.514992 0.000176
0.183742 0.508552 0.000500
0.321191 0.500134 0.000292
0.455319 0.490125 0.000000
0.588268 0.485811 0.000000
0.714574 0.477976 0.000000
0.830317 0.473710 0.000305
0.930617 0.467795 0.000000
0.998462 0.464267 0.001965
0.998843 0.458129 0.083965
0.998462 0.438390 0.135210
0.999265 0.409356 0.145543
0.999487 0.379350 0.145269
1.000000 0.359002 0.145663
0.999516 0.343677 0.148988
0.998941 0.327679 0.155773
0.999345 0.313330 0.160074
0.999163 0.295321 0.167614
1.000000 0.282285 0.171160
0.999575 0.267625 0.180653
0.999976 0.251595 0.193606
0.999010 0.237607 0.199637
0.999996 0.224899 0.211082
0.000000 0.740696 0.000223
0.000000 0.731040 0.000000
0.000000 0.722359 0.000000
0.000000 0.712702 0.000000
0.000000 0.701034 0.000000
0.000000 0.689368 0.000000
0.000000 0.677700 0.000000
0.000000 0.664022 0.000292
0.000000 0.654366 0.000000
0.000000 0.645685 0.000000
0.000000 0.634018 0.000019
0.085891 0.625083 0.000000
0.246022 0.613491 0.000000
0.396961 0.604435 0.001214
0.542626 0.592169 0.000000
0.676753 0.582159 0.000000
0.798366 0.573094 0.000679
0.902775 0.565088 0.000000
0.992715 0.555735 0.000077
1.000000 0.550529 0.024528
0.999168 0.535101 0.097961
0.998412 0.500760 0.114015
0.999610 0.471058 0.118180
0.998854 0.439070 0.122121
0.999648 0.422709 0.127176
0.999074 0.407720 0.128769
0.999869 0.390688 0.137285
0.999688 0.373689 0.139634
0.999698 0.360677 0.146640
1.000000 0.346663 0.149211
0.999133 0.332676 0.155242
0.999536 0.318326 0.159543
0.999355 0.301326 0.161891
0.000000 0.850361 0.000648
0.000000 0.843692 0.000203
0.000000 0.837021 0.000000
0.000000 0.824041 0.000597
0.000000 0.817370 0.000152
0.000000 0.806680 0.001214
0.000000 0.794036 0.000324
0.000000 0.782368 0.000410
0.000000 0.773689 0.000720
0.000000 0.762021 0.000805
0.000000 0.752364 0.000137
0.000000 0.740696 0.000223
0.131358 0.728399 0.000000
0.312408 0.716003 0.000000
0.477431 0.698297 0.000715
0.626811 0.685614 0.000000
0.758008 0.672004 0.000000
0.866524 0.661904 0.000000
0.963894 0.652050 0.000000
0.999291 0.640589 0.000000
0.999291 0.631179 0.048375
1.000000 0.598784 0.076011
0.999340 0.564105 0.093796
0.999571 0.521760 0.097070
0.999973 0.506739 0.104831
0.999792 0.489067 0.110640
1.000000 0.474717 0.114941
0.999620 0.459391 0.118265
1.000000 0.445042 0.122566
0.999840 0.427370 0.128374
1.000000 0.413021 0.132676
0.999275 0.399705 0.135247
0.999094 0.382033 0.141056
0.000000 0.946686 0.000183
0.000000 0.940713 0.000000
0.000000 0.934043 0.000000
0.000397 0.926338 0.000577
0.000000 0.917379 0.000000
0.000216 0.910011 0.000000
0.000000 0.902028 0.000000
0.000000 0.890361 0.000000
0.000436 0.879670 0.000922
0.000053 0.870013 0.000254
0.000000 0.859043 0.000339
0.000072 0.846678 0.000426
0.000000 0.837021 0.000000
0.178787 0.822336 0.000000
0.380568 0.804475 0.000000
0.556342 0.787862 0.000746
0.703768 0.772890 0.000000
0.828905 0.759081 0.000000
0.929407 0.746159 0.000000
0.999213 0.733926 0.000000
0.998831 0.723933 0.000297
0.998850 0.692869 0.040269
0.999856 0.654476 0.064000
1.000000 0.609779 0.079387
0.999712 0.587782 0.082265
0.998746 0.574802 0.083105
1.000000 0.559083 0.090866
0.999943 0.543757 0.094191
0.999370 0.528431 0.097515
0.999772 0.513410 0.105277
0.999199 0.498084 0.108602
0.998624 0.482758 0.111926
0.999419 0.466398 0.116982
0.000000 1.000000 0.000285
0.000000 1.000000 0.000285
0.000000 1.000000 0.000285
0.000000 1.000000 0.000285
0.000000 1.000000 0.000285
0.000000 0.993356 0.000000
0.000000 0.986685 0.000000
0.000000 0.978702 0.000000
0.000000 0.970021 0.000012
0.000000 0.960364 0.000000
0.000000 0.951348 0.001383
0.000000 0.941689 0.000715
0.000000 0.932033 0.000046
0.000000 0.922376 0.000000
0.233858 0.897435 0.000000
0.448352 0.871288 0.000043
0.628628 0.850908 0.000504
0.772730 0.834344 0.000000
0.890045 0.822710 0.000000
0.986631 0.816877 0.000000
0.999930 0.811577 0.000141
0.999758 0.783582 0.000000
0.999395 0.745213 0.026304
0.999232 0.701182 0.047859
0.999846 0.666479 0.062185
0.999273 0.651825 0.062047
0.999283 0.638477 0.070785
0.999684 0.624800 0.071624
0.999109 0.609474 0.074949
0.999119 0.596798 0.080226
0.999914 0.580439 0.085282
0.998948 0.566787 0.089583
0.998766 0.549787 0.091929
0.000000 1.000000 0.000285
0.000000 1.000000 0.000285
0.000000 1.000000 0.000285
0.000000 1.000000 0.000285
0.000000 1.000000 0.000285
0.000000 1.000000 0.000285
0.000000 1.000000 0.000285
0.000000 1.000000 0.000285
0.000000 1.000000 0.000285
0.000000 1.000000 0.000285
0.000000 1.000000 0.000285
0.000000 1.000000 0.000285
0.000000 1.000000 0.000285
0.000000 1.000000 0.000285
0.000000 0.988359 0.000372
0.287185 0.951906 0.000000
0.518493 0.927048 0.000110
0.698769 0.906668 0.000570
0.837395 0.892557 0.000895
0.945911 0.882457 0.000000
1.000000 0.874573 0.000910
0.999107 0.861930 0.000019
0.999135 0.826929 0.000277
0.999556 0.786556 0.018593
0.998418 0.740203 0.046094
0.999797 0.727503 0.047910
0.998831 0.714523 0.048751
0.999232 0.700174 0.053051
0.999242 0.687162 0.060058
0.998669 0.672844 0.058191
0.999071 0.658495 0.062492
0.999472 0.644146 0.066792
0.999482 0.631806 0.070340
0.000000 1.000000 0.000285
0.000000 1.000000 0.000285
0.000000 1.000000 0.000285
0.000000 1.000000 0.000285
0.000000 1.000000 0.000285
0.000000 1.000000 0.000285
0.000000 1.000000 0.000285
0.000000 1.000000 0.000285
0.000000 1.000000 0.000285
0.000000 1.000000 0.000285
0.000000 1.000000 0.000285
0.000000 1.000000 0.000285
0.000000 1.000000 0.000285
0.000000 1.000000 0.000285
0.000000 1.000000 0.000285
0.000000 1.000000 0.000285
0.337393 0.997779 0.000000
0.580237 0.970665 0.000000
0.755428 0.951065 0.000277
0.882718 0.932876 0.000000
0.979114 0.922045 0.000000
0.998282 0.912282 0.000000
0.999862 0.893247 0.000000
0.999498 0.860256 0.000000
0.998552 0.819909 0.020820
0.999940 0.794197 0.029645
0.999556 0.784203 0.030707
0.999566 0.771527 0.035984
0.998206 0.759549 0.041261
0.998610 0.745536 0.043832
0.999988 0.732836 0.045648
0.999998 0.720160 0.050926
0.999032 0.707181 0.051766
0.000000 1.000000 0.000285
0.000000 1.000000 0.000285
0.000000 1.000000 0.000285
0.000000 1.000000 0.000285
0.000000 1.000000 0.000285
0.000000 1.000000 0.000285
0.000000 1.000000 0.000285
0.000000 1.000000 0.000285
0.000000 1.000000 0.000285
0.000000 1.000000 0.000285
0.000000 1.000000 0.000285
0.000000 1.000000 0.000285
0.000000 1.000000 0.000285
0.000000 1.000000 0.000285
0.000000 1.000000 0.000285
0.000000 1.000000 0.000285
0.019103 0.999919 0.000953
0.379816 0.999495 0.000000
0.623226 0.998700 0.000000
0.792749 0.977230 0.000000
0.909479 0.962610 0.000000
0.998837 0.950270 0.000000
0.998845 0.938603 0.000000
0.999057 0.920265 0.000000
0.998302 0.888949 0.000070
0.998915 0.853573 0.017855
0.998531 0.843243 0.020648
0.999518 0.832552 0.021710
0.999135 0.822224 0.024504
0.999730 0.812870 0.028274
0.999738 0.801539 0.026630
0.999748 0.789200 0.030176
0.999365 0.778535 0.034699
0.000000 1.000000 0.000285
0.000000 1.000000 0.000285
0.000000 1.000000 0.000285
0.000000 1.000000 0.000285
0.000000 1.000000 0.000285
0.000000 1.000000 0.000285
0.000000 1.000000 0.000285
0.000000 1.000000 0.000285
0.000000 1.000000 0.000285
0.000000 1.000000 0.000285
0.000000 1.000000 0.000285
0.000000 1.000000 0.000285
0.000000 1.000000 0.000285
0.000000 1.000000 0.000285
0.000000 1.000000 0.000285
0.000000 1.000000 0.000285
0.000000 1.000000 0.000285
0.071695 1.000000 0.000000
0.418919 0.999618 0.000000
0.660957 0.999186 0.000277
0.819709 0.999958 0.000000
0.936048 0.987347 0.000000
0.999009 0.973897 0.023387
0.998827 0.959921 0.010160
0.998454 0.940613 0.000000
0.999259 0.913259 0.000875
0.998684 0.897261 0.007660
0.999278 0.888580 0.007969
0.998895 0.878252 0.010761
0.999489 0.868226 0.017992
0.999107 0.859241 0.013864
0.999700 0.849217 0.021094
0.998340 0.837911 0.022911
0.000000 1.000000 0.000285
0.000000 1.000000 0.000285
0.000000 1.000000 0.000285
0.000000 1.000000 0.000285
0.000000 1.000000 0.000285
0.000000 1.000000 0.000285
0.000000 1.000000 0.000285
0.000000 1.000000 0.000285
0.000000 1.000000 0.000285
0.000000 1.000000 0.000285
0.000000 1.000000 0.000285
0.000000 1.000000 0.000285
0.000000 1.000000 0.000285
0.000000 1.000000 0.000285
0.000000 1.000000 0.000285
0.000000 1.000000 0.000285
0.000000 1.000000 0.000285
0.000000 1.000000 0.000285
0.215980 0.999502 0.000710
0.494776 0.999249 0.000000
0.696344 0.999727 0.000000
0.842975 0.999769 0.000000
0.953434 0.999592 0.019171
0.998989 0.995215 0.033598
0.999201 0.978221 0.026317
0.998827 0.959921 0.010160
0.999037 0.943600 0.000000
0.999630 0.934920 0.000000
0.999832 0.928249 0.000000
0.999057 0.920265 0.000000
0.998674 0.909937 0.002383
0.999268 0.900920 0.004421
0.998886 0.890927 0.005484
0.000000 1.000000 0.000285
0.000000 1.000000 0.000285
0.000000 1.000000 0.000285
0.000000 1.000000 0.000285
0.000000 1.000000 0.000285
0.000000 1.000000 0.000285
0.000000 1.000000 0.000285
0.000000 1.000000 0.000285
0.000000 1.000000 0.000285
0.000000 1.000000 0.000285
0.000000 1.000000 0.000285
0.000000 1.000000 0.000285
0.000000 1.000000 0.000285
0.000000 1.000000 0.000285
0.000000 1.000000 0.000285
0.000000 1.000000 0.000285
0.000000 1.000000 0.000285
0.000000 1.000000 0.000285
0.016759 0.999640 0.000000
0.316081 1.000000 0.000000
0.557144 0.998848 0.000176
0.739161 0.999432 0.000000
0.868587 0.999860 0.000481
0.967508 0.999252 0.035413
0.992728 0.999672 0.044202
0.998596 0.996888 0.034574
0.999592 0.976547 0.025340
0.998817 0.970244 0.016996
0.999996 0.965223 0.014067
0.998827 0.959921 0.010160
0.999420 0.952248 0.005277
0.999622 0.946586 0.000000
0.998454 0.940613 0.000000
0.000000 1.000000 0.000285
0.000000 1.000000 0.000285
0.000000 1.000000 0.000285
0.000000 1.000000 0.000285
0.000000 1.000000 0.000285
0.000000 1.000000 0.000285
0.000000 1.000000 0.000285
0.000000 1.000000 0.000285
0.000000 1.000000 0.000285
0.000000 1.000000 0.000285
0.000000 1.000000 0.000285
0.000000 1.000000 0.000285
0.000000 1.000000 0.000285
0.000000 1.000000 0.000285
0.000000 1.000000 0.000285
0.000000 1.000000 0.000285
0.000000 1.000000 0.000285
0.000000 1.000000 0.000285
0.000000 1.000000 0.000285
0.161043 0.999404 0.000000
0.411488 0.999783 0.000468
0.615795 0.999202 0.000000
0.775917 0.998939 0.000000
0.894782 0.999576 0.018899
0.980213 1.000000 0.048196
0.987643 0.999779 0.048417
0.992728 0.999336 0.045934
0.998787 1.000000 0.042695
0.999573 0.997529 0.037281
0.998406 0.992228 0.033375
0.999582 0.986870 0.032176
0.998807 0.979895 0.027293
0.999400 0.972895 0.018949
0.000000 1.000000 0.000285
0.000000 1.000000 0.000285
0.000000 1.000000 0.000285
0.000000 1.000000 0.000285
0.000000 1.000000 0.000285
0.000000 1.000000 0.000285
0.000000 1.000000 0.000285
0.000000 1.000000 0.000285
0.000000 1.000000 0.000285
0.000000 1.000000 0.000285
0.000000 1.000000 0.000285
0.000000 1.000000 0.000285
0.000000 1.000000 0.000285
0.000000 1.000000 0.000285
0.000000 1.000000 0.000285
0.000000 1.000000 0.000285
0.000000 1.000000 0.000285
0.000000 1.000000 0.000285
0.000000 1.000000 0.000285
0.044716 1.000000 0.000114
0.307675 0.999445 0.000366
0.514326 0.999143 0.000000
0.685199 1.000000 0.000000
0.815995 1.000000 0.000430
0.919608 0.999990 0.037317
0.982166 0.999880 0.062262
0.982559 1.000000 0.049173
0.987643 0.999443 0.050149
0.989989 1.000000 0.049394
0.991358 0.999697 0.047665
0.995072 0.999615 0.046910
0.995072 0.999615 0.046910
0.998787 0.999869 0.044426
0.000000 1.000000 0.000285
0.000000 1.000000 0.000285
0.000000 1.000000 0.000285
0.000000 1.000000 0.000285
0.000000 1.000000 0.000285
0.000000 1.000000 0.000285
0.000000 1.000000 0.000285
0.000000 1.000000 0.000285
0.000000 1.000000 0.000285
0.000000 1.000000 0.000285
0.000000 1.000000 0.000285
0.000000 1.000000 0.000285
0.000000 1.000000 0.000285
0.000000 1.000000 0.000285
0.000000 1.000000 0.000285
0.000000 1.000000 0.000285
0.000000 1.000000 0.000285
0.000000 1.000000 0.000285
0.000000 1.000000 0.000285
0.000000 1.000000 0.000285
0.212266 0.999921 0.000000
0.438468 0.999511 0.000000
0.624203 0.999677 0.000000
0.770833 0.999720 0.000601
0.879922 0.999233 0.025375
