Sources/Resources/LUT/gfx-eterna-55-3d-lut-v100/33Grid/F-Log2/FLog2_to_PRO-Neg.Std_33grid_V.1.00.cube
#title:FLog2_to_PRO-Neg.Std
#model:GFX ETERNA 55
#FUJIFILM Corporation
#Gamma:F-Log2 to PRO Neg.Std
#Gamut:F-Gamut to ITU-R BT.709
#Version:1.00
LUT_3D_SIZE 9
0.000000 0.000000 0.000000
0.018767 0.002906 0.004352
0.102627 0.012994 0.023711
0.267229 0.024235 0.065223
0.627731 0.025009 0.152239
0.929380 0.009919 0.355367
0.929380 0.010591 0.351906
0.929380 0.010591 0.351906
0.929380 0.010591 0.351906
0.002528 0.016942 0.000360
0.014648 0.017001 0.002535
0.098319 0.022428 0.020695
0.304176 0.027394 0.071972
0.757740 0.020021 0.196714
0.929380 0.010255 0.353638
0.929380 0.010591 0.351906
0.929380 0.010591 0.351906
0.929380 0.010591 0.351906
0.014772 0.104004 0.000000
0.015356 0.106991 0.000000
0.117399 0.120021 0.007808
0.370563 0.133940 0.051684
0.776427 0.125338 0.153656
0.933639 0.066550 0.318152
0.931121 0.035251 0.331722
0.927033 0.011321 0.345738
0.929380 0.010591 0.351906
0.016461 0.420972 0.000000
0.015867 0.429653 0.000000
0.078848 0.397572 0.000000
0.369382 0.387385 0.000449
0.748658 0.385445 0.060753
0.958058 0.342172 0.214078
0.950305 0.262339 0.217164
0.947415 0.206354 0.247457
0.941977 0.157098 0.275488
0.003355 0.894939 0.000305
0.004553 0.865911 0.001009
0.004974 0.829235 0.000288
0.274214 0.798526 0.000492
0.693610 0.763116 0.000000
0.972626 0.716055 0.083890
0.971364 0.576315 0.147133
0.968674 0.517021 0.159675
0.963639 0.457449 0.171242
0.000000 1.000000 0.000285
0.000000 1.000000 0.000285
0.000000 1.000000 0.000285
0.000000 1.000000 0.000285
0.491060 0.999332 0.000000
0.893029 0.994314 0.000000
0.971502 0.883030 0.117965
0.974098 0.816622 0.127577
0.974138 0.770290 0.126192
0.032967 0.999768 0.111000
0.032967 0.999768 0.111000
0.032967 0.999768 0.111000
0.060924 1.000000 0.112868
0.310976 1.000000 0.125012
0.659177 0.999685 0.130867
0.960843 0.999910 0.135164
0.965928 1.000000 0.127488
0.968878 0.981750 0.121938
0.032967 0.999768 0.111000
0.032967 0.999768 0.111000
0.032967 0.999768 0.111000
0.032967 0.999768 0.111000
0.192696 0.999836 0.120027
0.512152 0.999637 0.139813
0.839624 0.999572 0.172156
0.962213 0.999212 0.135164
0.962213 0.999212 0.135164
0.032967 0.999768 0.111000
0.032967 0.999768 0.111000
0.032967 0.999768 0.111000
0.032967 0.999768 0.111000
0.100025 0.999589 0.115934
0.375690 0.999716 0.128969
0.721735 0.999241 0.157544
0.964550 1.000000 0.193160
0.962213 0.999212 0.135164
0.000977 0.000305 0.004438
0.022088 0.004162 0.006305
0.109664 0.013831 0.026640
0.284042 0.024851 0.069352
0.690098 0.021582 0.169061
0.929380 0.009919 0.355367
0.929380 0.010591 0.351906
0.929380 0.010591 0.351906
0.929380 0.010591 0.351906
0.004671 0.020532 0.019086
0.020508 0.020508 0.020508
0.109262 0.026500 0.030992
0.334478 0.027036 0.080007
0.808178 0.019181 0.222945
0.929380 0.010591 0.351906
0.929380 0.010591 0.351906
0.929380 0.010591 0.351906
0.929380 0.010591 0.351906
0.019835 0.117821 0.043738
0.018668 0.114873 0.027718
0.122674 0.121215 0.022098
0.377800 0.127434 0.057630
0.789535 0.114033 0.160356
0.932673 0.052226 0.325914
0.930155 0.020928 0.339484
0.927033 0.011321 0.345738
0.929380 0.010591 0.351906
0.021706 0.454478 0.027179
0.018214 0.429932 0.000000
0.084526 0.387776 0.000282
0.369783 0.374043 0.000000
0.756490 0.369588 0.070468
0.957293 0.321848 0.217933
0.952861 0.242936 0.224704
0.947232 0.187675 0.258458
0.942379 0.142749 0.279790
0.008641 0.887153 0.000836
0.007886 0.856171 0.000000
0.009092 0.815475 0.000375
0.280487 0.780385 0.000355
0.696558 0.743048 0.000797
0.972836 0.695366 0.095644
0.971574 0.556634 0.153696
0.966539 0.497732 0.161801
0.966589 0.436708 0.176074
0.000000 0.999886 0.086192
0.000000 0.999684 0.011645
0.000000 1.000000 0.000285
0.000000 1.000000 0.000285
0.509242 0.999923 0.000348
0.901447 0.983122 0.000481
0.970929 0.868376 0.117829
0.974501 0.802945 0.128418
0.975324 0.752592 0.128540
0.019074 1.000000 0.178934
0.038434 1.000000 0.152445
0.032575 1.000000 0.118898
0.066985 0.999998 0.114821
0.314693 1.000000 0.124258
0.669738 0.999477 0.112809
0.961629 0.999587 0.117637
0.967298 1.000000 0.125757
0.969863 0.970724 0.124729
0.020443 0.999945 0.177202
0.038434 1.000000 0.152445
0.032575 0.999762 0.120630
0.032967 0.999768 0.111000
0.196411 0.999755 0.119273
0.515868 0.999555 0.139058
0.842945 1.000000 0.177570
0.962213 0.999212 0.135164
0.962213 0.999212 0.135164
0.017705 1.000000 0.182394
0.036088 0.999964 0.153199
0.032575 0.999426 0.122359
0.032967 0.999768 0.111000
0.104717 1.000000 0.116156
0.381750 0.999913 0.129191
0.726427 0.999798 0.159497
0.965918 0.999708 0.191429
0.962213 0.999212 0.135164
0.005458 0.009118 0.058665
0.027354 0.009963 0.056848
0.127444 0.017681 0.080113
0.330955 0.023040 0.126953
0.753241 0.017066 0.232300
0.929380 0.010255 0.353638
0.929380 0.010591 0.351906
0.929380 0.010591 0.351906
0.929380 0.010591 0.351906
0.010713 0.031293 0.084894
0.018143 0.031800 0.079925
0.134462 0.037484 0.105367
0.388037 0.024041 0.160551
0.863891 0.012813 0.298074
0.929380 0.010591 0.351906
0.929380 0.010591 0.351906
0.929380 0.010591 0.351906
0.929380 0.010591 0.351906
0.028193 0.154790 0.156989
0.028203 0.146147 0.141500
0.140625 0.140625 0.140625
0.418443 0.134691 0.162089
0.815721 0.110631 0.254829
0.930134 0.046614 0.327199
0.927033 0.011993 0.342277
0.928010 0.011961 0.348446
0.929380 0.010591 0.351906
0.029251 0.507278 0.258067
0.027346 0.459088 0.194247
0.074318 0.409454 0.138151
0.390090 0.379713 0.131261
0.771924 0.364420 0.167957
0.956910 0.304126 0.258796
0.949941 0.225314 0.237433
0.945682 0.170364 0.265996
0.940042 0.128786 0.289280
0.014854 0.881547 0.296094
0.015286 0.849672 0.210668
0.014359 0.807163 0.123598
0.274426 0.767082 0.067620
0.705559 0.725434 0.050758
0.973631 0.672957 0.131848
0.969047 0.539017 0.156796
0.965381 0.479419 0.164902
0.963084 0.418452 0.176468
0.000290 1.000000 0.279970
0.000000 0.999696 0.207153
0.000000 0.999505 0.113347
0.000000 0.999981 0.025712
0.516673 0.999758 0.000000
0.909469 0.968228 0.030430
0.972700 0.853665 0.120398
0.972949 0.786979 0.129034
0.976119 0.736905 0.130133
0.000481 0.999853 0.307125
0.000000 0.999632 0.261465
0.001668 0.999297 0.221219
0.062476 0.999637 0.197043
0.314097 0.999363 0.172401
0.679120 0.999922 0.120176
0.962415 0.999936 0.096647
0.966521 0.992803 0.122605
0.971827 0.961347 0.125039
0.000481 0.999517 0.308855
0.000000 1.000000 0.264172
0.000300 0.999322 0.224680
0.011252 0.999792 0.193532
0.203830 0.999831 0.176515
0.519774 0.999428 0.163730
0.846660 0.999738 0.178547
0.962213 0.999212 0.135164
0.962213 0.999212 0.135164
0.000088 0.999848 0.316753
0.000681 0.999905 0.272069
0.000000 0.999987 0.230848
0.009883 0.999818 0.196992
0.112137 0.999551 0.178590
0.384288 1.000000 0.155595
0.731510 0.999019 0.158742
0.965918 0.999708 0.191429
0.962213 0.999212 0.135164
0.015787 0.028066 0.156734
0.029670 0.028440 0.144089
0.152049 0.033648 0.173215
0.413036 0.037326 0.257867
0.833377 0.004624 0.428836
0.942811 0.054750 0.483352
0.935229 0.011986 0.440743
0.929571 0.009202 0.384254
0.929380 0.010591 0.351906
0.022403 0.056169 0.208836
0.022795 0.053822 0.211320
0.168630 0.059469 0.262324
0.494732 0.045987 0.367348
0.913130 0.000000 0.536449
0.946314 0.068301 0.507183
0.938541 0.023229 0.451261
0.928201 0.009564 0.385984
0.929380 0.010591 0.351906
0.039632 0.220474 0.405539
0.040036 0.209150 0.394267
0.150513 0.190680 0.388063
0.487778 0.169412 0.409663
0.864931 0.131475 0.498136
0.955839 0.132078 0.513590
0.944562 0.070767 0.447680
0.929571 0.008866 0.385984
0.929380 0.010591 0.351906
0.039895 0.570503 0.598469
0.039953 0.515622 0.521113
0.035320 0.460185 0.441805
0.416992 0.416992 0.416992
0.811360 0.381118 0.432563
0.972103 0.327765 0.482711
0.962789 0.259092 0.406726
0.950153 0.185468 0.347823
0.938684 0.116809 0.294559
0.020856 0.885205 0.638434
0.023633 0.852265 0.560907
0.023490 0.808089 0.463231
0.244658 0.764238 0.391628
0.720963 0.715276 0.353913
0.985138 0.655964 0.386191
0.979578 0.532139 0.353059
0.972992 0.470378 0.294292
0.965431 0.406633 0.239743
0.005526 0.999702 0.543102
0.004166 0.999823 0.486083
0.004569 0.999923 0.415973
0.005364 0.999695 0.337965
0.505097 0.991888 0.292454
0.916880 0.942332 0.281398
0.979143 0.827896 0.304720
0.978225 0.768006 0.247153
0.977297 0.719784 0.189499
0.004357 1.000000 0.509778
0.002021 1.000000 0.446591
0.003401 1.000000 0.384380
0.003018 1.000000 0.333528
0.310163 0.999204 0.329172
0.680268 1.000000 0.269270
0.966301 1.000000 0.238820
0.970821 0.976887 0.218980
0.970658 0.945291 0.176507
0.005334 0.999074 0.521137
0.002997 1.000000 0.452757
0.004378 0.999632 0.392278
0.001648 1.000000 0.335257
0.181129 0.999455 0.315089
0.521315 0.999841 0.303196
0.849379 0.999832 0.290854
0.965133 0.999359 0.212418
0.965335 0.999746 0.175633
0.004942 0.999404 0.529035
0.003974 0.999867 0.460655
0.003008 0.999658 0.395739
0.001648 0.999443 0.340449
0.058156 0.999231 0.304691
0.385828 0.999888 0.298520
0.730121 0.999862 0.277972
0.967861 0.999549 0.264246
0.963965 0.999771 0.179094
0.031957 0.060074 0.343554
0.029813 0.058502 0.314447
0.192854 0.063428 0.366872
0.532033 0.065912 0.518137
0.921861 0.046530 0.709118
0.965786 0.131286 0.662906
0.959354 0.117494 0.622302
0.956051 0.101642 0.575527
0.950593 0.090171 0.528977
0.040113 0.103713 0.457250
0.042450 0.107930 0.497942
0.206267 0.113782 0.586399
0.619550 0.107609 0.733501
0.968746 0.066279 0.835680
0.966945 0.142540 0.696144
0.962082 0.123398 0.644712
0.955458 0.107634 0.589062
0.950202 0.091173 0.533415
0.047490 0.337044 0.778390
0.049050 0.336303 0.803817
0.084869 0.295559 0.765473
0.551580 0.252056 0.784777
0.920547 0.192040 0.828517
0.975101 0.202310 0.726777
0.967328 0.160264 0.655281
0.956041 0.109276 0.596207
0.950202 0.091173 0.533415
0.041922 0.655622 0.917266
0.045102 0.603963 0.866535
0.044767 0.547397 0.807462
0.408267 0.490938 0.787257
0.850364 0.429019 0.786055
0.990580 0.392607 0.742844
0.979877 0.351328 0.649383
0.973291 0.289567 0.590616
0.965547 0.210838 0.528031
0.026493 0.872676 0.893753
0.029251 0.855003 0.857586
0.029674 0.827738 0.808414
0.115356 0.780575 0.749442
0.725586 0.725586 0.725586
0.994272 0.659577 0.711981
0.992607 0.563088 0.622101
0.986414 0.500999 0.555437
0.979245 0.437260 0.491258
0.010369 1.000000 0.808941
0.010962 1.000000 0.765988
0.009211 1.000000 0.718597
0.010992 0.985055 0.664148
0.448568 0.956957 0.629140
0.910990 0.909301 0.595417
0.987722 0.805285 0.569976
0.986018 0.750760 0.503981
0.985090 0.704554 0.435945
0.009403 0.999625 0.747485
0.008435 0.999752 0.680837
0.005123 0.999600 0.613210
0.005526 0.999702 0.543102
0.193805 0.999861 0.511044
0.667523 0.998918 0.498410
0.975060 1.000000 0.474043
0.978432 0.950706 0.436625
0.979247 0.923447 0.377824
0.011356 1.000000 0.756360
0.008043 1.000000 0.688735
0.006100 0.999232 0.621110
0.007479 0.999975 0.553707
0.058711 0.999579 0.498469
0.515417 0.999985 0.506379
0.845635 0.999293 0.474782
0.971557 0.999948 0.380991
0.967853 0.999118 0.326457
0.009986 0.999588 0.763281
0.009996 1.000000 0.699341
0.006684 1.000000 0.629985
0.006109 0.999664 0.558899
0.005142 0.999454 0.493980
0.351388 1.000000 0.480577
0.722662 0.999741 0.460923
0.972332 0.999530 0.423945
0.969806 1.000000 0.331870
0.049447 0.126198 0.651079
0.047896 0.118633 0.608433
0.232039 0.131018 0.704172
0.635720 0.150037 0.866675
0.985079 0.142656 0.999216
0.983670 0.213882 0.876008
0.979782 0.194036 0.834203
0.976289 0.173522 0.786229
0.969473 0.153099 0.729384
0.052279 0.210849 0.833118
0.051856 0.235089 0.897863
0.128862 0.252602 0.956937
0.679588 0.269844 0.999917
0.998510 0.212355 0.999144
0.987556 0.233057 0.921273
0.983479 0.209895 0.871348
0.976863 0.183472 0.810595
0.972594 0.157664 0.749086
0.054351 0.504875 1.000000
0.054150 0.511882 0.999988
0.057511 0.466804 1.000000
0.526387 0.411285 0.998957
0.966931 0.333065 1.000000
0.994152 0.288528 0.952438
0.986973 0.236456 0.888172
0.978222 0.191416 0.826081
0.972785 0.160980 0.757208
0.042668 0.682476 0.999763
0.046201 0.665730 0.999625
0.046804 0.645382 1.000000
0.220254 0.605155 1.000000
0.856891 0.530537 1.000000
1.000000 0.442998 0.988551
0.996228 0.392608 0.873657
0.990810 0.337492 0.811875
0.981677 0.282796 0.749117
0.031989 0.827731 0.990831
0.032191 0.820388 0.993848
0.034546 0.808665 0.996640
0.035150 0.787645 1.000000
0.646932 0.743918 1.000000
1.000000 0.660015 0.985719
1.000000 0.598566 0.837809
0.999433 0.551009 0.786324
0.993815 0.501557 0.730180
0.017607 0.970477 0.936020
0.017415 0.964472 0.941743
0.018593 0.958441 0.944003
0.020959 0.941100 0.915734
0.255981 0.921536 0.888336
0.876953 0.876953 0.876953
0.997266 0.799014 0.817090
0.994576 0.752827 0.762144
0.995209 0.708567 0.705691
0.013481 0.999264 0.918544
0.013872 1.000000 0.903723
0.010167 1.000000 0.845727
0.011547 1.000000 0.781785
0.010771 0.999937 0.742293
0.590257 0.999603 0.740367
0.985199 0.983425 0.730117
0.985843 0.924474 0.689324
0.985871 0.899554 0.637668
0.013481 0.999264 0.918544
0.013872 0.999271 0.908915
0.010167 0.999447 0.849187
0.010178 0.999544 0.788707
0.009211 0.999670 0.722058
0.400428 0.999273 0.691711
0.829176 1.000000 0.692563
0.979340 0.999746 0.610048
0.976028 0.999930 0.540692
0.013481 0.999264 0.918544
0.013481 1.000000 0.913352
0.012121 1.000000 0.858063
0.009785 1.000000 0.794875
0.010188 0.999302 0.729958
0.170902 1.000000 0.681211
0.707573 0.999397 0.682165
0.979139 1.000000 0.643371
0.977004 0.999897 0.546860
0.055159 0.248925 0.955019
0.053025 0.236022 0.924266
0.157768 0.281220 0.999325
0.679931 0.326170 1.000000
0.999397 0.318337 0.999347
1.000000 0.326320 0.999038
0.998431 0.305693 0.998457
0.994736 0.282440 0.999382
0.991051 0.255923 0.957134
0.059331 0.394430 1.000000
0.059503 0.422761 0.999390
0.057340 0.438809 0.999528
0.529861 0.464207 1.000000
0.987400 0.404273 0.999500
0.999952 0.356325 0.999313
1.000000 0.329306 0.999262
0.996871 0.301393 0.998988
0.994947 0.268136 0.978258
0.053336 0.550567 0.999954
0.052559 0.542584 1.000000
0.055308 0.529522 1.000000
0.174968 0.518504 1.000000
0.860242 0.497127 1.000000
1.000000 0.398974 1.000000
1.000000 0.352641 0.999089
1.000000 0.314653 0.999126
0.994937 0.276778 0.993746
0.046201 0.665730 0.999625
0.046019 0.649066 1.000000
0.048576 0.631007 1.000000
0.049763 0.613982 0.999746
0.673245 0.607660 0.998933
1.000000 0.500992 0.999480
0.999282 0.458343 0.998317
1.000000 0.410641 1.000000
0.998976 0.359046 0.979300
0.034738 0.813662 0.996109
0.034949 0.794315 1.000000
0.037314 0.771596 1.000000
0.037333 0.748262 1.000000
0.360333 0.723682 0.999500
0.946695 0.684525 0.999562
0.999738 0.612332 1.000000
0.999385 0.570025 0.988360
1.000000 0.524085 0.940559
0.017415 0.965144 0.938281
0.021341 0.944371 0.949281
0.021946 0.922008 0.960058
0.024704 0.894926 0.972344
0.029223 0.865808 0.981922
0.766696 0.842565 1.000000
0.999400 0.783351 0.994933
1.000000 0.753747 0.938617
1.000000 0.720475 0.895168
0.013481 0.999264 0.918544
0.013481 0.999264 0.918544
0.013481 0.999264 0.918544
0.013481 0.999264 0.918544
0.014457 0.999568 0.922981
0.379669 0.987984 0.958477
0.947266 0.947266 0.947266
0.993252 0.905972 0.902222
0.992497 0.883055 0.859442
0.013481 0.999264 0.918544
0.013481 0.999264 0.918544
0.013481 0.999264 0.918544
0.013481 0.999264 0.918544
0.013481 0.999264 0.918544
0.045354 0.999602 0.884602
0.770494 1.000000 0.873730
0.989861 0.999492 0.832180
0.986157 0.999670 0.772454
0.013481 0.999264 0.918544
0.013481 0.999264 0.918544
0.013481 0.999264 0.918544
0.013481 0.999264 0.918544
0.013481 0.999264 0.918544
0.013289 1.000000 0.887927
0.571664 1.000000 0.863366
0.967180 0.999643 0.848061
0.987133 0.999974 0.776890
0.059715 0.404423 0.999032
0.059906 0.409083 1.000000
0.057340 0.438809 0.999528
0.496408 0.489625 0.999726
0.941174 0.507645 0.999653
0.999693 0.432998 0.999242
0.999703 0.421331 0.999327
0.999521 0.404668 0.999946
0.999541 0.381670 0.998388
0.055156 0.478193 0.999492
0.056525 0.477159 1.000000
0.056525 0.477159 1.000000
0.368734 0.498158 0.999403
0.882713 0.512626 0.998848
0.999492 0.439669 0.999687
0.999492 0.439669 0.999687
0.999703 0.421331 0.999327
1.000000 0.400984 0.999723
0.053727 0.548557 1.000000
0.053738 0.536890 1.000000
0.053355 0.527233 1.000000
0.054926 0.519865 0.999679
0.784548 0.537494 0.999774
0.999482 0.451336 0.999602
0.999492 0.439669 0.999687
1.000000 0.433975 1.000000
1.000000 0.405981 0.999191
0.046009 0.660733 1.000000
0.047590 0.641698 0.999797
0.048777 0.624336 1.000000
0.049965 0.606976 1.000000
0.626712 0.608037 0.999106
0.999576 0.572669 0.999942
1.000000 0.503978 0.999704
1.000000 0.487315 1.000000
1.000000 0.450639 0.999602
0.034546 0.808329 0.998371
0.036127 0.788958 0.999743
0.038885 0.764229 0.999914
0.042034 0.737489 1.000000
0.322218 0.713204 0.999226
0.880019 0.693354 1.000000
1.000000 0.615654 0.999375
1.000000 0.592320 0.999547
0.999587 0.561002 1.000000
0.017224 0.959139 0.944003
0.021543 0.937364 0.950567
0.025277 0.911596 0.962098
0.026667 0.885211 0.974383
0.031578 0.853748 0.986445
0.710015 0.821503 1.000000
0.999601 0.775672 0.999680
0.999832 0.734000 0.999493
1.000000 0.708993 0.998688
0.013481 0.999264 0.918544
0.013481 0.999264 0.918544
0.013481 0.999264 0.918544
0.013481 0.999264 0.918544
0.013481 0.997584 0.927195
0.347624 0.963683 0.970625
0.897814 0.922292 0.999969
0.997752 0.883048 0.999884
0.998356 0.862700 1.000000
0.013481 0.999264 0.918544
0.013481 0.999264 0.918544
0.013481 0.999264 0.918544
0.013481 0.999264 0.918544
0.013481 0.999264 0.918544
0.014457 0.999568 0.922981
0.677613 0.999622 0.965171
1.000000 1.000000 1.000000
0.995511 0.996804 0.976836
0.013481 0.999264 0.918544
0.013481 0.999264 0.918544
0.013481 0.999264 0.918544
0.013481 0.999264 0.918544
0.013481 0.999264 0.918544
0.014457 1.000000 0.919520
0.421500 0.999724 0.951074
0.920236 0.998143 0.987478
0.996094 1.000000 0.975328
0.056928 0.463817 1.000000
0.054965 0.473196 1.000000
0.056525 0.477159 1.000000
0.484469 0.505895 0.998664
0.960141 0.504553 1.000000
0.999492 0.439669 0.999687
0.999492 0.439669 0.999687
0.999492 0.439669 0.999687
0.999492 0.439669 0.999687
0.055740 0.481179 0.999715
0.054965 0.473196 1.000000
0.056525 0.477159 1.000000
0.397667 0.499839 1.000000
0.897571 0.511625 0.999293
0.999492 0.439669 0.999687
0.999492 0.439669 0.999687
0.999492 0.439669 0.999687
0.999492 0.439669 0.999687
0.053144 0.545570 1.000000
0.053546 0.532230 0.999594
0.054532 0.521538 1.000000
0.089728 0.517084 0.999817
0.797453 0.534204 0.999997
0.999291 0.446340 1.000000
0.999492 0.439669 0.999687
0.999492 0.439669 0.999687
0.999492 0.439669 0.999687
0.044449 0.656433 1.000000
0.048767 0.636003 1.000000
0.050348 0.616969 0.999968
0.047820 0.600026 0.999610
0.640012 0.602738 1.000000
0.999778 0.565998 0.999496
0.999050 0.500016 0.998504
1.000000 0.482654 0.999120
1.000000 0.470987 0.999207
0.034748 0.801322 0.999657
0.035352 0.780974 1.000000
0.039478 0.755548 1.000000
0.042236 0.730818 1.000000
0.340017 0.704138 0.999226
0.885305 0.685903 0.999289
1.000000 0.608647 1.000000
0.999566 0.584336 0.999855
0.999193 0.563012 0.999273
0.017034 0.953806 0.946266
0.021744 0.929686 0.955313
0.025479 0.903917 0.966845
0.026867 0.877533 0.979129
0.030803 0.845765 0.986754
0.718039 0.812658 0.999477
0.999611 0.764005 0.999765
0.999449 0.724344 0.998824
1.000000 0.697325 0.998773
0.013481 0.999264 0.918544
0.013481 0.999264 0.918544
0.013481 0.999264 0.918544
0.013481 0.999264 0.918544
0.015050 0.989879 0.928480
0.368746 0.955538 0.974308
0.905445 0.915121 0.999746
0.996976 0.875066 1.000000
0.999151 0.847349 1.000000
0.013481 0.999264 0.918544
0.013481 0.999264 0.918544
0.013481 0.999264 0.918544
0.013481 0.999264 0.918544
0.013481 0.999264 0.918544
0.014457 0.999568 0.922981
0.686020 1.000000 0.966372
1.000000 1.000000 1.000000
0.996687 0.986741 0.999864
0.013481 0.999264 0.918544
0.013481 0.999264 0.918544
0.013481 0.999264 0.918544
0.013481 0.999264 0.918544
0.013481 0.999264 0.918544
0.014457 1.000000 0.919520
0.433621 1.000000 0.951519
0.923951 0.998060 0.986722
1.000000 1.000000 1.000000
