Sources/Resources/LUT/gfx-eterna-55-3d-lut-v100/33Grid/F-Log2/FLog2_to_WDR_33grid_V.1.00.cube
#title:FLog2_to_WDR
#FUJIFILM Corporation
#Gamma:F-Log2 to Wide Dynamic Range curve
#Gamut:F-Gamut to ITU-R BT.709
#Version:1.00
LUT_3D_SIZE 9
0.000000 0.000000 0.000000
0.023341 0.002793 0.002793
0.174724 0.020905 0.020905
0.392236 0.044736 0.044736
0.671419 0.061864 0.061864
0.841515 0.067599 0.067599
0.841515 0.067599 0.067599
0.841515 0.067599 0.067599
0.841515 0.067599 0.067599
0.003741 0.017760 0.003741
0.018410 0.017612 0.005134
0.170624 0.020415 0.020415
0.390167 0.044569 0.044569
0.670099 0.061807 0.061807
0.841515 0.067599 0.067599
0.841515 0.067599 0.067599
0.841515 0.067599 0.067599
0.841515 0.067599 0.067599
0.031431 0.149231 0.031431
0.031179 0.148036 0.031179
0.159396 0.152787 0.043272
0.399868 0.136231 0.056102
0.658418 0.061290 0.061290
0.841515 0.067599 0.067599
0.841515 0.067599 0.067599
0.841515 0.067599 0.067599
0.841515 0.067599 0.067599
0.060562 0.357026 0.060562
0.060508 0.356417 0.060508
0.060020 0.350956 0.060020
0.380927 0.366118 0.069803
0.702601 0.343718 0.069654
0.921227 0.301417 0.067111
0.907713 0.254405 0.069233
0.897190 0.220403 0.070165
0.897190 0.220403 0.070165
0.070459 0.619248 0.070459
0.070462 0.618864 0.070462
0.070492 0.615437 0.070492
0.154984 0.613509 0.069870
0.649104 0.625289 0.035084
0.927047 0.602545 0.000000
1.000000 0.579487 0.000000
1.000000 0.564825 0.000000
1.000000 0.564825 0.000000
0.061292 0.818540 0.061292
0.061357 0.818204 0.061357
0.061935 0.815211 0.061935
0.063092 0.805963 0.063092
0.522342 0.831972 0.000000
0.841575 0.812366 0.000000
1.000000 0.795770 0.000000
1.000000 0.785380 0.000000
1.000000 0.785380 0.000000
0.026393 0.972772 0.026393
0.026471 0.972469 0.026471
0.027164 0.969767 0.027164
0.029394 0.960989 0.029394
0.378144 0.966028 0.000000
0.762794 0.949451 0.000000
0.967000 0.935510 0.000000
1.000000 0.926825 0.000000
1.000000 0.926825 0.000000
0.023652 0.983359 0.023652
0.023652 0.983359 0.023652
0.023652 0.983359 0.023652
0.023652 0.983359 0.023652
0.250942 1.000000 0.000000
0.708834 1.000000 0.000000
0.926014 1.000000 0.000000
1.000000 1.000000 0.000000
1.000000 1.000000 0.000000
0.023652 0.983359 0.023652
0.023652 0.983359 0.023652
0.023652 0.983359 0.023652
0.023652 0.983359 0.023652
0.250942 1.000000 0.000000
0.708834 1.000000 0.000000
0.926014 1.000000 0.000000
1.000000 1.000000 0.000000
1.000000 1.000000 0.000000
0.000717 0.000717 0.014562
0.023023 0.003376 0.016996
0.174822 0.021447 0.033070
0.392386 0.044909 0.050158
0.671255 0.061857 0.061857
0.841515 0.067599 0.067599
0.841515 0.067599 0.067599
0.841515 0.067599 0.067599
0.841515 0.067599 0.067599
0.004366 0.018282 0.016966
0.018000 0.018000 0.018000
0.170648 0.020891 0.031270
0.390217 0.044695 0.048675
0.669935 0.061800 0.061800
0.841515 0.067599 0.067599
0.841515 0.067599 0.067599
0.841515 0.067599 0.067599
0.841515 0.067599 0.067599
0.031501 0.149238 0.033175
0.031238 0.148031 0.032687
0.158732 0.152624 0.043202
0.399566 0.136101 0.056073
0.658252 0.061282 0.061282
0.841515 0.067599 0.067599
0.841515 0.067599 0.067599
0.841515 0.067599 0.067599
0.841515 0.067599 0.067599
0.060558 0.356986 0.060558
0.060505 0.356376 0.060505
0.060016 0.350915 0.060016
0.380588 0.366049 0.069797
0.702408 0.343664 0.069658
0.921212 0.301362 0.067114
0.907694 0.254340 0.069235
0.897166 0.220327 0.070166
0.897166 0.220327 0.070166
0.070459 0.619222 0.070459
0.070463 0.618838 0.070463
0.070492 0.615411 0.070492
0.154022 0.613383 0.069884
0.648877 0.625253 0.035126
0.926890 0.602516 0.000000
1.000000 0.579457 0.000000
1.000000 0.564794 0.000000
1.000000 0.564794 0.000000
0.061296 0.818518 0.061296
0.061362 0.818182 0.061362
0.061940 0.815188 0.061940
0.063093 0.805943 0.063093
0.522052 0.831952 0.000000
0.841401 0.812345 0.000000
1.000000 0.795749 0.000000
1.000000 0.785358 0.000000
1.000000 0.785358 0.000000
0.026398 0.972752 0.026398
0.026476 0.972448 0.026476
0.027169 0.969746 0.027169
0.029400 0.960968 0.029400
0.377744 0.966011 0.000000
0.762600 0.949433 0.000000
0.966850 0.935492 0.000000
1.000000 0.926807 0.000000
1.000000 0.926807 0.000000
0.023652 0.983359 0.023652
0.023652 0.983359 0.023652
0.023652 0.983359 0.023652
0.023652 0.983359 0.023652
0.250357 1.000000 0.000000
0.708624 1.000000 0.000000
0.925857 1.000000 0.000000
1.000000 1.000000 0.000000
1.000000 1.000000 0.000000
0.023652 0.983359 0.023652
0.023652 0.983359 0.023652
0.023652 0.983359 0.023652
0.023652 0.983359 0.023652
0.250357 1.000000 0.000000
0.708624 1.000000 0.000000
0.925857 1.000000 0.000000
1.000000 1.000000 0.000000
1.000000 1.000000 0.000000
0.006099 0.006099 0.123791
0.019306 0.007673 0.125228
0.175715 0.026331 0.142661
0.398350 0.048600 0.164219
0.678867 0.063914 0.177282
0.850284 0.068673 0.174612
0.849453 0.068580 0.164265
0.848910 0.068518 0.157527
0.848910 0.068518 0.157527
0.009527 0.022525 0.126458
0.014063 0.021158 0.126494
0.171471 0.025788 0.141349
0.396201 0.048418 0.163152
0.677467 0.063848 0.176249
0.850200 0.068663 0.173562
0.849363 0.068570 0.163140
0.848815 0.068507 0.156349
0.848815 0.068507 0.156349
0.036968 0.154143 0.147039
0.036708 0.152936 0.146635
0.156583 0.156583 0.156583
0.403740 0.138705 0.170277
0.665064 0.063240 0.166931
0.849434 0.068578 0.164023
0.848534 0.068475 0.152873
0.847941 0.068406 0.145546
0.847941 0.068406 0.145546
0.062430 0.361339 0.155363
0.062378 0.360720 0.155097
0.061902 0.355177 0.152709
0.380528 0.368302 0.161300
0.704329 0.344456 0.150399
0.924546 0.301302 0.131964
0.910505 0.254129 0.118625
0.899529 0.219978 0.110204
0.899529 0.219978 0.110204
0.070424 0.619680 0.086085
0.070429 0.619284 0.085819
0.070468 0.615752 0.083454
0.145182 0.612444 0.075313
0.646856 0.624930 0.035501
0.925495 0.602262 0.000000
1.000000 0.579192 0.000000
1.000000 0.564522 0.000000
1.000000 0.564522 0.000000
0.061335 0.818317 0.061335
0.061400 0.817981 0.061400
0.061978 0.814987 0.061978
0.063106 0.805758 0.063106
0.519473 0.831772 0.000000
0.839850 0.812161 0.000000
1.000000 0.795560 0.000000
1.000000 0.785166 0.000000
1.000000 0.785166 0.000000
0.026445 0.972571 0.026445
0.026523 0.972267 0.026523
0.027215 0.969565 0.027215
0.029446 0.960786 0.029446
0.374173 0.965858 0.000000
0.760873 0.949278 0.000000
0.965519 0.935334 0.000000
1.000000 0.926647 0.000000
1.000000 0.926647 0.000000
0.023652 0.983359 0.023652
0.023652 0.983359 0.023652
0.023652 0.983359 0.023652
0.023652 0.983359 0.023652
0.245111 1.000000 0.000000
0.706754 1.000000 0.000000
0.924461 1.000000 0.000000
1.000000 1.000000 0.000000
1.000000 1.000000 0.000000
0.023652 0.983359 0.023652
0.023652 0.983359 0.023652
0.023652 0.983359 0.023652
0.023652 0.983359 0.023652
0.245111 1.000000 0.000000
0.706754 1.000000 0.000000
0.924461 1.000000 0.000000
1.000000 1.000000 0.000000
1.000000 1.000000 0.000000
0.014275 0.014275 0.289759
0.014272 0.014272 0.289691
0.168438 0.032691 0.307535
0.402553 0.053332 0.339126
0.688011 0.066567 0.366875
0.865798 0.070026 0.376342
0.865481 0.070006 0.372057
0.865284 0.069994 0.369395
0.865284 0.069994 0.369395
0.016928 0.026941 0.292054
0.016514 0.024985 0.291575
0.163862 0.032127 0.306612
0.400390 0.053180 0.338435
0.686638 0.066522 0.366323
0.865765 0.070024 0.375896
0.865448 0.070004 0.371605
0.865251 0.069991 0.368940
0.865251 0.069991 0.368940
0.043573 0.160419 0.319093
0.043380 0.159186 0.318670
0.144687 0.159655 0.331313
0.405147 0.140367 0.354369
0.674484 0.066114 0.361441
0.865474 0.070006 0.371959
0.865153 0.069985 0.367617
0.864953 0.069972 0.364920
0.864953 0.069972 0.364920
0.065656 0.369267 0.355823
0.065617 0.368654 0.355634
0.065260 0.363164 0.353940
0.373027 0.373027 0.373027
0.708334 0.345902 0.383211
0.932816 0.300637 0.380799
0.924403 0.253415 0.373746
0.914479 0.219132 0.368490
0.914479 0.219132 0.368490
0.069088 0.629953 0.358916
0.069101 0.629566 0.358796
0.069214 0.626116 0.357735
0.113200 0.619122 0.356094
0.644480 0.627435 0.341324
0.920947 0.601435 0.326768
1.000000 0.578331 0.320652
1.000000 0.563637 0.316838
1.000000 0.563637 0.316838
0.047027 0.832966 0.324698
0.047110 0.832625 0.324613
0.047848 0.829595 0.323861
0.050216 0.819736 0.321394
0.510996 0.831187 0.291652
0.834786 0.811561 0.283393
1.000000 0.794946 0.276401
1.000000 0.784544 0.272024
1.000000 0.784544 0.272024
0.009507 0.984809 0.271288
0.009603 0.984500 0.271205
0.010457 0.981753 0.270467
0.013207 0.972828 0.268047
0.362331 0.965362 0.251718
0.755232 0.948772 0.242261
0.961180 0.934820 0.234200
1.000000 0.926128 0.229124
1.000000 0.926128 0.229124
0.008056 0.994941 0.244259
0.008066 0.994935 0.244115
0.008159 0.994873 0.242838
0.008460 0.994673 0.238661
0.227342 1.000000 0.223701
0.700642 1.000000 0.213195
0.919906 1.000000 0.204178
1.000000 1.000000 0.198468
1.000000 1.000000 0.198468
0.008056 0.994941 0.244259
0.008066 0.994935 0.244115
0.008159 0.994873 0.242838
0.008460 0.994673 0.238661
0.227342 1.000000 0.223701
0.700642 1.000000 0.213195
0.919906 1.000000 0.204178
1.000000 1.000000 0.198468
1.000000 1.000000 0.198468
0.023788 0.023788 0.482864
0.023786 0.023786 0.482823
0.139754 0.037646 0.496342
0.398443 0.057614 0.544901
0.692362 0.068652 0.586073
0.881890 0.070585 0.604837
0.881718 0.070584 0.602286
0.881612 0.070584 0.600712
0.881612 0.070584 0.600712
0.024750 0.028395 0.483613
0.024337 0.026440 0.483161
0.134027 0.036951 0.495434
0.396194 0.057482 0.544269
0.690976 0.068622 0.585640
0.881872 0.070585 0.604571
0.881700 0.070584 0.602019
0.881594 0.070584 0.600444
0.881594 0.070584 0.600444
0.049528 0.164518 0.521533
0.049354 0.163259 0.521039
0.094642 0.156714 0.526149
0.396412 0.137658 0.565402
0.678706 0.068346 0.581820
0.881714 0.070584 0.602228
0.881542 0.070583 0.599666
0.881435 0.070583 0.598084
0.881435 0.070583 0.598084
0.068170 0.375597 0.578292
0.068142 0.374983 0.578093
0.067892 0.369492 0.576306
0.359654 0.373952 0.607962
0.705062 0.344861 0.628063
0.940228 0.294110 0.634289
0.936076 0.249400 0.624822
0.926724 0.214556 0.618106
0.926724 0.214556 0.618106
0.066806 0.637047 0.611355
0.066826 0.636662 0.611252
0.067003 0.633230 0.610328
0.067552 0.622007 0.607293
0.627717 0.627717 0.627717
0.911159 0.599667 0.626499
1.000000 0.576488 0.623330
1.000000 0.561745 0.621374
1.000000 0.561745 0.621374
0.030169 0.844750 0.612870
0.030261 0.844414 0.612796
0.031082 0.841426 0.612135
0.033722 0.831707 0.609964
0.492412 0.829938 0.608847
0.823869 0.810278 0.604892
1.000000 0.793635 0.601603
1.000000 0.783213 0.599572
1.000000 0.783213 0.599572
0.000000 0.989666 0.596773
0.000000 0.989417 0.596711
0.000000 0.987198 0.596152
0.000000 0.979976 0.594341
0.335737 0.964303 0.590441
0.743040 0.947692 0.586354
0.951849 0.933722 0.582956
1.000000 0.925018 0.580856
1.000000 0.925018 0.580856
0.000000 1.000000 0.585114
0.000000 1.000000 0.585050
0.000000 1.000000 0.584480
0.000000 1.000000 0.582631
0.184812 1.000000 0.578648
0.687408 1.000000 0.574474
0.910106 1.000000 0.571002
1.000000 1.000000 0.568856
1.000000 1.000000 0.568856
0.000000 1.000000 0.585114
0.000000 1.000000 0.585050
0.000000 1.000000 0.584480
0.000000 1.000000 0.582631
0.184812 1.000000 0.578648
0.687408 1.000000 0.574474
0.910106 1.000000 0.571002
1.000000 1.000000 0.568856
1.000000 1.000000 0.568856
0.030584 0.030584 0.620810
0.030583 0.030583 0.620779
0.092919 0.038029 0.627966
0.388589 0.059976 0.693883
0.691184 0.069624 0.744966
0.892658 0.070397 0.770545
0.892534 0.070402 0.768570
0.892458 0.070405 0.767353
0.892458 0.070405 0.767353
0.030576 0.030576 0.620640
0.030575 0.030575 0.620609
0.084650 0.037033 0.626807
0.386236 0.059851 0.693221
0.689776 0.069602 0.744553
0.892645 0.070397 0.770339
0.892521 0.070402 0.768363
0.892445 0.070406 0.767145
0.892445 0.070406 0.767145
0.053086 0.165062 0.668813
0.052923 0.163770 0.668247
0.051383 0.151882 0.663010
0.382345 0.132373 0.715879
0.677317 0.069405 0.740904
0.892531 0.070402 0.768525
0.892407 0.070407 0.766544
0.892330 0.070410 0.765324
0.892330 0.070410 0.765324
0.069379 0.378602 0.738740
0.069360 0.377987 0.738521
0.069180 0.372476 0.736554
0.337766 0.373323 0.772330
0.697817 0.342599 0.802030
0.940890 0.287414 0.817278
0.946870 0.242222 0.804542
0.934172 0.209020 0.793761
0.934172 0.209020 0.793761
0.064692 0.640690 0.788144
0.064717 0.640306 0.788035
0.064937 0.636877 0.787063
0.065630 0.625666 0.783867
0.615851 0.624761 0.830321
0.900854 0.597822 0.827489
1.000000 0.574566 0.825142
1.000000 0.559769 0.823695
1.000000 0.559769 0.823695
0.017952 0.850605 0.812318
0.018051 0.850271 0.812231
0.018935 0.847298 0.811449
0.021783 0.837627 0.808881
0.472293 0.828637 0.814481
0.809785 0.809785 0.809785
1.000000 0.792269 0.809190
1.000000 0.781827 0.807712
1.000000 0.781827 0.807712
0.000000 0.988594 0.805680
0.000000 0.988345 0.805635
0.000000 0.986123 0.805230
0.000000 0.978892 0.803917
0.305784 0.963200 0.801097
0.730127 0.946568 0.798152
0.942034 0.932579 0.795710
1.000000 0.923863 0.794205
1.000000 0.923863 0.794205
0.000000 1.000000 0.797260
0.000000 1.000000 0.797214
0.000000 1.000000 0.796805
0.000000 1.000000 0.795477
0.130143 1.000000 0.792624
0.673347 1.000000 0.789645
0.899788 1.000000 0.787174
1.000000 1.000000 0.785651
1.000000 1.000000 0.785651
0.000000 1.000000 0.797260
0.000000 1.000000 0.797214
0.000000 1.000000 0.796805
0.000000 1.000000 0.795477
0.130143 1.000000 0.792624
0.673347 1.000000 0.789645
0.899788 1.000000 0.787174
1.000000 1.000000 0.785651
1.000000 1.000000 0.785651
0.035151 0.035151 0.713502
0.035150 0.035150 0.713476
0.043230 0.036106 0.714210
0.378159 0.061261 0.794647
0.688228 0.070068 0.852954
0.899598 0.070001 0.883569
0.899495 0.070009 0.881854
0.899431 0.070014 0.880798
0.899431 0.070014 0.880798
0.035144 0.035144 0.713356
0.035142 0.035142 0.713330
0.035131 0.035131 0.713095
0.375709 0.061140 0.793942
0.686802 0.070052 0.852540
0.899587 0.070002 0.883390
0.899484 0.070010 0.881674
0.899421 0.070014 0.880618
0.899421 0.070014 0.880618
0.055175 0.164210 0.768980
0.055018 0.162889 0.768359
0.053530 0.150705 0.762589
0.368536 0.126803 0.816281
0.674173 0.069903 0.848881
0.899492 0.070009 0.881815
0.899389 0.070017 0.880097
0.899326 0.070021 0.879038
0.899326 0.070021 0.879038
0.069947 0.379920 0.847856
0.069933 0.379303 0.847621
0.069799 0.373772 0.845508
0.317271 0.372076 0.882347
0.691428 0.339504 0.921455
0.938924 0.282101 0.942117
0.954079 0.235826 0.927849
0.939313 0.203728 0.912744
0.939313 0.203728 0.912744
0.063052 0.642558 0.907436
0.063080 0.642173 0.907320
0.063329 0.638745 0.906291
0.064116 0.627533 0.902905
0.602789 0.623301 0.962625
0.892238 0.596293 0.960219
1.000000 0.572971 0.958227
1.000000 0.558131 0.957000
1.000000 0.558131 0.957000
0.009450 0.853627 0.947739
0.009555 0.853294 0.947640
0.010482 0.850329 0.946750
0.013469 0.840682 0.943829
0.454986 0.827559 0.949199
0.802683 0.807836 0.946755
0.998077 0.791137 0.944731
1.000000 0.780679 0.943485
1.000000 0.780679 0.943485
0.000000 0.987707 0.941772
0.000000 0.987457 0.941734
0.000000 0.985234 0.941392
0.000000 0.977996 0.940287
0.278808 0.962287 0.937914
0.719265 0.945637 0.935438
0.932186 0.932186 0.932186
1.000000 0.922907 0.932123
1.000000 0.922907 0.932123
0.000000 1.000000 0.934688
0.000000 1.000000 0.934650
0.000000 1.000000 0.934306
0.000000 1.000000 0.933191
0.068598 1.000000 0.930798
0.661485 1.000000 0.928301
0.891160 1.000000 0.926232
1.000000 1.000000 0.924958
1.000000 1.000000 0.924958
0.000000 1.000000 0.934688
0.000000 1.000000 0.934650
0.000000 1.000000 0.934306
0.000000 1.000000 0.933191
0.068598 1.000000 0.930798
0.661485 1.000000 0.928301
0.891160 1.000000 0.926232
1.000000 1.000000 0.924958
1.000000 1.000000 0.924958
0.035625 0.035625 0.723125
0.035625 0.035625 0.723125
0.035625 0.035625 0.723125
0.368808 0.061010 0.804442
0.683311 0.070070 0.866510
0.900617 0.069924 0.900617
0.900617 0.069924 0.900617
0.900617 0.069924 0.900617
0.900617 0.069924 0.900617
0.035625 0.035625 0.723125
0.035625 0.035625 0.723125
0.035625 0.035625 0.723125
0.366303 0.060887 0.803879
0.681884 0.070055 0.866264
0.900617 0.069924 0.900617
0.900617 0.069924 0.900617
0.900617 0.069924 0.900617
0.900617 0.069924 0.900617
0.055139 0.161756 0.779922
0.054980 0.160415 0.779313
0.053471 0.148038 0.773638
0.357546 0.122422 0.826195
0.669240 0.069913 0.864072
0.898892 0.069943 0.900371
0.900617 0.069924 0.900617
0.900617 0.069924 0.900617
0.900617 0.069924 0.900617
0.070001 0.379125 0.865399
0.069988 0.378506 0.865191
0.069860 0.372968 0.863319
0.303038 0.370305 0.899468
0.685345 0.337963 0.943172
0.934611 0.280057 0.967436
0.955087 0.233062 0.955087
0.940302 0.200614 0.940302
0.940302 0.200614 0.940302
0.062422 0.642579 0.938279
0.062507 0.642177 0.938139
0.062917 0.638703 0.937227
0.063714 0.627508 0.934727
0.594628 0.622404 1.000000
0.886907 0.595353 1.000000
1.000000 0.571991 1.000000
1.000000 0.557123 1.000000
1.000000 0.557123 1.000000
0.006465 0.854268 0.995986
0.006568 0.853936 0.995919
0.007489 0.850982 0.995317
0.010456 0.841370 0.993322
0.444034 0.826898 1.000000
0.796693 0.807157 1.000000
0.993371 0.790442 1.000000
1.000000 0.779974 1.000000
1.000000 0.779974 1.000000
0.000000 0.987163 1.000000
0.000000 0.986913 1.000000
0.000000 0.984688 1.000000
0.000000 0.977445 1.000000
0.261025 0.961727 1.000000
0.712514 0.945066 1.000000
0.928768 0.931052 1.000000
1.000000 0.922321 1.000000
1.000000 0.922321 1.000000
0.000000 1.000000 1.000000
0.000000 1.000000 1.000000
0.000000 1.000000 1.000000
0.000000 1.000000 1.000000
0.025980 1.000000 1.000000
0.654095 1.000000 1.000000
0.885822 1.000000 1.000000
1.000000 1.000000 1.000000
1.000000 1.000000 1.000000
0.000000 1.000000 1.000000
0.000000 1.000000 1.000000
0.000000 1.000000 1.000000
0.000000 1.000000 1.000000
0.025980 1.000000 1.000000
0.654095 1.000000 1.000000
0.885822 1.000000 1.000000
1.000000 1.000000 1.000000
1.000000 1.000000 1.000000
0.035625 0.035625 0.723125
0.035625 0.035625 0.723125
0.035625 0.035625 0.723125
0.368808 0.061010 0.804442
0.683311 0.070070 0.866510
0.900617 0.069924 0.900617
0.900617 0.069924 0.900617
0.900617 0.069924 0.900617
0.900617 0.069924 0.900617
0.035625 0.035625 0.723125
0.035625 0.035625 0.723125
0.035625 0.035625 0.723125
0.366303 0.060887 0.803879
0.681884 0.070055 0.866264
0.900617 0.069924 0.900617
0.900617 0.069924 0.900617
0.900617 0.069924 0.900617
0.900617 0.069924 0.900617
0.055139 0.161756 0.779922
0.054980 0.160415 0.779313
0.053471 0.148038 0.773638
0.357546 0.122422 0.826195
0.669240 0.069913 0.864072
0.898892 0.069943 0.900371
0.900617 0.069924 0.900617
0.900617 0.069924 0.900617
0.900617 0.069924 0.900617
0.070001 0.379125 0.865399
0.069988 0.378506 0.865191
0.069860 0.372968 0.863319
0.303038 0.370305 0.899468
0.685345 0.337963 0.943172
0.934611 0.280057 0.967436
0.955087 0.233062 0.955087
0.940302 0.200614 0.940302
0.940302 0.200614 0.940302
0.062422 0.642579 0.938279
0.062507 0.642177 0.938139
0.062917 0.638703 0.937227
0.063714 0.627508 0.934727
0.594628 0.622404 1.000000
0.886907 0.595353 1.000000
1.000000 0.571991 1.000000
1.000000 0.557123 1.000000
1.000000 0.557123 1.000000
0.006465 0.854268 0.995986
0.006568 0.853936 0.995919
0.007489 0.850982 0.995317
0.010456 0.841370 0.993322
0.444034 0.826898 1.000000
0.796693 0.807157 1.000000
0.993371 0.790442 1.000000
1.000000 0.779974 1.000000
1.000000 0.779974 1.000000
0.000000 0.987163 1.000000
0.000000 0.986913 1.000000
0.000000 0.984688 1.000000
0.000000 0.977445 1.000000
0.261025 0.961727 1.000000
0.712514 0.945066 1.000000
0.928768 0.931052 1.000000
1.000000 0.922321 1.000000
1.000000 0.922321 1.000000
0.000000 1.000000 1.000000
0.000000 1.000000 1.000000
0.000000 1.000000 1.000000
0.000000 1.000000 1.000000
0.025980 1.000000 1.000000
0.654095 1.000000 1.000000
0.885822 1.000000 1.000000
1.000000 1.000000 1.000000
1.000000 1.000000 1.000000
0.000000 1.000000 1.000000
0.000000 1.000000 1.000000
0.000000 1.000000 1.000000
0.000000 1.000000 1.000000
0.025980 1.000000 1.000000
0.654095 1.000000 1.000000
0.885822 1.000000 1.000000
1.000000 1.000000 1.000000
1.000000 1.000000 1.000000
