Sources/Resources/LUT/gfx-eterna-55-3d-lut-v100/33Grid/F-Log2/FLog2_to_PROVIA_33grid_V.1.00.cube
#title:FLog2_to_PROVIA
#model:GFX ETERNA 55
#FUJIFILM Corporation
#Gamma:F-Log2 to PROVIA
#Gamut:F-Gamut to ITU-R BT.709
#Version:1.00
LUT_3D_SIZE 9
0.000000 0.000000 0.000000
0.020528 0.001206 0.000000
0.144477 0.002406 0.011289
0.384754 0.000313 0.034347
0.785142 0.000214 0.106901
0.999960 0.000000 0.387766
1.000000 0.000000 0.376406
1.000000 0.000000 0.376406
1.000000 0.000000 0.376406
0.000575 0.014654 0.000136
0.011719 0.013735 0.001337
0.136453 0.012596 0.005566
0.426977 0.008699 0.034622
0.912605 0.000000 0.161231
0.998984 0.000000 0.379867
1.000000 0.000000 0.376406
1.000000 0.000000 0.376406
1.000000 0.000000 0.376406
0.002449 0.110281 0.000000
0.003425 0.111593 0.000000
0.109777 0.117207 0.000000
0.466583 0.111531 0.000883
0.920944 0.095864 0.089149
1.000000 0.061710 0.321887
0.999347 0.041718 0.333641
0.999559 0.019011 0.355778
1.000000 0.000299 0.372945
0.000000 0.447678 0.000000
0.000204 0.457336 0.000333
0.000041 0.417674 0.000000
0.366442 0.395786 0.000000
0.857768 0.378428 0.000000
1.000000 0.346619 0.174637
0.999575 0.267625 0.180653
0.999030 0.209567 0.224035
0.999069 0.156513 0.257258
0.000000 0.946686 0.000183
0.000000 0.917379 0.000000
0.000436 0.879670 0.000922
0.000000 0.837021 0.000000
0.703768 0.772890 0.000000
0.998831 0.723933 0.000297
0.999712 0.587782 0.082265
0.999370 0.528431 0.097515
0.999419 0.466398 0.116982
0.000000 1.000000 0.000285
0.000000 1.000000 0.000285
0.000000 1.000000 0.000285
0.000000 1.000000 0.000285
0.019103 0.999919 0.000953
0.909479 0.962610 0.000000
0.998302 0.888949 0.000070
0.999135 0.822224 0.024504
0.999365 0.778535 0.034699
0.000000 1.000000 0.000285
0.000000 1.000000 0.000285
0.000000 1.000000 0.000285
0.000000 1.000000 0.000285
0.000000 1.000000 0.000285
0.411488 0.999783 0.000468
0.980213 1.000000 0.048196
0.999573 0.997529 0.037281
0.999400 0.972895 0.018949
0.000000 1.000000 0.000285
0.000000 1.000000 0.000285
0.000000 1.000000 0.000285
0.000000 1.000000 0.000285
0.000000 1.000000 0.000285
0.000000 1.000000 0.000285
0.794099 0.999531 0.000515
0.982559 0.999551 0.054363
0.982559 0.999551 0.054363
0.000000 1.000000 0.000285
0.000000 1.000000 0.000285
0.000000 1.000000 0.000285
0.000000 1.000000 0.000285
0.000000 1.000000 0.000285
0.000000 1.000000 0.000285
0.555774 0.999546 0.000176
0.982166 0.999544 0.063991
0.982559 0.999551 0.054363
0.000000 0.000000 0.003461
0.026587 0.001403 0.000136
0.158943 0.003080 0.012711
0.402935 0.000568 0.036746
0.842034 0.000000 0.123727
0.999960 0.000000 0.387766
1.000000 0.000000 0.376406
1.000000 0.000000 0.376406
1.000000 0.000000 0.376406
0.000000 0.016987 0.016911
0.015625 0.015625 0.015625
0.147789 0.015667 0.011426
0.463541 0.002202 0.040702
0.953852 0.000625 0.193406
1.000000 0.000000 0.378137
1.000000 0.000000 0.376406
1.000000 0.000000 0.376406
1.000000 0.000000 0.376406
0.001262 0.122600 0.025012
0.001462 0.119627 0.005532
0.120922 0.116287 0.000663
0.476561 0.104976 0.000000
0.933266 0.087571 0.099531
0.999146 0.049732 0.327164
0.999155 0.035377 0.341093
0.999367 0.013678 0.358038
1.000000 0.000000 0.376406
0.000000 0.482680 0.000000
0.000000 0.456359 0.000000
0.000635 0.408992 0.000000
0.377013 0.380214 0.000227
0.866969 0.363553 0.000237
1.000000 0.328947 0.180445
1.000000 0.249248 0.196090
1.000000 0.189853 0.236766
0.999079 0.142493 0.269457
0.000000 0.939680 0.001469
0.000216 0.910011 0.000000
0.000000 0.867026 0.000032
0.000000 0.818683 0.000000
0.715516 0.751622 0.001155
0.999434 0.701233 0.012805
0.998555 0.569133 0.087097
0.999580 0.508749 0.104079
0.999628 0.447388 0.120082
0.000000 1.000000 0.000285
0.000000 1.000000 0.000285
0.000000 1.000000 0.000285
0.000000 1.000000 0.000285
0.093592 1.000000 0.000917
0.924933 0.952929 0.000121
0.999096 0.873596 0.000000
0.999538 0.807873 0.028805
1.000000 0.762512 0.038023
0.000000 1.000000 0.000285
0.000000 1.000000 0.000285
0.000000 1.000000 0.000285
0.000000 1.000000 0.000285
0.000000 1.000000 0.000285
0.437100 1.000000 0.000000
0.981582 0.999582 0.048196
0.998797 0.990218 0.034129
0.998626 0.965920 0.014067
0.000000 1.000000 0.000285
0.000000 1.000000 0.000285
0.000000 1.000000 0.000285
0.000000 1.000000 0.000285
0.000000 1.000000 0.000285
0.011674 1.000000 0.000730
0.801528 0.999367 0.000000
0.982559 0.999551 0.054363
0.982559 0.999551 0.054363
0.000000 0.999354 0.003745
0.000000 1.000000 0.000285
0.000000 1.000000 0.000285
0.000000 1.000000 0.000285
0.000000 1.000000 0.000285
0.000000 1.000000 0.000285
0.567894 0.999940 0.000621
0.980797 1.000000 0.063991
0.982559 0.999551 0.054363
0.001158 0.003525 0.073038
0.027162 0.004294 0.060840
0.176722 0.005586 0.073106
0.456887 0.000000 0.097278
0.902629 0.000000 0.196816
0.998984 0.000000 0.378137
1.000000 0.000000 0.376406
1.000000 0.000000 0.376406
1.000000 0.000000 0.376406
0.000747 0.022485 0.104993
0.012284 0.021908 0.094832
0.176119 0.019213 0.107320
0.522375 0.000062 0.137266
0.983360 0.000000 0.284640
1.000000 0.000000 0.374676
1.000000 0.000000 0.376406
1.000000 0.000000 0.376406
1.000000 0.000000 0.376406
0.000821 0.153709 0.174380
0.000000 0.145770 0.149261
0.129883 0.129883 0.129883
0.513488 0.108953 0.122426
0.958081 0.081168 0.213039
0.999932 0.045712 0.328672
0.999751 0.025688 0.346595
1.000000 0.006641 0.365493
1.000000 0.000000 0.376406
0.000096 0.536609 0.252035
0.000000 0.484411 0.170465
0.000000 0.429525 0.102739
0.394791 0.383727 0.055429
0.882996 0.354075 0.075539
0.999143 0.306893 0.228008
0.999211 0.229255 0.207844
1.000000 0.171173 0.247764
0.999480 0.127135 0.278949
0.000000 0.926662 0.232871
0.000000 0.896168 0.124727
0.000000 0.853678 0.008770
0.000000 0.804030 0.000000
0.724525 0.732423 0.000000
0.999444 0.681500 0.054421
0.998766 0.549451 0.093660
0.999792 0.489067 0.110640
0.999840 0.427370 0.128374
0.000000 1.000000 0.152839
0.000000 0.999969 0.044968
0.000000 1.000000 0.000285
0.000000 1.000000 0.000285
0.143838 0.999789 0.000000
0.936862 0.948662 0.000000
0.999498 0.859584 0.002505
0.999940 0.794869 0.026184
0.998610 0.745536 0.043832
0.000108 0.999366 0.199254
0.000000 0.999830 0.130875
0.000520 0.999899 0.066933
0.000000 0.999645 0.027441
0.000000 1.000000 0.000285
0.460365 1.000000 0.000000
0.982952 0.999557 0.044735
0.999392 0.982545 0.029246
0.998827 0.959921 0.010160
0.000000 1.000000 0.205422
0.000117 1.000000 0.135312
0.000127 0.999893 0.076562
0.000000 0.999677 0.021272
0.000000 1.000000 0.000285
0.024188 0.999140 0.000199
0.807589 0.999563 0.000000
0.982559 0.999551 0.054363
0.982559 0.999551 0.054363
0.000000 1.000000 0.215050
0.000000 1.000000 0.144942
0.000000 0.999581 0.081754
0.000000 0.999645 0.027441
0.000000 1.000000 0.000285
0.000000 1.000000 0.000285
0.579040 0.999357 0.000090
0.982166 0.999880 0.062262
0.982559 0.999551 0.054363
0.005820 0.013208 0.207981
0.024394 0.016158 0.186906
0.200745 0.012182 0.198863
0.536037 0.003557 0.263332
0.981186 0.000000 0.424860
1.000000 0.045433 0.500484
0.999347 0.018865 0.451312
0.999367 0.005612 0.399570
0.999377 0.000000 0.371968
0.000898 0.039871 0.280625
0.000314 0.036884 0.280403
0.207944 0.031173 0.313484
0.613829 0.004615 0.387941
0.999347 0.000045 0.548219
0.999501 0.056080 0.524848
1.000000 0.024160 0.464848
0.998975 0.006951 0.402277
0.999377 0.000000 0.371968
0.000000 0.212266 0.476352
0.000000 0.200940 0.465078
0.126081 0.174477 0.441349
0.568941 0.135234 0.424176
0.998494 0.095146 0.497656
1.000000 0.122062 0.525840
0.999309 0.063517 0.461352
1.000000 0.011586 0.400017
0.999377 0.000000 0.371968
0.000000 0.590290 0.670308
0.000238 0.535751 0.581593
0.000498 0.476891 0.489950
0.414063 0.414063 0.414063
0.901703 0.364810 0.399512
0.999477 0.327501 0.472242
0.999544 0.260617 0.396702
0.999815 0.184375 0.334563
0.999097 0.116471 0.283472
0.000290 0.921594 0.684898
0.000000 0.892432 0.589089
0.000387 0.845922 0.474640
0.000052 0.797085 0.375765
0.729963 0.720514 0.286203
0.999022 0.662388 0.342399
0.999321 0.544758 0.313394
0.999580 0.479847 0.252898
0.998470 0.414961 0.195863
0.000000 0.999511 0.533250
0.000000 1.000000 0.453512
0.000000 1.000000 0.357976
0.000098 0.999943 0.256273
0.143809 0.999503 0.181435
0.934880 0.948776 0.166742
0.998895 0.835571 0.230532
0.999347 0.775320 0.171234
0.999395 0.728074 0.114559
0.000000 0.999929 0.490296
0.000270 1.000000 0.400931
0.000088 1.000000 0.315024
0.000000 1.000000 0.237015
0.000300 0.999994 0.221219
0.458785 0.999901 0.098540
0.982750 1.000000 0.076328
0.999191 0.979471 0.079875
0.999219 0.950518 0.048985
0.000000 1.000000 0.502633
0.000000 0.999701 0.412289
0.000000 1.000000 0.324652
0.000000 0.999982 0.240476
0.000000 0.999360 0.208882
0.026897 0.999476 0.171258
0.803461 1.000000 0.127114
0.983143 0.999513 0.070160
0.982166 0.999880 0.062262
0.000000 1.000000 0.513992
0.000000 0.999360 0.423648
0.000000 1.000000 0.334280
0.000000 1.000000 0.248375
0.000108 1.000000 0.194062
0.000000 0.999074 0.175558
0.572958 1.000000 0.113905
0.982358 0.999836 0.087688
0.982166 0.999880 0.062262
0.013584 0.033314 0.452438
0.009093 0.032472 0.417160
0.239595 0.030262 0.440750
0.634316 0.020227 0.553636
1.000000 0.004388 0.737027
0.999815 0.115481 0.689309
0.999049 0.103896 0.648173
0.999461 0.088632 0.597183
1.000000 0.078031 0.547396
0.001605 0.072392 0.573894
0.008049 0.072836 0.623239
0.242457 0.066133 0.693997
0.723797 0.046833 0.798727
1.000000 0.021489 0.879336
1.000000 0.123413 0.724056
0.999431 0.109184 0.671335
1.000000 0.093592 0.612449
0.999279 0.081044 0.551078
0.000000 0.317910 0.907817
0.000000 0.317530 0.934973
0.058864 0.273282 0.888422
0.626682 0.206926 0.854442
1.000000 0.145846 0.864102
0.999544 0.191723 0.751449
0.999595 0.147502 0.679199
0.999844 0.094930 0.615157
0.999279 0.081380 0.549349
0.000645 0.667083 1.000000
0.000886 0.614752 0.995480
0.000362 0.555877 0.923095
0.395753 0.479447 0.853547
0.918025 0.406812 0.800036
1.000000 0.391042 0.750964
0.999820 0.348876 0.652535
0.999295 0.287311 0.593992
0.999958 0.209059 0.532605
0.000451 0.900092 1.000000
0.000471 0.885495 0.955964
0.000000 0.858260 0.900625
0.000750 0.811028 0.824692
0.724609 0.724609 0.724609
1.000000 0.662799 0.696629
0.999251 0.569296 0.606972
1.000000 0.508381 0.541509
0.999379 0.443500 0.474843
0.000192 1.000000 0.879581
0.000000 1.000000 0.828731
0.000000 1.000000 0.769981
0.000000 0.997919 0.705817
0.066714 0.987855 0.632074
0.918813 0.914856 0.554863
1.000000 0.810054 0.538297
0.999508 0.757177 0.469817
0.999950 0.711618 0.394860
0.000000 0.999415 0.808496
0.000000 0.999891 0.720859
0.000623 1.000000 0.631493
0.000000 0.999842 0.541149
0.000000 0.999601 0.482398
0.428625 0.999402 0.420063
0.985439 0.999652 0.371809
1.000000 0.954671 0.358754
0.998807 0.926460 0.302437
0.000000 0.999746 0.816394
0.000412 0.999187 0.730489
0.000230 0.999663 0.642851
0.000441 0.999809 0.547317
0.000000 0.999270 0.474500
0.037016 1.000000 0.456579
0.786217 0.999790 0.371075
0.980768 0.999283 0.248895
0.982540 0.999696 0.173595
0.000000 1.000000 0.828731
0.000996 1.000000 0.741095
0.000000 0.999993 0.650751
0.000050 0.999803 0.556946
0.000000 0.999942 0.471039
0.000000 0.999353 0.433277
0.556299 0.999943 0.373664
0.979388 0.999550 0.311106
0.979802 0.999747 0.180516
0.028345 0.081772 0.798118
0.024056 0.076274 0.752012
0.281137 0.078398 0.820645
0.733714 0.081379 0.946055
1.000000 0.086641 0.998582
0.999909 0.193796 0.911148
1.000000 0.174844 0.869567
0.999172 0.157627 0.816625
0.999784 0.136703 0.760000
0.017687 0.166054 0.983173
0.030180 0.184747 0.999774
0.198114 0.193979 1.000000
0.778778 0.187953 0.998668
1.000000 0.151648 0.998597
1.000000 0.213389 0.955437
0.999717 0.190479 0.903028
0.999746 0.166904 0.844449
1.000000 0.143000 0.777974
0.000000 0.479768 0.999441
0.000410 0.482754 0.999665
0.000000 0.435109 0.999032
0.612067 0.352360 1.000000
1.000000 0.277641 1.000000
0.999638 0.267686 0.985403
1.000000 0.218101 0.921583
1.000000 0.171863 0.859716
1.000000 0.145643 0.789554
0.000436 0.685758 0.999403
0.000645 0.667083 1.000000
0.000000 0.642773 0.999968
0.241969 0.589336 0.999454
0.914787 0.499572 0.999071
1.000000 0.430989 0.999997
0.999753 0.385512 0.883817
1.000000 0.331596 0.826696
0.999669 0.275702 0.764160
0.000000 0.850436 1.000000
0.000893 0.840081 1.000000
0.000510 0.830425 0.999570
0.000136 0.808764 1.000000
0.650455 0.738839 1.000000
0.999507 0.655684 0.992419
1.000000 0.600912 0.835324
1.000000 0.554332 0.784816
1.000000 0.506414 0.731602
0.000594 0.963425 0.999825
0.000402 0.958428 1.000000
0.000604 0.951757 0.999910
0.000803 0.944750 1.000000
0.000000 0.933831 0.966226
0.877930 0.877930 0.877930
0.999611 0.800973 0.809414
0.999267 0.756073 0.750254
0.999900 0.712486 0.690340
0.002135 0.990721 1.000000
0.000765 0.993772 0.988738
0.000967 1.000000 0.920804
0.000392 0.999670 0.847988
0.000987 1.000000 0.801574
0.276076 0.999314 0.743524
0.992438 0.985993 0.689340
1.000000 0.926199 0.660129
0.999563 0.900310 0.597867
0.002135 0.990721 1.000000
0.000765 0.992763 0.993930
0.000000 0.999225 0.929457
0.000000 1.000000 0.854156
0.000795 0.999770 0.777878
0.000000 0.999562 0.712962
0.757627 0.999653 0.652350
0.979743 0.999175 0.543399
0.980930 0.998954 0.455762
0.002135 0.990721 1.000000
0.000765 0.991419 1.000000
0.000573 0.998521 0.939086
0.000977 0.999967 0.862054
0.000402 1.000000 0.784047
0.000000 0.999898 0.711231
0.534747 0.999638 0.663062
0.981495 0.999734 0.587329
0.980145 1.000000 0.468098
0.052260 0.201920 0.999070
0.045041 0.183747 1.000000
0.241888 0.218331 0.999719
0.779123 0.243942 1.000000
0.999840 0.257990 1.000000
1.000000 0.297990 0.999743
1.000000 0.279651 0.999382
0.999840 0.257990 1.000000
0.999275 0.232678 0.995289
0.060347 0.349074 0.999683
0.058958 0.373106 0.999512
0.037827 0.392248 0.999203
0.632164 0.402245 0.999368
1.000000 0.340974 0.999175
0.999589 0.323333 0.998817
1.000000 0.300976 0.999965
1.000000 0.274655 0.999914
1.000000 0.247636 0.999863
0.000000 0.531097 1.000000
0.000000 0.519429 1.000000
0.000783 0.504078 1.000000
0.268453 0.481075 0.999165
0.932232 0.445511 1.000000
1.000000 0.365982 0.999981
0.999983 0.321324 0.999570
1.000000 0.286322 0.999828
0.999648 0.253330 0.999331
0.000645 0.667083 1.000000
0.001249 0.646736 1.000000
0.000000 0.626108 1.000000
0.000111 0.605761 1.000000
0.735247 0.574267 0.999687
0.999664 0.467665 1.000000
1.000000 0.438971 0.999687
0.999531 0.393001 1.000000
0.999379 0.341671 0.999175
0.000000 0.834109 0.999794
0.000721 0.811750 1.000000
0.000000 0.787440 1.000000
0.000000 0.759108 1.000000
0.352128 0.716199 0.999586
0.995199 0.663102 0.999785
0.999748 0.601000 0.999238
0.999193 0.563012 0.999273
1.000000 0.520060 0.951696
0.000010 0.960101 1.000000
0.000000 0.945784 0.999464
0.001015 0.926412 1.000000
0.000249 0.906762 1.000000
0.001246 0.884740 1.000000
0.769242 0.836510 0.999355
0.999793 0.780669 0.999149
0.999630 0.752770 0.937640
0.999469 0.721509 0.893439
0.002135 0.990721 1.000000
0.002135 0.990721 1.000000
0.002135 0.990721 1.000000
0.002135 0.990721 1.000000
0.001159 0.989745 0.999875
0.013662 0.999796 1.000000
0.949219 0.949219 0.949219
0.999896 0.910499 0.895746
0.999926 0.883227 0.856203
0.002135 0.990721 1.000000
0.002135 0.990721 1.000000
0.002135 0.990721 1.000000
0.002135 0.990721 1.000000
0.002135 0.990721 1.000000
0.000182 0.994818 0.967750
0.668633 1.000000 0.880774
0.986931 0.999587 0.813676
0.984988 0.999745 0.740859
0.002135 0.990721 1.000000
0.002135 0.990721 1.000000
0.002135 0.990721 1.000000
0.002135 0.990721 1.000000
0.002135 0.990721 1.000000
0.000000 0.995148 0.975649
0.297752 0.999918 0.897723
0.963857 1.000000 0.837457
0.984596 0.999740 0.750489
0.084197 0.351871 0.999821
0.076566 0.359042 1.000000
0.036459 0.392945 0.999203
0.595186 0.432742 0.999280
1.000000 0.459319 0.999293
0.999732 0.386330 0.999586
1.000000 0.377650 0.999895
0.999359 0.365005 0.999004
0.999962 0.344657 0.999398
0.000640 0.440746 1.000000
0.000057 0.437759 1.000000
0.001426 0.437062 1.000000
0.470051 0.446550 0.999403
0.951965 0.462404 0.998711
1.000000 0.392303 1.000000
1.000000 0.392303 1.000000
1.000000 0.377650 0.999895
1.000000 0.360986 1.000000
0.000763 0.527413 1.000000
0.000000 0.514433 1.000000
0.000198 0.501092 1.000000
0.143124 0.489885 0.999817
0.852036 0.489981 0.998882
1.000000 0.405981 0.999191
1.000000 0.392303 1.000000
0.999732 0.386330 0.999586
0.999359 0.365005 0.999004
0.000847 0.660413 1.000000
0.000474 0.639089 0.999746
0.001077 0.618741 1.000000
0.000705 0.597417 0.999559
0.692825 0.572553 0.999859
1.000000 0.540654 1.000000
1.000000 0.468978 0.999961
0.999482 0.451336 0.999602
1.000000 0.417647 0.999106
0.000000 0.827101 1.000000
0.000921 0.805080 1.000000
0.000000 0.777783 0.999470
0.000186 0.750428 1.000000
0.315382 0.705024 0.999313
0.922463 0.671734 1.000000
1.000000 0.592320 0.999547
0.999778 0.565998 0.999496
1.000000 0.538980 0.999446
0.000000 0.955441 1.000000
0.000000 0.938777 1.000000
0.000240 0.918765 0.999415
0.000451 0.900092 1.000000
0.000471 0.876757 1.000000
0.711193 0.816145 0.999477
1.000000 0.769978 1.000000
1.000000 0.725320 0.999800
0.999469 0.701009 0.998997
0.002135 0.990721 1.000000
0.002135 0.990721 1.000000
0.002135 0.990721 1.000000
0.002135 0.990721 1.000000
0.000000 0.983435 1.000000
0.002335 0.984052 1.000000
0.900161 0.922907 0.999215
1.000000 0.883664 0.999129
0.999724 0.862003 1.000000
0.002135 0.990721 1.000000
0.002135 0.990721 1.000000
0.002135 0.990721 1.000000
0.002135 0.990721 1.000000
0.002135 0.990721 1.000000
0.002135 0.990721 1.000000
0.532151 0.999839 0.994352
1.000000 1.000000 1.000000
0.997464 0.999429 0.975328
0.002135 0.990721 1.000000
0.002135 0.990721 1.000000
0.002135 0.990721 1.000000
0.002135 0.990721 1.000000
0.002135 0.990721 1.000000
0.002135 0.991058 0.999120
0.030867 0.999411 1.000000
0.902638 0.999531 0.992223
0.996094 1.000000 0.975328
0.002613 0.420036 0.999872
0.000842 0.434075 1.000000
0.001033 0.439071 1.000000
0.579725 0.453754 1.000000
1.000000 0.457310 1.000000
1.000000 0.392303 1.000000
1.000000 0.392303 1.000000
1.000000 0.392303 1.000000
1.000000 0.392303 1.000000
0.000832 0.445743 1.000000
0.000842 0.434075 1.000000
0.001426 0.437062 1.000000
0.496639 0.447953 0.999539
0.965455 0.462101 0.999157
1.000000 0.392303 1.000000
1.000000 0.392303 1.000000
1.000000 0.392303 1.000000
1.000000 0.392303 1.000000
0.000180 0.524426 0.999852
0.000000 0.507762 1.000000
0.001376 0.495397 1.000000
0.181058 0.483698 1.000000
0.863573 0.487052 1.000000
0.999914 0.402994 0.998969
1.000000 0.392303 1.000000
1.000000 0.392303 1.000000
1.000000 0.392303 1.000000
0.001049 0.653742 0.999883
0.000000 0.631105 1.000000
0.000302 0.610757 1.000000
0.000000 0.589433 0.999868
0.702015 0.569344 1.000000
0.999415 0.533007 0.999000
0.999080 0.465014 0.998762
0.999291 0.446340 1.000000
1.000000 0.430989 0.999997
0.000126 0.820431 1.000000
0.000538 0.795423 0.999828
0.000000 0.769102 0.999777
0.000195 0.739097 0.999505
0.339242 0.696155 0.999535
0.930486 0.662553 1.000000
1.000000 0.585649 0.999102
0.999978 0.559328 0.999051
0.999998 0.535994 0.999222
0.000000 0.950444 1.000000
0.000000 0.932107 1.000000
0.000049 0.913769 0.999946
0.000652 0.893421 1.000000
0.000671 0.870087 1.000000
0.722932 0.806881 0.999255
0.999419 0.759008 1.000000
1.000000 0.715662 0.999133
1.000000 0.685322 1.000000
0.002135 0.990721 1.000000
0.002135 0.990721 1.000000
0.002135 0.990721 1.000000
0.002135 0.990721 1.000000
0.000192 0.977101 0.998984
0.050628 0.980967 1.000000
0.911506 0.915317 0.999969
1.000000 0.871997 0.999215
0.999543 0.845676 0.999164
0.002135 0.990721 1.000000
0.002135 0.990721 1.000000
0.002135 0.990721 1.000000
0.002135 0.990721 1.000000
0.002135 0.990721 1.000000
0.002135 0.990721 1.000000
0.545640 0.999536 0.994797
1.000000 1.000000 1.000000
0.996687 0.986741 0.999864
0.002135 0.990721 1.000000
0.002135 0.990721 1.000000
0.002135 0.990721 1.000000
0.002135 0.990721 1.000000
0.002135 0.990721 1.000000
0.002135 0.991058 0.999120
0.036928 0.999607 1.000000
0.906354 0.999447 0.991469
1.000000 1.000000 1.000000
