Sources/Resources/LUT/gfx-eterna-55-3d-lut-v100/33Grid/F-Log2/FLog2_to_PRO-Neg.Std_33grid_V.1.00.cube
#title:FLog2_to_PRO-Neg.Std
#model:GFX ETERNA 55
#FUJIFILM Corporation
#Gamma:F-Log2 to PRO Neg.Std
#Gamut:F-Gamut to ITU-R BT.709
#Version:1.00
LUT_3D_SIZE 5
0.000000 0.000000 0.000000
0.102627 0.012994 0.023711
0.627731 0.025009 0.152239
0.929380 0.010591 0.351906
0.929380 0.010591 0.351906
0.014772 0.104004 0.000000
0.117399 0.120021 0.007808
0.776427 0.125338 0.153656
0.931121 0.035251 0.331722
0.929380 0.010591 0.351906
0.003355 0.894939 0.000305
0.004974 0.829235 0.000288
0.693610 0.763116 0.000000
0.971364 0.576315 0.147133
0.963639 0.457449 0.171242
0.032967 0.999768 0.111000
0.032967 0.999768 0.111000
0.310976 1.000000 0.125012
0.960843 0.999910 0.135164
0.968878 0.981750 0.121938
0.032967 0.999768 0.111000
0.032967 0.999768 0.111000
0.100025 0.999589 0.115934
0.721735 0.999241 0.157544
0.962213 0.999212 0.135164
0.005458 0.009118 0.058665
0.127444 0.017681 0.080113
0.753241 0.017066 0.232300
0.929380 0.010591 0.351906
0.929380 0.010591 0.351906
0.028193 0.154790 0.156989
0.140625 0.140625 0.140625
0.815721 0.110631 0.254829
0.927033 0.011993 0.342277
0.929380 0.010591 0.351906
0.014854 0.881547 0.296094
0.014359 0.807163 0.123598
0.705559 0.725434 0.050758
0.969047 0.539017 0.156796
0.963084 0.418452 0.176468
0.000481 0.999853 0.307125
0.001668 0.999297 0.221219
0.314097 0.999363 0.172401
0.962415 0.999936 0.096647
0.971827 0.961347 0.125039
0.000088 0.999848 0.316753
0.000000 0.999987 0.230848
0.112137 0.999551 0.178590
0.731510 0.999019 0.158742
0.962213 0.999212 0.135164
0.031957 0.060074 0.343554
0.192854 0.063428 0.366872
0.921861 0.046530 0.709118
0.959354 0.117494 0.622302
0.950593 0.090171 0.528977
0.047490 0.337044 0.778390
0.084869 0.295559 0.765473
0.920547 0.192040 0.828517
0.967328 0.160264 0.655281
0.950202 0.091173 0.533415
0.026493 0.872676 0.893753
0.029674 0.827738 0.808414
0.725586 0.725586 0.725586
0.992607 0.563088 0.622101
0.979245 0.437260 0.491258
0.009403 0.999625 0.747485
0.005123 0.999600 0.613210
0.193805 0.999861 0.511044
0.975060 1.000000 0.474043
0.979247 0.923447 0.377824
0.009986 0.999588 0.763281
0.006684 1.000000 0.629985
0.005142 0.999454 0.493980
0.722662 0.999741 0.460923
0.969806 1.000000 0.331870
0.055159 0.248925 0.955019
0.157768 0.281220 0.999325
0.999397 0.318337 0.999347
0.998431 0.305693 0.998457
0.991051 0.255923 0.957134
0.053336 0.550567 0.999954
0.055308 0.529522 1.000000
0.860242 0.497127 1.000000
1.000000 0.352641 0.999089
0.994937 0.276778 0.993746
0.034738 0.813662 0.996109
0.037314 0.771596 1.000000
0.360333 0.723682 0.999500
0.999738 0.612332 1.000000
1.000000 0.524085 0.940559
0.013481 0.999264 0.918544
0.013481 0.999264 0.918544
0.014457 0.999568 0.922981
0.947266 0.947266 0.947266
0.992497 0.883055 0.859442
0.013481 0.999264 0.918544
0.013481 0.999264 0.918544
0.013481 0.999264 0.918544
0.571664 1.000000 0.863366
0.987133 0.999974 0.776890
0.056928 0.463817 1.000000
0.056525 0.477159 1.000000
0.960141 0.504553 1.000000
0.999492 0.439669 0.999687
0.999492 0.439669 0.999687
0.053144 0.545570 1.000000
0.054532 0.521538 1.000000
0.797453 0.534204 0.999997
0.999492 0.439669 0.999687
0.999492 0.439669 0.999687
0.034748 0.801322 0.999657
0.039478 0.755548 1.000000
0.340017 0.704138 0.999226
1.000000 0.608647 1.000000
0.999193 0.563012 0.999273
0.013481 0.999264 0.918544
0.013481 0.999264 0.918544
0.015050 0.989879 0.928480
0.905445 0.915121 0.999746
0.999151 0.847349 1.000000
0.013481 0.999264 0.918544
0.013481 0.999264 0.918544
0.013481 0.999264 0.918544
0.433621 1.000000 0.951519
1.000000 1.000000 1.000000
