Sources/Resources/LUT/gfx-eterna-55-3d-lut-v100/33Grid/F-Log2/FLog2_to_REALA-ACE_33grid_V.1.00.cube
#title:FLog2_to_REALA-ACE
#model:GFX ETERNA 55
#FUJIFILM Corporation
#Gamma:F-Log2 to REALA ACE
#Gamut:F-Gamut to ITU-R BT.709
#Version:1.00
LUT_3D_SIZE 33
0.000000 0.000000 0.000000
0.000000 0.000000 0.000000
0.000000 0.000000 0.000000
0.000977 0.000977 0.000977
0.009776 0.000115 0.000000
0.029326 0.000009 0.000136
0.045162 0.000000 0.001559
0.064713 0.000213 0.000496
0.091693 0.000000 0.000000
0.136855 0.000000 0.001215
0.196877 0.000000 0.001488
0.282117 0.000331 0.003630
0.372442 0.000299 0.006747
0.455336 0.000000 0.014832
0.538230 0.000229 0.017727
0.628161 0.000191 0.030473
0.719071 0.000457 0.047657
0.808207 0.007033 0.105531
0.869692 0.109848 0.194398
0.896039 0.146107 0.289812
0.903450 0.156170 0.355622
0.902865 0.155200 0.345016
0.903841 0.158865 0.332147
0.903841 0.158865 0.332147
0.903841 0.158865 0.332147
0.903841 0.158865 0.332147
0.903841 0.158865 0.332147
0.903841 0.158865 0.332147
0.903841 0.158865 0.332147
0.903841 0.158865 0.332147
0.903841 0.158865 0.332147
0.903841 0.158865 0.332147
0.903841 0.158865 0.332147
0.000000 0.000000 0.000000
0.000000 0.000000 0.000000
0.000000 0.000000 0.000000
0.000000 0.000000 0.000000
0.009776 0.000115 0.000000
0.023266 0.000000 0.000000
0.042816 0.000000 0.000582
0.062368 0.000000 0.000000
0.090325 0.000304 0.001388
0.127081 0.000000 0.001746
0.182018 0.000248 0.001044
0.276056 0.000134 0.003406
0.372442 0.000299 0.006747
0.472542 0.000046 0.011062
0.563841 0.000000 0.022078
0.653774 0.000000 0.033094
0.743314 0.000000 0.057199
0.835924 0.055029 0.136919
0.879256 0.122252 0.225375
0.901305 0.152245 0.338625
0.902473 0.155529 0.352913
0.903841 0.157521 0.339071
0.903841 0.158865 0.332147
0.903841 0.158865 0.332147
0.903841 0.158865 0.332147
0.903841 0.158865 0.332147
0.903841 0.158865 0.332147
0.903841 0.158865 0.332147
0.903841 0.158865 0.332147
0.903841 0.158865 0.332147
0.903841 0.158865 0.332147
0.903841 0.158865 0.332147
0.903841 0.158865 0.332147
0.000000 0.000000 0.000000
0.000000 0.000000 0.000000
0.000000 0.000000 0.000000
0.000000 0.000000 0.000000
0.009382 0.001789 0.000445
0.019551 0.000000 0.000667
0.037733 0.000484 0.001337
0.062368 0.000000 0.000000
0.087978 0.000025 0.000411
0.123364 0.000231 0.000769
0.180649 0.000609 0.002774
0.282117 0.000331 0.003630
0.389647 0.000000 0.006438
0.490724 0.000302 0.013461
0.583393 0.000000 0.021015
0.676646 0.000086 0.040906
0.773222 0.000000 0.074864
0.862081 0.098725 0.168836
0.893311 0.141547 0.260480
0.903450 0.156170 0.355622
0.903841 0.155840 0.347723
0.903841 0.158865 0.332147
0.903841 0.158865 0.332147
0.903841 0.158865 0.332147
0.903841 0.158865 0.332147
0.903841 0.158865 0.332147
0.903841 0.158865 0.332147
0.903841 0.158865 0.332147
0.903841 0.158865 0.332147
0.903841 0.158865 0.332147
0.903841 0.158865 0.332147
0.903841 0.158865 0.332147
0.903841 0.158865 0.332147
0.000000 0.000000 0.000000
0.000000 0.000000 0.000000
0.000000 0.000000 0.000000
0.000000 0.000000 0.000000
0.009382 0.001789 0.000445
0.019551 0.000000 0.000667
0.035386 0.000205 0.000360
0.056307 0.000000 0.000000
0.084264 0.000444 0.000000
0.127081 0.000000 0.001746
0.196877 0.000000 0.001488
0.300692 0.000000 0.001590
0.405482 0.000000 0.007859
0.508905 0.000220 0.017591
0.601574 0.000000 0.025145
0.698543 0.000000 0.044281
0.798049 0.000000 0.093280
0.870083 0.108846 0.189960
0.897992 0.146716 0.298688
0.902473 0.155529 0.352913
0.903841 0.157185 0.340800
0.903841 0.158865 0.332147
0.903841 0.158865 0.332147
0.903841 0.158865 0.332147
0.903841 0.158865 0.332147
0.903841 0.158865 0.332147
0.903841 0.158865 0.332147
0.903841 0.158865 0.332147
0.903841 0.158865 0.332147
0.903841 0.158865 0.332147
0.903841 0.158865 0.332147
0.903841 0.158865 0.332147
0.903841 0.158865 0.332147
0.000000 0.008681 0.000000
0.000000 0.008681 0.000000
0.000000 0.008681 0.000000
0.000000 0.008681 0.000000
0.005859 0.006867 0.000667
0.021696 0.007179 0.000360
0.037531 0.007491 0.000051
0.060213 0.004317 0.000000
0.091301 0.001953 0.000000
0.136855 0.000264 0.000000
0.226203 0.000000 0.000000
0.322589 0.000429 0.000000
0.422688 0.000176 0.004090
0.521419 0.000285 0.010137
0.617411 0.000107 0.024836
0.720439 0.000000 0.049386
0.820309 0.028073 0.119648
0.876719 0.119327 0.212816
0.901305 0.152917 0.335165
0.903841 0.155504 0.349453
0.903841 0.157185 0.340800
0.903841 0.158865 0.332147
0.903841 0.158865 0.332147
0.903841 0.158865 0.332147
0.903841 0.158865 0.332147
0.903841 0.158865 0.332147
0.903841 0.158865 0.332147
0.903841 0.158865 0.332147
0.903841 0.158865 0.332147
0.903841 0.158865 0.332147
0.903841 0.158865 0.332147
0.903841 0.158865 0.332147
0.903841 0.158865 0.332147
0.000000 0.020348 0.000000
0.000000 0.020348 0.000000
0.000000 0.020348 0.000000
0.000000 0.018338 0.000360
0.000765 0.019651 0.000000
0.019925 0.021554 0.000000
0.039474 0.021448 0.000187
0.064501 0.018887 0.000000
0.105165 0.022974 0.000000
0.161279 0.017716 0.000000
0.255911 0.009257 0.000700
0.348199 0.000519 0.000663
0.444977 0.000000 0.000000
0.542730 0.000000 0.001176
0.637354 0.000000 0.017605
0.741361 0.000000 0.043133
0.841975 0.067901 0.131863
0.892728 0.142593 0.239492
0.904235 0.155175 0.341555
0.903841 0.155168 0.351184
0.903841 0.157185 0.340800
0.903841 0.158865 0.332147
0.903841 0.158865 0.332147
0.903841 0.158865 0.332147
0.903841 0.158865 0.332147
0.903841 0.158865 0.332147
0.903841 0.158865 0.332147
0.903841 0.158865 0.332147
0.903841 0.158865 0.332147
0.903841 0.158865 0.332147
0.903841 0.158865 0.332147
0.903841 0.158865 0.332147
0.903841 0.158865 0.332147
0.000000 0.035002 0.000000
0.000000 0.035002 0.000000
0.000000 0.035002 0.000000
0.000000 0.035002 0.000000
0.000000 0.036675 0.000718
0.014437 0.036011 0.000000
0.040241 0.041098 0.000000
0.078557 0.044905 0.000000
0.123720 0.045226 0.000000
0.196253 0.043265 0.000000
0.280325 0.038376 0.000887
0.366362 0.024780 0.000000
0.464518 0.011244 0.000149
0.556221 0.000000 0.000000
0.661011 0.000000 0.006161
0.761886 0.000498 0.046507
0.844119 0.077539 0.119442
0.901517 0.158440 0.211941
0.903652 0.158573 0.308454
0.903841 0.158865 0.332147
0.904818 0.160514 0.329664
0.904818 0.161522 0.324473
0.904818 0.160850 0.327934
0.903841 0.158865 0.332147
0.903841 0.158865 0.332147
0.903841 0.158865 0.332147
0.903841 0.158865 0.332147
0.903841 0.158865 0.332147
0.903841 0.158865 0.332147
0.903841 0.158865 0.332147
0.903841 0.158865 0.332147
0.903841 0.158865 0.332147
0.903841 0.158865 0.332147
0.000142 0.062996 0.000769
0.000142 0.062996 0.000769
0.000142 0.062996 0.000769
0.000142 0.062996 0.000769
0.000142 0.062996 0.000769
0.008931 0.073466 0.000905
0.043534 0.077692 0.000000
0.086149 0.084066 0.000785
0.136002 0.085281 0.000836
0.205607 0.080055 0.000000
0.295347 0.077374 0.000543
0.378836 0.069834 0.000285
0.473871 0.048034 0.000336
0.572420 0.032824 0.000078
0.666277 0.016381 0.001327
0.754629 0.032018 0.031739
0.834937 0.075465 0.085672
0.902100 0.167140 0.182746
0.903652 0.165631 0.272114
0.903450 0.164908 0.310629
0.905403 0.167197 0.310852
0.905403 0.168205 0.305660
0.905403 0.167197 0.310852
0.903450 0.164572 0.312360
0.903450 0.163564 0.317550
0.903450 0.162555 0.322742
0.903450 0.162219 0.324473
0.904818 0.160514 0.329664
0.903841 0.158865 0.332147
0.903841 0.158865 0.332147
0.903841 0.158865 0.332147
0.903841 0.158865 0.332147
0.903841 0.158865 0.332147
0.000687 0.112652 0.000649
0.000687 0.112652 0.000649
0.000000 0.118347 0.000116
0.000000 0.118347 0.000116
0.000000 0.118347 0.000116
0.000677 0.124319 0.000562
0.030981 0.125640 0.000000
0.075750 0.127634 0.000749
0.135962 0.131951 0.000493
0.212605 0.127898 0.000234
0.290618 0.123148 0.000000
0.379975 0.111145 0.000000
0.471284 0.101094 0.000000
0.564559 0.081666 0.000489
0.655285 0.068966 0.000000
0.745992 0.075902 0.016883
0.826905 0.100347 0.064289
0.899945 0.177907 0.150090
0.906379 0.183632 0.232227
0.906178 0.180894 0.281125
0.906178 0.180222 0.284585
0.906763 0.183544 0.283078
0.906178 0.179549 0.288048
0.905595 0.175554 0.293016
0.905986 0.173208 0.295500
0.906379 0.170525 0.299715
0.905403 0.168205 0.305660
0.903450 0.165244 0.308899
0.903450 0.164236 0.314090
0.903450 0.163564 0.317550
0.903450 0.162555 0.322742
0.904818 0.160850 0.327934
0.903841 0.158865 0.332147
0.000046 0.179669 0.000000
0.000000 0.183353 0.000133
0.000821 0.187316 0.001333
0.000821 0.187316 0.001333
0.000821 0.187316 0.001333
0.000000 0.186339 0.000356
0.005120 0.190220 0.000800
0.055365 0.189762 0.000000
0.117149 0.186709 0.000000
0.191828 0.191698 0.000336
0.277078 0.181451 0.000832
0.364090 0.168833 0.000351
0.455401 0.159119 0.000000
0.551795 0.148289 0.000000
0.645653 0.132184 0.000000
0.738323 0.132095 0.004648
0.819637 0.144542 0.044241
0.896806 0.198020 0.123294
0.914374 0.216847 0.194431
0.915733 0.216727 0.251450
0.913195 0.210442 0.256195
0.913195 0.210442 0.256195
0.911050 0.202148 0.261694
0.910467 0.198153 0.266663
0.908323 0.189860 0.272165
0.908716 0.186841 0.278109
0.906763 0.183544 0.283078
0.906178 0.179213 0.289777
0.906963 0.174857 0.293016
0.905009 0.171895 0.296254
0.905403 0.168541 0.303929
0.905403 0.167533 0.309121
0.903450 0.164572 0.312360
0.000571 0.252659 0.000000
0.000178 0.254332 0.000594
0.000761 0.257319 0.000816
0.000761 0.257319 0.000816
0.000761 0.257319 0.000816
0.000761 0.257319 0.000816
0.000761 0.257319 0.000816
0.023051 0.256154 0.000000
0.078381 0.254580 0.000000
0.158347 0.252119 0.000000
0.250240 0.245391 0.000000
0.339397 0.239723 0.000000
0.432469 0.227300 0.000000
0.531601 0.215076 0.000000
0.633080 0.203467 0.000000
0.729857 0.202295 0.000000
0.814504 0.207018 0.027261
0.895216 0.234436 0.094148
0.924895 0.264987 0.167376
0.925861 0.265868 0.228831
0.924502 0.255907 0.223727
0.921965 0.249623 0.228473
0.919820 0.242001 0.230512
0.918653 0.234348 0.238719
0.917877 0.225356 0.244218
0.915340 0.218737 0.250694
0.914172 0.211755 0.255441
0.911050 0.202148 0.261694
0.910467 0.197817 0.268394
0.908323 0.189860 0.272165
0.907739 0.185528 0.278863
0.906178 0.180222 0.284585
0.905595 0.175891 0.291285
0.038819 0.334439 0.017880
0.038819 0.334439 0.017880
0.045070 0.338961 0.021032
0.047999 0.341890 0.023960
0.048976 0.342867 0.024938
0.048976 0.342867 0.024938
0.041749 0.337369 0.020810
0.037842 0.333462 0.016903
0.068547 0.323796 0.003281
0.123878 0.322893 0.000000
0.208734 0.314655 0.000000
0.309620 0.311391 0.000247
0.409336 0.302153 0.000434
0.508861 0.288255 0.000000
0.613269 0.279911 0.000000
0.714748 0.268302 0.000000
0.807611 0.274218 0.000000
0.897321 0.294438 0.062348
0.937752 0.324067 0.146402
0.939886 0.331593 0.204843
0.937943 0.316964 0.208167
0.934630 0.306730 0.192457
0.930926 0.293801 0.200219
0.928590 0.280846 0.204519
0.927422 0.272857 0.214458
0.924693 0.261576 0.219733
0.921573 0.251634 0.227719
0.919820 0.242001 0.230512
0.918068 0.231025 0.240227
0.915924 0.222394 0.247457
0.915733 0.216727 0.251450
0.912612 0.207119 0.257703
0.910467 0.198153 0.266663
0.118685 0.436216 0.081012
0.125130 0.445062 0.087094
0.125713 0.448049 0.087316
0.129619 0.451955 0.091222
0.127083 0.447351 0.087316
0.118685 0.436216 0.081012
0.112243 0.427034 0.076661
0.105798 0.418188 0.070577
0.104440 0.408898 0.062012
0.130644 0.402997 0.049368
0.185593 0.397478 0.019333
0.277295 0.389450 0.000039
0.376227 0.383897 0.000449
0.488065 0.375054 0.001082
0.588567 0.362468 0.000000
0.694737 0.351417 0.000482
0.797967 0.349103 0.000000
0.893357 0.365577 0.031970
0.951577 0.397133 0.119398
0.956833 0.412922 0.178508
0.953722 0.390976 0.188309
0.950217 0.373729 0.183511
0.943783 0.354561 0.170595
0.941448 0.342613 0.169703
0.939112 0.329323 0.175734
0.936384 0.317370 0.184474
0.934047 0.304079 0.190504
0.930926 0.293801 0.200219
0.928590 0.280174 0.207980
0.926838 0.269534 0.215965
0.925087 0.259230 0.222220
0.921965 0.249623 0.228473
0.920213 0.238984 0.236457
0.203618 0.558531 0.153602
0.210646 0.570364 0.159907
0.207131 0.564448 0.156754
0.199712 0.554625 0.149696
0.192684 0.542792 0.143390
0.186240 0.533611 0.139039
0.178821 0.523788 0.131981
0.173355 0.515582 0.128606
0.167887 0.507713 0.123500
0.169658 0.495355 0.113957
0.199971 0.488033 0.097852
0.254727 0.478190 0.064887
0.337832 0.473427 0.000000
0.452016 0.465199 0.000000
0.566783 0.459957 0.000000
0.675299 0.449521 0.000324
0.784983 0.445395 0.000000
0.885858 0.453461 0.001727
0.961485 0.478969 0.083211
0.966942 0.489769 0.133223
0.963629 0.472813 0.152121
0.961494 0.452851 0.157708
0.959168 0.428902 0.158634
0.955665 0.410982 0.157297
0.952745 0.395041 0.161374
0.950409 0.382422 0.163946
0.946119 0.367851 0.164562
0.943783 0.354561 0.170595
0.941840 0.339932 0.173919
0.938135 0.327674 0.178219
0.936384 0.317034 0.186203
0.934047 0.304079 0.190504
0.930926 0.293801 0.200219
0.336812 0.704026 0.271508
0.324702 0.693981 0.260766
0.312198 0.685946 0.249270
0.293835 0.672052 0.231914
0.281723 0.662007 0.221172
0.267659 0.650009 0.208477
0.259655 0.637199 0.201195
0.248328 0.623135 0.191960
0.242862 0.615265 0.186856
0.236418 0.606421 0.180773
0.242880 0.594956 0.171452
0.276323 0.584902 0.152639
0.342809 0.577798 0.117636
0.427284 0.573683 0.045762
0.543038 0.566824 0.000203
0.663473 0.563790 0.000000
0.777848 0.560557 0.000000
0.876971 0.559999 0.000000
0.972560 0.567787 0.042277
0.975873 0.577685 0.059718
0.976467 0.561276 0.099829
0.973355 0.537313 0.120011
0.968100 0.508753 0.126660
0.964797 0.481810 0.136993
0.964223 0.466484 0.140317
0.961888 0.453530 0.144618
0.960336 0.436555 0.150426
0.958001 0.423936 0.152996
0.955271 0.412992 0.156542
0.953328 0.398363 0.159866
0.950992 0.385745 0.162438
0.948657 0.373126 0.165007
0.944759 0.356209 0.168110
0.506774 0.828623 0.434852
0.496615 0.820868 0.424332
0.484505 0.811158 0.411860
0.471023 0.802148 0.399387
0.452660 0.788254 0.382032
0.437226 0.777625 0.365874
0.419840 0.764707 0.349496
0.403430 0.752766 0.334093
0.387997 0.741802 0.319669
0.373540 0.731814 0.306218
0.360451 0.721128 0.292770
0.362223 0.710787 0.272845
0.391367 0.700853 0.238988
0.450814 0.694929 0.190671
0.540766 0.689032 0.113606
0.647147 0.681824 0.000199
0.766214 0.679486 0.000000
0.865537 0.672258 0.000000
0.959969 0.670470 0.000590
0.979913 0.668690 0.000281
0.979923 0.652654 0.022864
0.980526 0.626929 0.050946
0.978985 0.595263 0.072414
0.975298 0.554630 0.102843
0.971987 0.540362 0.107897
0.971020 0.525703 0.117391
0.968684 0.512747 0.121691
0.967717 0.498424 0.129453
0.965381 0.485469 0.133754
0.964415 0.471481 0.139786
0.962079 0.458526 0.144085
0.960719 0.446548 0.149362
0.958776 0.432256 0.150957
0.642948 0.915686 0.571691
0.634350 0.911558 0.564102
0.627121 0.906732 0.556511
0.618916 0.900929 0.547946
0.608365 0.895184 0.536673
0.593908 0.885532 0.521491
0.580428 0.876857 0.507289
0.566948 0.867846 0.494817
0.552491 0.858193 0.479637
0.537058 0.847565 0.463482
0.520254 0.837298 0.449055
0.505212 0.825332 0.430191
0.511675 0.816221 0.408757
0.537106 0.806705 0.373927
0.586193 0.800368 0.312074
0.652104 0.794406 0.195601
0.747541 0.787159 0.051133
0.847852 0.779323 0.000000
0.945022 0.776476 0.000000
0.984716 0.767919 0.000000
0.984535 0.751256 0.000000
0.984948 0.724230 0.009481
0.982631 0.684581 0.031258
0.980910 0.636923 0.049882
0.980928 0.611572 0.060437
0.981521 0.602219 0.064207
0.978210 0.586943 0.074453
0.976850 0.572949 0.090114
0.976467 0.561948 0.096368
0.973154 0.546000 0.110074
0.972187 0.532684 0.112644
0.969852 0.519056 0.120405
0.967908 0.504428 0.123730
0.663656 0.929187 0.593484
0.663656 0.929187 0.593484
0.663656 0.929187 0.593484
0.663656 0.929187 0.593484
0.663656 0.929187 0.593484
0.663656 0.929187 0.593484
0.663656 0.929187 0.593484
0.663656 0.929187 0.593484
0.663656 0.929187 0.593484
0.657405 0.925338 0.586872
0.646854 0.919256 0.577328
0.638648 0.913790 0.567031
0.615402 0.896357 0.537871
0.613660 0.882452 0.502680
0.644759 0.875143 0.467317
0.694430 0.870448 0.412609
0.757401 0.869191 0.313887
0.827438 0.860656 0.079914
0.915436 0.853141 0.000000
0.987971 0.850845 0.000637
0.987779 0.846185 0.000000
0.987025 0.814867 0.000000
0.983540 0.772940 0.002216
0.984746 0.728212 0.023769
0.983407 0.692564 0.030949
0.984202 0.676541 0.034274
0.982843 0.664563 0.039551
0.982268 0.648901 0.044607
0.980910 0.636923 0.049882
0.981311 0.622573 0.054183
0.980736 0.606911 0.059238
0.977425 0.591635 0.069484
0.978018 0.580602 0.081907
0.663656 0.929187 0.593484
0.663656 0.929187 0.593484
0.663656 0.929187 0.593484
0.663656 0.929187 0.593484
0.663656 0.929187 0.593484
0.663656 0.929187 0.593484
0.663656 0.929187 0.593484
0.663656 0.929187 0.593484
0.663656 0.929187 0.593484
0.663656 0.929187 0.593484
0.663656 0.929187 0.593484
0.663656 0.929187 0.593484
0.663656 0.929187 0.593484
0.674409 0.930279 0.593930
0.702366 0.932665 0.585414
0.734439 0.926333 0.551028
0.783719 0.922976 0.499027
0.841403 0.924464 0.425729
0.907122 0.925268 0.249222
0.977553 0.915059 0.014273
0.987922 0.909181 0.000208
0.987157 0.889867 0.000000
0.988163 0.855842 0.000106
0.986439 0.811208 0.003155
0.985110 0.761204 0.024266
0.984143 0.749232 0.019914
0.984153 0.736556 0.025191
0.984162 0.724553 0.027008
0.983196 0.711238 0.029578
0.983598 0.697224 0.032149
0.981654 0.682932 0.033742
0.984011 0.670872 0.038265
0.982068 0.655907 0.043321
0.663656 0.929187 0.593484
0.663656 0.929187 0.593484
0.663656 0.929187 0.593484
0.663656 0.929187 0.593484
0.663656 0.929187 0.593484
0.663656 0.929187 0.593484
0.663656 0.929187 0.593484
0.663656 0.929187 0.593484
0.663656 0.929187 0.593484
0.663656 0.929187 0.593484
0.663656 0.929187 0.593484
0.663656 0.929187 0.593484
0.663656 0.929187 0.593484
0.663656 0.929187 0.593484
0.681445 0.931788 0.593398
0.724060 0.938836 0.590965
0.784465 0.948820 0.586715
0.847215 0.960766 0.574790
0.900401 0.963331 0.516312
0.953213 0.963057 0.362079
0.995676 0.954735 0.173629
0.991015 0.938666 0.071566
0.988305 0.919174 0.000000
0.986965 0.884870 0.000000
0.988565 0.841156 0.006136
0.986631 0.814861 0.009546
0.985271 0.803219 0.013094
0.987234 0.792832 0.018593
0.987244 0.781165 0.018679
0.986278 0.767849 0.021251
0.984918 0.756207 0.024797
0.983951 0.743899 0.022176
0.985331 0.730527 0.027454
0.663656 0.929187 0.593484
0.663656 0.929187 0.593484
0.663656 0.929187 0.593484
0.663656 0.929187 0.593484
0.663656 0.929187 0.593484
0.663656 0.929187 0.593484
0.663656 0.929187 0.593484
0.663656 0.929187 0.593484
0.663656 0.929187 0.593484
0.663656 0.929187 0.593484
0.663656 0.929187 0.593484
0.663656 0.929187 0.593484
0.663656 0.929187 0.593484
0.663656 0.929187 0.593484
0.668348 0.930082 0.593708
0.693174 0.934192 0.593089
0.740480 0.942135 0.590878
0.800885 0.952455 0.584898
0.865004 0.964374 0.569511
0.924825 0.975406 0.544274
0.978202 0.984313 0.478344
0.997580 0.978728 0.362044
0.998194 0.966877 0.258695
0.992766 0.943257 0.094731
0.987922 0.909181 0.000208
0.987952 0.874180 0.000465
0.988546 0.864827 0.004234
0.987186 0.853521 0.006051
0.987196 0.841517 0.007868
0.988766 0.833141 0.012614
0.987408 0.822171 0.012700
0.986439 0.809528 0.011808
0.986058 0.798862 0.016331
0.663656 0.929187 0.593484
0.663656 0.929187 0.593484
0.663656 0.929187 0.593484
0.663656 0.929187 0.593484
0.663656 0.929187 0.593484
0.663656 0.929187 0.593484
0.663656 0.929187 0.593484
0.663656 0.929187 0.593484
0.663656 0.929187 0.593484
0.663656 0.929187 0.593484
0.663656 0.929187 0.593484
0.663656 0.929187 0.593484
0.663656 0.929187 0.593484
0.663656 0.929187 0.593484
0.666002 0.929466 0.594461
0.679100 0.931509 0.592422
0.712333 0.936432 0.591273
0.762961 0.945966 0.589285
0.821020 0.956344 0.580598
0.881816 0.967008 0.563258
0.936362 0.975501 0.530653
0.987001 0.986475 0.461262
0.997168 0.988613 0.440718
0.997571 0.983672 0.396567
0.998979 0.965546 0.246360
0.989463 0.932446 0.021999
0.987328 0.917861 0.000000
0.987922 0.909181 0.000208
0.989885 0.899803 0.000515
0.986180 0.888554 0.000000
0.987167 0.877191 0.004149
0.987760 0.868846 0.002727
0.987378 0.858854 0.003789
0.663656 0.928851 0.595215
0.663656 0.928851 0.595215
0.663656 0.928851 0.595215
0.663656 0.928851 0.595215
0.663656 0.928851 0.595215
0.663656 0.928851 0.595215
0.663656 0.928851 0.595215
0.663656 0.929187 0.593484
0.663656 0.929187 0.593484
0.663656 0.929187 0.593484
0.663656 0.929187 0.593484
0.663656 0.929187 0.593484
0.663656 0.929187 0.593484
0.663656 0.929187 0.593484
0.663656 0.929187 0.593484
0.674409 0.930279 0.593930
0.694543 0.933495 0.593089
0.732468 0.939648 0.590435
0.782119 0.948542 0.585739
0.840179 0.958919 0.577052
0.896283 0.969025 0.557759
0.950436 0.980201 0.520938
0.994430 0.988327 0.449371
0.997168 0.987941 0.444179
0.997168 0.988613 0.440718
0.997963 0.983008 0.390399
0.997801 0.967542 0.264863
0.997036 0.959991 0.202961
0.995686 0.949789 0.139106
0.993551 0.942262 0.080664
0.989857 0.931780 0.015833
0.988888 0.922161 0.000000
0.988113 0.914178 0.000000
0.663656 0.928851 0.595215
0.663656 0.928851 0.595215
0.663656 0.928851 0.595215
0.663656 0.928851 0.595215
0.663656 0.928851 0.595215
0.663656 0.928851 0.595215
0.663656 0.928851 0.595215
0.663656 0.928851 0.595215
0.663656 0.928851 0.595215
0.663656 0.928851 0.595215
0.663656 0.928851 0.595215
0.663656 0.928851 0.595215
0.663656 0.928851 0.595215
0.663656 0.928851 0.595215
0.666002 0.929466 0.594461
0.672062 0.930000 0.592953
0.686138 0.933019 0.591892
0.712333 0.936432 0.591273
0.752602 0.942864 0.589594
0.800885 0.952455 0.584898
0.855622 0.961913 0.572527
0.910749 0.971714 0.548796
0.963927 0.981915 0.511000
0.997168 0.987605 0.445910
0.997168 0.987941 0.444179
0.997168 0.987941 0.444179
0.997168 0.988613 0.440718
0.997168 0.988613 0.440718
0.997561 0.988283 0.432820
0.997380 0.981365 0.383254
0.997198 0.975455 0.328497
0.997993 0.969514 0.279907
0.998002 0.965913 0.238460
0.663656 0.928851 0.595215
0.663656 0.928851 0.595215
0.663656 0.928851 0.595215
0.663656 0.928851 0.595215
0.663656 0.928851 0.595215
0.663656 0.928851 0.595215
0.663656 0.928851 0.595215
0.663656 0.928851 0.595215
0.663656 0.928851 0.595215
0.663656 0.928851 0.595215
0.663656 0.928851 0.595215
0.663656 0.928851 0.595215
0.663656 0.928851 0.595215
0.663656 0.928851 0.595215
0.664633 0.929828 0.596192
0.670693 0.930361 0.594684
0.683791 0.932068 0.594375
0.702557 0.935644 0.595266
0.732074 0.940986 0.593140
0.771367 0.946779 0.588754
0.818674 0.955729 0.581350
0.871066 0.964908 0.568005
0.922478 0.975126 0.543297
0.971749 0.983437 0.491210
0.996777 0.988943 0.448618
0.997168 0.987605 0.445910
0.997168 0.987941 0.444179
0.997168 0.987941 0.444179
0.997168 0.988277 0.442449
0.997168 0.988277 0.442449
0.997168 0.988277 0.442449
0.997168 0.988277 0.442449
0.997168 0.988613 0.440718
0.663656 0.928851 0.595215
0.663656 0.928851 0.595215
0.663656 0.928851 0.595215
0.663656 0.928851 0.595215
0.663656 0.928851 0.595215
0.663656 0.928851 0.595215
0.663656 0.928851 0.595215
0.663656 0.928851 0.595215
0.663656 0.928851 0.595215
0.663656 0.928851 0.595215
0.663656 0.928851 0.595215
0.663656 0.928851 0.595215
0.663656 0.928851 0.595215
0.663656 0.928851 0.595215
0.663656 0.928851 0.595215
0.668348 0.929746 0.595438
0.677731 0.931534 0.595883
0.693174 0.933856 0.594821
0.720345 0.938582 0.593449
0.753579 0.943841 0.590571
0.796193 0.950889 0.588137
0.843500 0.960175 0.579005
0.891200 0.968460 0.565433
0.938315 0.976446 0.537796
0.981525 0.984896 0.483758
0.995407 0.988968 0.452079
0.994430 0.988327 0.449371
0.997168 0.987605 0.445910
0.995800 0.987966 0.447641
0.995800 0.988302 0.445910
0.995800 0.987966 0.447641
0.997168 0.987941 0.444179
0.995800 0.988302 0.445910
0.663656 0.928851 0.595215
0.663656 0.928851 0.595215
0.663656 0.928851 0.595215
0.663656 0.928851 0.595215
0.663656 0.928851 0.595215
0.663656 0.928851 0.595215
0.663656 0.928851 0.595215
0.663656 0.928851 0.595215
0.663656 0.928851 0.595215
0.663656 0.928851 0.595215
0.663656 0.928851 0.595215
0.663656 0.928851 0.595215
0.663656 0.928851 0.595215
0.663656 0.928851 0.595215
0.663656 0.928851 0.595215
0.666002 0.929466 0.594461
0.673039 0.930641 0.595661
0.686138 0.932683 0.593621
0.708617 0.936179 0.593757
0.740480 0.941799 0.592610
0.778404 0.947952 0.589952
0.823365 0.956287 0.583303
0.872042 0.965548 0.570710
0.918764 0.973865 0.550974
0.967248 0.983171 0.512953
