Sources/Resources/LUT/gfx-eterna-55-3d-lut-v100/33Grid/F-Log2/FLog2_to_ASTIA_33grid_V.1.00.cube
#title:FLog2_to_ASTIA
#model:GFX ETERNA 55
#FUJIFILM Corporation
#Gamma:F-Log2 to ASTIA
#Gamut:F-Gamut to ITU-R BT.709
#Version:1.00
LUT_3D_SIZE 9
0.000000 0.000000 0.000000
0.016813 0.001624 0.000000
0.118865 0.004333 0.000016
0.369310 0.005048 0.000000
0.756219 0.000308 0.036657
0.999960 0.000628 0.380843
1.000000 0.000299 0.372945
1.000000 0.000299 0.372945
1.000000 0.000299 0.372945
0.000575 0.014654 0.000136
0.011719 0.013735 0.001337
0.114759 0.006425 0.000016
0.414472 0.005033 0.000629
0.882313 0.000056 0.092715
1.000000 0.000000 0.376406
1.000000 0.000299 0.372945
1.000000 0.000299 0.372945
1.000000 0.000299 0.372945
0.000000 0.105004 0.000000
0.000496 0.107656 0.001181
0.111740 0.107829 0.000000
0.463472 0.091602 0.000302
0.886401 0.028356 0.056204
1.000000 0.000000 0.350980
0.999770 0.000337 0.357149
0.999377 0.000330 0.366776
1.000000 0.000299 0.372945
0.000000 0.482680 0.000000
0.000000 0.493035 0.000075
0.035792 0.450870 0.000247
0.406309 0.415223 0.000105
0.813784 0.372413 0.000000
0.999010 0.232902 0.223864
0.999692 0.116191 0.240519
1.000000 0.040773 0.284520
1.000000 0.000000 0.315926
0.000000 0.943700 0.000000
0.000014 0.916681 0.000000
0.000000 0.880368 0.000922
0.286891 0.836908 0.000902
0.726440 0.781381 0.000000
0.999424 0.709540 0.030023
0.998948 0.562082 0.113808
0.998815 0.483721 0.132160
1.000000 0.403992 0.153973
0.000000 1.000000 0.000285
0.000000 1.000000 0.000285
0.000000 1.000000 0.000285
0.000000 1.000000 0.000285
0.552059 0.999964 0.000000
0.926866 0.978553 0.000172
0.998694 0.879208 0.040625
0.998552 0.811507 0.064083
0.999566 0.764806 0.070593
0.046084 0.999649 0.000114
0.046084 0.999649 0.000114
0.046084 0.999649 0.000114
0.075411 0.999657 0.000250
0.356551 0.999683 0.000000
0.692629 0.999809 0.000000
0.986465 0.999760 0.077305
0.990381 0.999729 0.041496
0.992153 0.990059 0.018110
0.046084 0.999649 0.000114
0.046084 0.999649 0.000114
0.046084 0.999649 0.000114
0.046084 0.999649 0.000114
0.231817 0.999814 0.000403
0.560465 1.000000 0.000399
0.860372 0.999339 0.024708
0.986465 0.999424 0.079035
0.986465 0.999424 0.079035
0.046084 0.999649 0.000114
0.046084 0.999649 0.000114
0.046084 0.999649 0.000114
0.046084 0.999649 0.000114
0.118227 0.999362 0.000832
0.424978 0.999815 0.000000
0.747567 0.999908 0.000688
0.987049 1.000000 0.091372
0.986465 0.999424 0.079035
0.000000 0.000000 0.003461
0.021896 0.000509 0.000000
0.133725 0.003332 0.000460
0.387885 0.003965 0.000000
0.814086 0.000312 0.056188
0.998984 0.000000 0.378137
1.000000 0.000299 0.372945
1.000000 0.000299 0.372945
1.000000 0.000299 0.372945
0.000000 0.015313 0.015934
0.013672 0.013672 0.013672
0.123748 0.009888 0.001437
0.451621 0.002867 0.000013
0.937049 0.000000 0.132258
1.000000 0.000000 0.376406
1.000000 0.000299 0.372945
1.000000 0.000299 0.372945
1.000000 0.000299 0.372945
0.000486 0.115963 0.018399
0.000295 0.113654 0.005087
0.119170 0.107328 0.000000
0.473842 0.083037 0.000078
0.903222 0.015961 0.067340
0.998793 0.000000 0.354441
0.999770 0.000000 0.360610
0.999377 0.000330 0.366776
1.000000 0.000299 0.372945
0.000739 0.518659 0.000126
0.000000 0.491361 0.000000
0.040492 0.440098 0.000554
0.412580 0.397082 0.000000
0.825532 0.351483 0.000000
0.998838 0.202890 0.233218
0.999710 0.090168 0.254535
1.000000 0.020084 0.296273
0.999578 0.000718 0.329993
0.000000 0.930022 0.000801
0.000024 0.905014 0.000000
0.000000 0.868700 0.001009
0.292769 0.820778 0.000012
0.733294 0.766227 0.000000
0.998659 0.686528 0.047723
0.999360 0.535393 0.121657
0.999810 0.460020 0.140230
1.000000 0.378977 0.162796
0.000000 1.000000 0.000285
0.000000 1.000000 0.000285
0.000000 1.000000 0.000285
0.000000 1.000000 0.000285
0.565549 0.999660 0.000000
0.937628 0.968312 0.000000
0.999096 0.864859 0.044926
0.999347 0.795484 0.067406
0.999385 0.747471 0.074673
0.031014 1.000000 0.096934
0.047835 0.999871 0.045774
0.048431 0.999928 0.001091
0.079126 0.999575 0.000000
0.360266 0.999265 0.000417
0.702404 0.999588 0.000859
0.986465 0.999760 0.077305
0.990775 0.999735 0.031867
0.993533 0.977022 0.021656
0.031014 1.000000 0.096934
0.048812 1.000000 0.048480
0.048431 0.999928 0.001091
0.046084 0.999649 0.000114
0.235532 0.999732 0.000000
0.565549 0.999660 0.000000
0.865064 0.999897 0.026661
0.986465 0.999424 0.079035
0.986465 0.999424 0.079035
0.027299 0.999577 0.101149
0.047444 0.999864 0.055403
0.048431 0.999928 0.001091
0.046084 0.999649 0.000114
0.124287 0.999559 0.001053
0.431039 1.000000 0.000000
0.751281 0.999826 0.000000
0.987049 1.000000 0.091372
0.986465 0.999424 0.079035
0.000000 0.002580 0.065895
0.016803 0.002201 0.055957
0.145644 0.000651 0.051536
0.441644 0.000000 0.051172
0.875659 0.000138 0.135446
1.000000 0.000000 0.376406
1.000000 0.000299 0.372945
1.000000 0.000299 0.372945
1.000000 0.000299 0.372945
0.000000 0.017855 0.097625
0.003686 0.018115 0.085512
0.143087 0.011652 0.087258
0.508501 0.000455 0.085968
0.999790 0.000000 0.239649
1.000000 0.000299 0.372945
1.000000 0.000299 0.372945
1.000000 0.000299 0.372945
1.000000 0.000299 0.372945
0.000437 0.145060 0.168520
0.000000 0.137457 0.141673
0.117188 0.117188 0.117188
0.505111 0.081206 0.081684
0.924134 0.002963 0.190786
0.999770 0.000337 0.357149
1.000000 0.000000 0.365047
0.999377 0.000000 0.370239
1.000000 0.000299 0.372945
0.000000 0.560933 0.275558
0.000000 0.511734 0.174954
0.010552 0.454628 0.089921
0.421178 0.399867 0.014481
0.837069 0.339816 0.046687
0.998857 0.169810 0.283574
0.999337 0.066156 0.267796
1.000000 0.005727 0.310204
0.999578 0.000045 0.333453
0.000000 0.908184 0.318417
0.000000 0.880380 0.196431
0.000000 0.846279 0.056469
0.271085 0.801931 0.000000
0.735853 0.748168 0.000000
1.000000 0.664760 0.086633
1.000000 0.512363 0.126265
0.999247 0.432354 0.147102
0.999899 0.349637 0.168692
0.000000 1.000000 0.264172
0.000701 0.999759 0.152839
0.000000 1.000000 0.000285
0.000000 1.000000 0.000285
0.569264 0.999242 0.000621
0.946235 0.962118 0.000000
0.998521 0.849533 0.048250
0.998771 0.780829 0.067269
0.999203 0.729798 0.080481
0.000000 0.999879 0.310586
0.000000 0.999315 0.234309
0.001285 0.999721 0.168637
0.067962 0.999967 0.120988
0.357326 0.999601 0.040663
0.709834 0.999424 0.000000
0.986858 0.999430 0.069405
0.989798 0.999767 0.025698
0.994518 0.964988 0.029642
0.000088 0.999512 0.318485
0.000000 0.999309 0.243938
0.000000 1.000000 0.178265
0.020453 0.999704 0.118452
0.237867 0.999580 0.062835
0.570241 0.999883 0.003329
0.868778 0.999479 0.027637
0.986465 0.999424 0.079035
0.986465 0.999424 0.079035
0.000000 0.999841 0.326382
0.000000 0.999638 0.251836
0.000499 1.000000 0.186164
0.020061 0.999697 0.128082
0.125838 0.999730 0.081770
0.433386 0.999955 0.002114
0.754996 0.999744 0.000000
0.986073 0.999754 0.086933
0.986465 0.999424 0.079035
0.000937 0.007653 0.206558
0.005438 0.008256 0.183087
0.158722 0.000150 0.182570
0.517472 0.000366 0.225657
0.948929 0.000000 0.407949
0.998764 0.000000 0.534153
1.000000 0.000000 0.470210
1.000000 0.000248 0.407999
1.000000 0.000299 0.372945
0.000908 0.026523 0.289363
0.002670 0.023817 0.290118
0.153801 0.014714 0.317512
0.592133 0.000000 0.375470
0.999741 0.000051 0.538590
0.999932 0.000006 0.564015
0.999357 0.000000 0.489469
1.000000 0.000000 0.411460
1.000000 0.000299 0.372945
0.000000 0.199501 0.532480
0.000541 0.186166 0.521961
0.085428 0.150321 0.483890
0.551181 0.096287 0.431441
0.962793 0.000000 0.516266
1.000000 0.000000 0.589442
0.998964 0.000000 0.499098
1.000000 0.000000 0.411460
1.000000 0.000299 0.372945
0.000160 0.599852 0.731457
0.000000 0.551007 0.642211
0.000086 0.491144 0.546130
0.422852 0.422852 0.422852
0.857144 0.343805 0.401809
0.999766 0.206415 0.521024
0.999864 0.102514 0.456126
0.999166 0.012620 0.398285
0.999578 0.000000 0.335183
0.000300 0.896148 0.755934
0.000338 0.866619 0.668023
0.000000 0.826469 0.559210
0.194785 0.780645 0.420824
0.737584 0.722659 0.298007
0.999816 0.640651 0.375141
0.999743 0.501698 0.345556
0.999429 0.421124 0.290114
0.999314 0.332872 0.239417
0.000000 0.999701 0.627055
0.000050 0.999467 0.558676
0.000000 1.000000 0.469308
0.000000 1.000000 0.359708
0.543422 1.000000 0.209306
0.943870 0.945854 0.201044
0.999489 0.819832 0.267179
0.999940 0.759581 0.207884
0.999011 0.711359 0.150229
0.000000 0.999080 0.595461
0.000000 0.999219 0.509554
0.000461 0.999663 0.428085
0.000000 0.999493 0.347371
0.337737 0.999663 0.280188
0.706875 1.000000 0.155367
0.985872 1.000000 0.120258
0.994096 0.982171 0.130727
0.994719 0.945546 0.094952
0.000000 0.999409 0.603359
0.000000 0.999550 0.517453
0.000068 0.999658 0.437715
0.000000 0.999461 0.353539
0.195797 0.999170 0.286648
0.560628 0.999101 0.212457
0.864842 1.000000 0.179215
0.987049 0.999722 0.093101
0.986073 0.999754 0.086933
0.000000 0.999739 0.611257
0.000000 0.999847 0.531519
0.000000 0.999650 0.447343
0.000000 0.999791 0.361437
0.052488 0.999712 0.291379
0.422987 1.000000 0.225309
0.750668 0.999578 0.165578
0.987039 0.999627 0.153583
0.986073 0.999754 0.086933
0.004402 0.014774 0.503462
0.004995 0.014159 0.462238
0.171378 0.005743 0.471796
0.606178 0.000000 0.569691
1.000000 0.000000 0.751625
0.999902 0.000000 0.747187
1.000000 0.000000 0.702503
1.000000 0.000203 0.648191
1.000000 0.000000 0.592903
0.003960 0.047562 0.644176
0.004736 0.044455 0.700973
0.133185 0.032816 0.758094
0.679842 0.000104 0.829106
0.999097 0.000000 0.883946
0.999700 0.000006 0.778781
0.999319 0.000000 0.729660
0.999329 0.000190 0.667449
0.999731 0.000000 0.600801
0.001140 0.315438 0.976949
0.001140 0.310733 1.000000
0.000797 0.259784 0.973165
0.570405 0.168827 0.872708
0.993400 0.034664 0.873837
0.999491 0.014648 0.798176
1.000000 0.000000 0.735829
1.000000 0.000159 0.673618
0.999731 0.000000 0.599070
0.000264 0.657426 1.000000
0.000886 0.613744 1.000000
0.000935 0.561122 0.971684
0.347259 0.486514 0.867253
0.869167 0.385928 0.787290
0.999255 0.301046 0.763234
0.999123 0.241506 0.684680
0.999603 0.142220 0.646407
0.999700 0.035966 0.593621
0.000280 0.872097 0.999759
0.000098 0.855433 1.000000
0.000711 0.831483 0.959325
0.000175 0.784275 0.886852
0.719727 0.719727 0.719727
1.000000 0.635477 0.692141
1.000000 0.533255 0.618589
0.999157 0.456030 0.565102
0.999628 0.371436 0.511167
0.000000 0.990532 0.949023
0.000000 0.996288 0.894180
0.000000 0.999371 0.833923
0.000019 0.991787 0.778187
0.442689 0.969728 0.647336
0.923121 0.905422 0.557879
0.999075 0.791069 0.544859
0.999719 0.735479 0.486762
0.999768 0.689241 0.424895
0.000000 0.997640 0.877628
0.000010 1.000000 0.795405
0.000000 0.999226 0.714691
0.000623 0.999670 0.633224
0.178745 0.999803 0.550843
0.684930 0.999592 0.457856
0.988954 0.999182 0.407840
0.996231 0.951050 0.388171
0.999200 0.918065 0.336070
0.000583 0.996599 0.888988
0.000000 0.999415 0.808496
0.000412 1.000000 0.725297
0.000000 0.999359 0.638414
0.024292 0.999582 0.563027
0.543183 0.999728 0.486281
0.853074 0.999560 0.411063
0.987211 0.999392 0.299970
0.988591 1.000000 0.232567
0.000000 0.995616 0.897641
0.000000 0.999746 0.816394
0.000019 1.000000 0.733194
0.000000 1.000000 0.649020
0.000000 0.999790 0.576203
0.366249 0.999709 0.479294
0.738115 0.999469 0.413223
0.989547 1.000000 0.357965
0.988197 1.000000 0.240464
0.005874 0.049806 0.884590
0.005301 0.043890 0.839461
0.144300 0.042365 0.885359
0.675111 0.019664 0.963515
1.000000 0.000000 0.999715
1.000000 0.016734 0.938618
0.999681 0.000000 0.899742
1.000000 0.000000 0.856789
0.999892 0.000000 0.805937
0.000310 0.135083 0.999757
0.000482 0.163079 1.000000
0.000270 0.181753 0.999414
0.673051 0.138321 1.000000
1.000000 0.000000 0.999715
1.000000 0.042027 0.972746
0.999470 0.012104 0.931250
1.000000 0.000165 0.878754
0.999107 0.000000 0.823465
0.000000 0.479768 0.999441
0.000410 0.482754 0.999665
0.000057 0.438095 0.999254
0.438467 0.340921 1.000000
0.999505 0.190334 0.998562
0.999957 0.119664 0.992910
1.000000 0.047404 0.945058
1.000000 0.000000 0.896281
1.000000 0.000000 0.831363
0.001039 0.665409 0.999797
0.000000 0.649443 1.000000
0.000090 0.629095 1.000000
0.000000 0.584436 1.000000
0.839333 0.486263 0.999946
1.000000 0.355996 0.991414
0.999830 0.292175 0.884504
0.999707 0.213909 0.842376
1.000000 0.127299 0.798825
0.000000 0.815434 1.000000
0.000921 0.805080 1.000000
0.000146 0.797096 1.000000
0.000000 0.775772 1.000000
0.599635 0.724980 0.999086
1.000000 0.625692 0.972888
1.000000 0.569607 0.816547
0.998879 0.516046 0.770784
1.000000 0.453411 0.729769
0.000000 0.955441 1.000000
0.000000 0.950444 1.000000
0.000000 0.943774 1.000000
0.000422 0.935093 1.000000
0.097994 0.918569 1.000000
0.863281 0.863281 0.863281
0.999441 0.777683 0.784160
1.000000 0.732416 0.732898
0.999920 0.690497 0.683590
0.000000 0.973779 1.000000
0.000192 0.976765 1.000000
0.000967 0.984749 1.000000
0.000192 0.992896 0.917653
0.000000 0.998312 0.874168
0.592604 0.999547 0.743075
0.992045 0.990692 0.674742
0.998758 0.917582 0.648101
0.999965 0.886968 0.596975
0.000000 0.973779 1.000000
0.000583 0.975091 0.999738
0.000000 0.983435 1.000000
0.000000 0.993227 0.925551
0.000392 0.999333 0.849719
0.392797 1.000000 0.724813
0.826054 0.999450 0.653824
0.989126 0.999284 0.552496
0.989527 0.999722 0.480655
0.000000 0.973779 1.000000
0.000583 0.975091 0.999738
0.000000 0.983435 1.000000
0.000000 0.991546 0.934204
0.000000 0.999998 0.855887
0.112431 1.000000 0.765114
0.710703 0.999689 0.663882
0.991270 0.999176 0.590257
0.990504 0.999354 0.488556
0.000000 0.183427 1.000000
0.001459 0.164392 1.000000
0.000635 0.214744 0.999910
0.654226 0.204412 1.000000
1.000000 0.114636 0.999610
1.000000 0.163315 0.998511
1.000000 0.134984 0.999216
1.000000 0.102969 0.999696
1.000000 0.067967 0.999954
0.000124 0.356425 0.999855
0.000689 0.382746 0.999906
0.000478 0.401083 1.000000
0.396778 0.393858 1.000000
0.999638 0.264997 0.999246
0.999495 0.201665 1.000000
1.000000 0.167976 0.999712
0.999363 0.127001 0.999525
1.000000 0.086305 1.000000
0.000180 0.524426 0.999852
0.000000 0.514433 1.000000
0.000198 0.501092 1.000000
0.001387 0.483731 1.000000
0.834498 0.422036 1.000000
1.000000 0.261313 0.999024
0.999888 0.199990 0.999229
1.000000 0.146651 0.999129
0.999976 0.094986 1.000000
0.000857 0.648745 1.000000
0.000000 0.631105 1.000000
0.000000 0.612768 0.999696
0.000000 0.596104 1.000000
0.606214 0.571829 0.999449
1.000000 0.396323 0.998524
0.999753 0.362996 0.999759
1.000000 0.302985 0.999211
1.000000 0.230972 1.000000
0.000729 0.800083 1.000000
0.000357 0.778759 1.000000
0.000376 0.755424 1.000000
0.000396 0.732089 1.000000
0.124768 0.698631 1.000000
0.931089 0.642541 0.999684
0.999778 0.565998 0.999496
1.000000 0.524675 0.978320
1.000000 0.473098 0.928344
0.000604 0.951757 0.999910
0.000422 0.935093 1.000000
0.000441 0.911759 1.000000
0.000461 0.888424 1.000000
0.000098 0.855433 1.000000
0.718231 0.817654 0.998946
0.999621 0.753010 0.996390
1.000000 0.724788 0.917356
0.999106 0.693223 0.868716
0.000000 0.973779 1.000000
0.000000 0.973779 1.000000
0.000000 0.973779 1.000000
0.000000 0.973779 1.000000
0.000977 0.973081 1.000000
0.267630 0.995433 0.999820
0.943359 0.943359 0.943359
0.999525 0.892199 0.879590
0.999946 0.864933 0.830418
0.000000 0.973779 1.000000
0.000000 0.973779 1.000000
0.000000 0.973779 1.000000
0.000000 0.973779 1.000000
0.000000 0.973779 1.000000
0.000000 0.978776 0.999961
0.753289 0.999728 0.877500
0.993777 1.000000 0.792910
0.991834 0.999619 0.723554
0.000000 0.973779 1.000000
0.000000 0.973779 1.000000
0.000000 0.973779 1.000000
0.000000 0.973779 1.000000
0.000000 0.973779 1.000000
0.000192 0.977101 0.998984
0.564033 0.999937 0.901660
0.976764 0.999802 0.822105
0.991441 0.999950 0.731452
0.000316 0.361422 0.999325
0.001091 0.369069 1.000000
0.000086 0.403094 0.999512
0.345527 0.428342 1.000000
0.932835 0.425499 0.999055
0.999619 0.288331 0.999075
1.000000 0.274655 0.999914
0.999447 0.260001 0.999777
1.000000 0.232983 0.999726
0.000832 0.445743 1.000000
0.000000 0.444766 0.999699
0.000247 0.442756 1.000000
0.108753 0.444324 0.999047
0.858922 0.439488 1.000000
1.000000 0.297990 0.999743
1.000000 0.297990 0.999743
0.999628 0.276664 0.999160
0.999648 0.253330 0.999331
0.000571 0.522416 1.000000
0.000975 0.509075 0.999715
0.000000 0.498105 0.999801
0.000208 0.489424 1.000000
0.739041 0.480848 0.999621
1.000000 0.314653 0.999126
1.000000 0.297990 0.999743
1.000000 0.289308 1.000000
1.000000 0.260977 1.000000
0.000666 0.643750 1.000000
0.000877 0.625410 1.000000
0.000111 0.605761 1.000000
0.000322 0.587422 1.000000
0.547956 0.569803 0.999930
1.000000 0.505653 1.000000
0.999331 0.400007 0.998746
0.999349 0.376673 0.998918
0.999388 0.330004 0.999262
0.000000 0.794110 1.000000
0.000558 0.772088 1.000000
0.000970 0.746743 1.000000
0.000991 0.723410 1.000000
0.065732 0.688958 1.000000
0.846816 0.653765 1.000000
0.999786 0.554332 0.999582
1.000000 0.524326 0.999309
0.999645 0.491335 0.998813
0.000412 0.946761 1.000000
0.000623 0.928423 1.000000
0.000642 0.905088 1.000000
0.000078 0.878768 1.000000
0.000499 0.841755 1.000000
0.656859 0.795698 0.998844
0.999630 0.740671 0.999938
0.999085 0.691015 1.000000
0.999890 0.663997 1.000000
0.000000 0.973779 1.000000
0.000000 0.973779 1.000000
0.000000 0.973779 1.000000
0.000000 0.973779 1.000000
0.000977 0.973081 1.000000
0.207437 0.967783 1.000000
0.877296 0.909418 1.000000
0.999141 0.859017 1.000000
0.999159 0.836018 0.998496
0.000000 0.973779 1.000000
0.000000 0.973779 1.000000
0.000000 0.973779 1.000000
0.000000 0.973779 1.000000
0.000000 0.973779 1.000000
0.000977 0.973081 1.000000
0.644372 0.999981 0.999113
1.000000 1.000000 1.000000
0.995117 0.999822 0.970890
0.000000 0.973779 1.000000
0.000000 0.973779 1.000000
0.000000 0.973779 1.000000
0.000000 0.973779 1.000000
0.000000 0.973779 1.000000
0.000977 0.973081 1.000000
0.339965 1.000000 1.000000
0.904008 0.997489 0.999146
0.997464 0.999765 0.973598
0.000650 0.429414 0.999563
0.000640 0.441082 0.999477
0.000832 0.445743 1.000000
0.320872 0.452563 0.999917
0.955909 0.420314 0.999500
1.000000 0.297990 0.999743
1.000000 0.297990 0.999743
1.000000 0.297990 0.999743
1.000000 0.297990 0.999743
0.000047 0.449763 0.999168
0.000640 0.441082 0.999477
0.000247 0.442756 1.000000
0.160953 0.445817 1.000000
0.875543 0.436116 1.000000
1.000000 0.297990 0.999743
1.000000 0.297990 0.999743
1.000000 0.297990 0.999743
1.000000 0.297990 0.999743
0.000000 0.519429 1.000000
0.000783 0.504078 1.000000
0.000000 0.493108 1.000000
0.000017 0.484429 1.000000
0.756054 0.475466 0.999845
0.999993 0.309656 0.999657
1.000000 0.297990 0.999743
1.000000 0.297990 0.999743
1.000000 0.297990 0.999743
0.000474 0.639089 0.999746
0.000000 0.619438 1.000000
0.000312 0.599089 1.000000
0.000523 0.580752 1.000000
0.563599 0.565118 1.000000
0.999837 0.495996 1.000000
0.999531 0.393001 1.000000
0.999551 0.370002 0.998473
1.000000 0.347645 0.999621
0.001133 0.786742 1.000000
0.001152 0.763408 1.000000
0.000000 0.740771 1.000000
0.000607 0.713752 1.000000
0.089592 0.680088 1.000000
0.854446 0.646593 0.999942
1.000000 0.543641 1.000000
0.999625 0.514670 0.998640
0.999845 0.484665 0.998368
0.000220 0.941763 1.000000
0.000000 0.920439 1.000000
0.000000 0.897105 1.000000
0.000671 0.870087 1.000000
0.001093 0.833412 0.999794
0.665860 0.787494 1.000000
0.999640 0.729003 1.000000
0.999095 0.679348 1.000000
0.999315 0.649343 0.999871
0.000000 0.973779 1.000000
0.000000 0.973779 1.000000
0.000000 0.973779 1.000000
0.000000 0.973779 1.000000
0.000785 0.968084 1.000000
0.237750 0.957436 0.999718
0.881606 0.900655 0.999695
0.999734 0.850336 1.000000
1.000000 0.818658 0.999113
0.000000 0.973779 1.000000
0.000000 0.973779 1.000000
0.000000 0.973779 1.000000
0.000000 0.973779 1.000000
0.000000 0.973779 1.000000
0.000977 0.973081 1.000000
0.651801 0.999481 0.999337
1.000000 1.000000 1.000000
0.996687 0.986741 0.999864
0.000000 0.973779 1.000000
0.000000 0.973779 1.000000
0.000000 0.973779 1.000000
0.000000 0.973779 1.000000
0.000000 0.973779 1.000000
0.000977 0.973081 1.000000
0.353456 0.999840 1.000000
0.908699 0.998720 0.997636
1.000000 1.000000 1.000000
