Sources/Resources/LUT/gfx-eterna-55-3d-lut-v100/33Grid/F-Log2/FLog2_to_Velvia_33grid_V.1.00.cube
#title:FLog2_to_Velvia
#model:GFX ETERNA 55
#FUJIFILM Corporation
#Gamma:F-Log2 to Velvia
#Gamut:F-Gamut to ITU-R BT.709
#Version:1.00
LUT_3D_SIZE 33
0.000000 0.000000 0.000000
0.000000 0.000000 0.000000
0.000000 0.000000 0.000000
0.000000 0.000000 0.000000
0.000977 0.000977 0.000977
0.009776 0.000115 0.000000
0.024243 0.001124 0.000000
0.054938 0.000435 0.000000
0.091693 0.000000 0.000000
0.148977 0.000321 0.001660
0.215059 0.000174 0.000425
0.300692 0.000000 0.000000
0.390040 0.000000 0.000269
0.484079 0.000000 0.000000
0.591607 0.000000 0.000251
0.715950 0.000000 0.008918
0.861402 0.000000 0.038488
0.968922 0.000000 0.098316
0.999990 0.000243 0.202863
1.000000 0.000000 0.350980
0.999559 0.000527 0.450954
1.000000 0.000000 0.435156
0.999950 0.004566 0.420558
0.999950 0.004566 0.420558
0.999950 0.004566 0.420558
0.999950 0.004566 0.420558
0.999950 0.004566 0.420558
0.999950 0.004566 0.420558
0.999950 0.004566 0.420558
0.999950 0.004566 0.420558
0.999950 0.004566 0.420558
0.999950 0.004566 0.420558
0.999950 0.004566 0.420558
0.000000 0.000000 0.000000
0.000000 0.000000 0.000000
0.000000 0.000000 0.000000
0.000000 0.000000 0.000000
0.000977 0.000977 0.000977
0.008406 0.000813 0.000000
0.021896 0.000509 0.000000
0.049853 0.001215 0.000051
0.086610 0.000722 0.000411
0.135487 0.000289 0.002946
0.205283 0.000395 0.000000
0.292285 0.000000 0.000000
0.390040 0.000000 0.000269
0.503629 0.000000 0.000000
0.620934 0.000000 0.000387
0.749966 0.000156 0.011007
0.905779 0.000591 0.054113
0.983580 0.000064 0.126895
0.999396 0.000000 0.251007
0.999760 0.000242 0.417629
0.999950 0.000000 0.446516
1.000000 0.000000 0.425527
0.999950 0.004566 0.420558
0.999950 0.004566 0.420558
0.999950 0.004566 0.420558
0.999950 0.004566 0.420558
0.999950 0.004566 0.420558
0.999950 0.004566 0.420558
0.999950 0.004566 0.420558
0.999950 0.004566 0.420558
0.999950 0.004566 0.420558
0.999950 0.004566 0.420558
0.999950 0.004566 0.420558
0.000000 0.000000 0.000000
0.000000 0.000000 0.000000
0.000000 0.000000 0.000000
0.000000 0.000000 0.000000
0.000000 0.000000 0.000000
0.006061 0.000197 0.000222
0.019158 0.001904 0.000000
0.046138 0.001297 0.000803
0.081526 0.001839 0.000000
0.129426 0.000428 0.000993
0.202938 0.000000 0.000000
0.300692 0.000000 0.000000
0.410566 0.000454 0.000184
0.525525 0.000209 0.000000
0.651236 0.000383 0.003232
0.784961 0.000354 0.020997
0.950549 0.000000 0.068761
0.998238 0.000020 0.157202
0.999780 0.000000 0.301860
1.000000 0.000166 0.449223
0.998974 0.000000 0.438617
0.999950 0.004566 0.420558
0.999950 0.004566 0.420558
0.999950 0.004566 0.420558
0.999950 0.004566 0.420558
0.999950 0.004566 0.420558
0.999950 0.004566 0.420558
0.999950 0.004566 0.420558
0.999950 0.004566 0.420558
0.999950 0.004566 0.420558
0.999950 0.004566 0.420558
0.999950 0.004566 0.420558
0.999950 0.004566 0.420558
0.000000 0.000000 0.000000
0.000000 0.000000 0.000000
0.000000 0.000000 0.000000
0.000000 0.000000 0.000000
0.000000 0.000000 0.000000
0.003715 0.000000 0.000000
0.016813 0.001288 0.000667
0.041447 0.000738 0.000000
0.077811 0.001920 0.000187
0.135487 0.000289 0.002946
0.215059 0.000174 0.000425
0.310466 0.000035 0.000000
0.425426 0.000000 0.000000
0.548792 0.000021 0.000000
0.678217 0.000000 0.005852
0.825039 0.000446 0.026769
0.961886 0.000278 0.088465
1.000000 0.000000 0.194965
0.999770 0.000001 0.358879
0.999559 0.000527 0.450954
0.999367 0.000235 0.427258
0.999950 0.004566 0.420558
0.999950 0.004566 0.420558
0.999950 0.004566 0.420558
0.999950 0.004566 0.420558
0.999950 0.004566 0.420558
0.999950 0.004566 0.420558
0.999950 0.004566 0.420558
0.999950 0.004566 0.420558
0.999950 0.004566 0.420558
0.999950 0.004566 0.420558
0.999950 0.004566 0.420558
0.999950 0.004566 0.420558
0.000977 0.000977 0.000977
0.000977 0.000977 0.000977
0.000977 0.000977 0.000977
0.000977 0.000977 0.000977
0.000977 0.000977 0.000977
0.003323 0.001592 0.000222
0.015443 0.001985 0.000667
0.041054 0.002413 0.000000
0.080157 0.002536 0.000000
0.135487 0.000961 0.000000
0.224835 0.000289 0.000000
0.326303 0.000346 0.000000
0.441262 0.000000 0.000320
0.565996 0.000000 0.000000
0.700113 0.000285 0.004035
0.861402 0.000000 0.038488
0.974591 0.000000 0.109899
1.000000 0.000000 0.233480
0.998783 0.000000 0.413191
0.999950 0.000197 0.443054
0.999367 0.000235 0.427258
0.999950 0.004566 0.420558
0.999950 0.004566 0.420558
0.999950 0.004566 0.420558
0.999950 0.004566 0.420558
0.999950 0.004566 0.420558
0.999950 0.004566 0.420558
0.999950 0.004566 0.420558
0.999950 0.004566 0.420558
0.999950 0.004566 0.420558
0.999950 0.004566 0.420558
0.999950 0.004566 0.420558
0.999950 0.004566 0.420558
0.000192 0.004661 0.001199
0.000192 0.004661 0.001199
0.000192 0.004661 0.001199
0.000192 0.004661 0.001199
0.000192 0.004661 0.001199
0.002930 0.003602 0.000000
0.012705 0.003380 0.000667
0.035578 0.005202 0.000000
0.079764 0.004209 0.000411
0.139784 0.003865 0.000000
0.229526 0.001183 0.000116
0.339794 0.000044 0.000000
0.463158 0.000274 0.000234
0.591607 0.000000 0.000251
0.732178 0.000000 0.000000
0.900505 0.000000 0.038093
0.992379 0.000000 0.123656
0.999981 0.000000 0.266806
0.999760 0.000000 0.419360
0.999950 0.000000 0.446516
0.999367 0.000235 0.427258
0.999950 0.004566 0.420558
0.999950 0.004566 0.420558
0.999950 0.004566 0.420558
0.999950 0.004566 0.420558
0.999950 0.004566 0.420558
0.999950 0.004566 0.420558
0.999950 0.004566 0.420558
0.999950 0.004566 0.420558
0.999950 0.004566 0.420558
0.999950 0.004566 0.420558
0.999950 0.004566 0.420558
0.999950 0.004566 0.420558
0.000000 0.011667 0.000000
0.000000 0.010690 0.000000
0.000000 0.010690 0.000000
0.000000 0.011667 0.000000
0.000000 0.011667 0.000000
0.000000 0.011667 0.000000
0.010742 0.012758 0.000360
0.034985 0.013883 0.000000
0.080147 0.013867 0.001079
0.141538 0.012825 0.000000
0.239683 0.010955 0.000254
0.354452 0.005713 0.000356
0.478018 0.000000 0.000000
0.614873 0.000000 0.000000
0.763850 0.000194 0.000095
0.927877 0.000000 0.027625
1.000000 0.000000 0.101160
1.000000 0.020223 0.210366
1.000000 0.013647 0.364207
1.000000 0.009233 0.412130
0.999751 0.014261 0.405430
0.999941 0.019930 0.401438
0.999751 0.014261 0.405430
1.000000 0.008561 0.415591
0.999950 0.004566 0.420558
0.999950 0.004566 0.420558
0.999950 0.004566 0.420558
0.999950 0.004566 0.420558
0.999950 0.004566 0.420558
0.999950 0.004566 0.420558
0.999950 0.004566 0.420558
0.999950 0.004566 0.420558
0.999950 0.004566 0.420558
0.000172 0.027996 0.001028
0.000172 0.027996 0.001028
0.000172 0.027996 0.001028
0.000172 0.027996 0.001028
0.000172 0.027996 0.001028
0.000757 0.030982 0.001250
0.003495 0.029923 0.000000
0.025974 0.033419 0.000000
0.066445 0.032845 0.000000
0.138588 0.032558 0.000000
0.240056 0.032616 0.000000
0.361861 0.028883 0.000000
0.498334 0.019153 0.000000
0.636367 0.013723 0.000000
0.774602 0.001622 0.000000
0.904027 0.002049 0.000000
1.000000 0.016811 0.047960
0.999760 0.053005 0.145946
0.999932 0.052433 0.294061
0.999337 0.045991 0.371625
0.999337 0.046664 0.368164
1.000000 0.048313 0.365680
1.000000 0.042308 0.371403
0.999932 0.035966 0.378855
0.999741 0.028953 0.389771
0.999155 0.025294 0.393007
0.999941 0.019930 0.401438
0.999751 0.012917 0.412352
0.999559 0.007584 0.414614
0.999950 0.004566 0.420558
0.999950 0.004566 0.420558
0.999950 0.004566 0.420558
0.999950 0.004566 0.420558
0.000000 0.060010 0.000547
0.000000 0.060010 0.000547
0.000142 0.062996 0.000769
0.000142 0.062996 0.000769
0.000142 0.062996 0.000769
0.000334 0.067993 0.000238
0.003072 0.066598 0.000238
0.015193 0.067328 0.000000
0.059964 0.069323 0.000000
0.134058 0.071325 0.000700
0.235920 0.069710 0.000000
0.371215 0.065337 0.000594
0.500449 0.061441 0.000000
0.628123 0.052909 0.000000
0.755012 0.048061 0.000000
0.879545 0.054601 0.000000
0.999780 0.058237 0.000000
0.999932 0.095450 0.072561
0.998926 0.102255 0.211496
0.999892 0.096078 0.309294
0.999700 0.089065 0.320207
1.000000 0.087391 0.319231
0.999902 0.080714 0.328414
1.000000 0.071691 0.340082
1.000000 0.063676 0.346558
1.000000 0.056663 0.357473
0.999922 0.049986 0.366656
0.999145 0.040323 0.375616
1.000000 0.032949 0.384801
0.999741 0.028281 0.393231
0.999941 0.020602 0.397977
0.999751 0.014261 0.405430
1.000000 0.008561 0.415591
0.000000 0.116672 0.000000
0.000486 0.119659 0.000000
0.000094 0.121332 0.000340
0.000094 0.121332 0.000340
0.000094 0.121332 0.000340
0.000094 0.121332 0.000340
0.000000 0.127027 0.000000
0.004000 0.126247 0.000000
0.038994 0.128127 0.000391
0.110352 0.131860 0.000000
0.221596 0.131697 0.000000
0.359046 0.123280 0.000000
0.488279 0.119046 0.000000
0.613407 0.116906 0.000000
0.730319 0.118614 0.000829
0.853875 0.124177 0.000000
0.997567 0.132622 0.000000
0.999117 0.145563 0.013691
1.000000 0.163019 0.125384
0.999451 0.169530 0.240621
1.000000 0.145487 0.260051
1.000000 0.137472 0.266527
0.999874 0.125462 0.277973
1.000000 0.115101 0.286933
0.999299 0.107448 0.295140
0.999892 0.095742 0.311023
0.999700 0.089065 0.320207
0.999902 0.080042 0.331875
1.000000 0.069681 0.340836
0.999720 0.059681 0.351527
1.000000 0.053981 0.361688
0.999731 0.043982 0.372380
0.999932 0.035966 0.378855
0.000000 0.211683 0.000000
0.000000 0.216344 0.000629
0.000000 0.221341 0.000098
0.000000 0.221341 0.000098
0.000000 0.221341 0.000098
0.000000 0.221341 0.000098
0.000000 0.228011 0.000543
0.000006 0.226338 0.000000
0.002935 0.229939 0.000000
0.069803 0.225771 0.000000
0.184379 0.215534 0.000000
0.326318 0.214681 0.000402
0.466113 0.206879 0.000000
0.586741 0.208505 0.000211
0.706390 0.209153 0.000003
0.826817 0.217785 0.000000
0.966209 0.223326 0.000000
0.998657 0.231931 0.000000
0.999614 0.246161 0.051212
0.998608 0.254644 0.181493
0.999020 0.228964 0.184148
0.999815 0.210252 0.201317
0.999432 0.198242 0.212761
0.999442 0.184558 0.223230
0.999451 0.169530 0.240621
0.999854 0.153501 0.253575
0.999864 0.139818 0.264043
0.999874 0.125462 0.277973
0.999491 0.112780 0.292880
0.999692 0.104092 0.302816
1.000000 0.093395 0.313507
1.000000 0.084372 0.325175
1.000000 0.072363 0.336621
0.000000 0.353365 0.000000
0.000483 0.357327 0.000574
0.000000 0.363022 0.000044
0.000473 0.368995 0.000489
0.000080 0.371004 0.000000
0.000080 0.371004 0.000000
0.000090 0.359338 0.000000
0.000000 0.353365 0.000000
0.000000 0.349344 0.000883
0.015745 0.342986 0.000129
0.123474 0.336570 0.000000
0.276761 0.328128 0.000247
0.428092 0.317733 0.000000
0.557327 0.313501 0.000000
0.676977 0.314150 0.000000
0.796628 0.314799 0.000000
0.931721 0.317434 0.000000
0.999948 0.324236 0.000000
0.999746 0.330907 0.000000
1.000000 0.343398 0.106035
0.999736 0.317705 0.127949
1.000000 0.293032 0.125414
0.999181 0.277700 0.138368
0.998608 0.259685 0.155535
0.999595 0.246978 0.166981
0.999020 0.228964 0.184148
0.999422 0.212598 0.198833
0.999432 0.198242 0.212761
1.000000 0.179194 0.231660
0.999844 0.167185 0.243106
1.000000 0.148809 0.258544
1.000000 0.131803 0.270521
1.000000 0.117111 0.286180
0.000000 0.510675 0.000434
0.000000 0.519356 0.000126
0.000145 0.527339 0.000000
0.000728 0.530325 0.000039
0.000000 0.522343 0.000347
0.000000 0.510675 0.000434
0.000365 0.497334 0.000000
0.000000 0.491361 0.000000
0.000000 0.482344 0.001136
0.000000 0.475674 0.000691
0.044771 0.466336 0.000000
0.212141 0.449246 0.000090
0.374617 0.437935 0.000551
0.518912 0.426365 0.000000
0.643063 0.422913 0.000000
0.761545 0.417252 0.000237
0.895471 0.414250 0.000000
0.998893 0.416262 0.000000
0.998500 0.418271 0.000000
0.998490 0.424561 0.026450
0.999477 0.403788 0.079426
0.998913 0.376795 0.082836
0.999718 0.351457 0.074133
0.999728 0.339790 0.074218
0.998759 0.323449 0.092363
1.000000 0.307724 0.109755
0.999173 0.292055 0.124437
0.999181 0.277700 0.138368
0.998608 0.259349 0.157266
1.000000 0.241950 0.173681
0.999412 0.226618 0.186632
0.998838 0.208603 0.203801
1.000000 0.193550 0.217731
0.000000 0.659026 0.000825
0.000000 0.669019 0.000000
0.000812 0.663325 0.000292
0.000038 0.655343 0.000602
0.000439 0.642001 0.000000
0.000000 0.631031 0.000000
0.000000 0.619364 0.000000
0.000000 0.610683 0.000192
0.000000 0.602701 0.000500
0.000000 0.594019 0.000809
0.000096 0.585339 0.001118
0.107444 0.569266 0.000000
0.301400 0.553580 0.000000
0.468770 0.536490 0.000000
0.603873 0.527794 0.000000
0.726464 0.520042 0.000000
0.856483 0.512125 0.000000
0.999600 0.505579 0.000421
0.999994 0.503905 0.000000
0.999017 0.502928 0.000000
0.999610 0.489206 0.024735
1.000000 0.460838 0.041235
0.998480 0.433876 0.038476
1.000000 0.414169 0.041579
0.999487 0.398842 0.044903
0.999496 0.385832 0.051910
0.999900 0.370138 0.063133
0.999718 0.351457 0.074133
0.999143 0.336132 0.077457
1.000000 0.322416 0.094093
0.999163 0.306412 0.110507
0.999173 0.292055 0.124437
0.999181 0.277700 0.138368
0.000000 0.795013 0.001301
0.000513 0.786668 0.000000
0.000132 0.776675 0.000942
0.000000 0.768692 0.001251
0.000000 0.757025 0.001336
0.000000 0.747368 0.000669
0.000000 0.737013 0.000000
0.000000 0.722359 0.000000
0.000000 0.715353 0.001149
0.000583 0.704998 0.000482
0.000000 0.697015 0.000789
0.000000 0.687357 0.000121
0.188890 0.664106 0.000000
0.392039 0.645548 0.000000
0.551002 0.627647 0.000219
0.686307 0.611943 0.000321
0.813396 0.600425 0.000421
0.958669 0.589834 0.000000
0.999924 0.585575 0.000000
0.999340 0.582589 0.000000
0.999350 0.570586 0.000437
0.999571 0.540916 0.000000
0.998614 0.516270 0.000000
0.998442 0.486930 0.005255
0.999429 0.475568 0.009778
0.999830 0.460210 0.019270
0.999256 0.444884 0.022593
0.999659 0.429863 0.030357
0.999669 0.416515 0.039095
1.000000 0.401493 0.046856
1.000000 0.389154 0.050402
0.999114 0.374158 0.061625
0.998540 0.358496 0.066681
0.000000 0.895357 0.000000
0.000000 0.890361 0.000000
0.000043 0.881680 0.000168
0.000000 0.873696 0.000475
0.000000 0.867026 0.000032
0.000063 0.858345 0.000339
0.000072 0.846678 0.000426
0.000000 0.837021 0.000000
0.000677 0.826331 0.000820
0.000293 0.816673 0.000152
0.000000 0.807016 0.000000
0.000505 0.798335 0.000000
0.017528 0.781286 0.000101
0.276801 0.745802 0.000000
0.478006 0.713287 0.000000
0.630326 0.692203 0.000000
0.764652 0.675187 0.000301
0.907386 0.659319 0.000000
0.998306 0.651279 0.000000
0.999472 0.657253 0.000000
1.000000 0.653232 0.000812
0.999109 0.624261 0.000000
0.999331 0.594256 0.000000
0.999360 0.558918 0.000523
0.998785 0.544601 0.000000
0.999189 0.530924 0.000000
0.999199 0.519256 0.000000
0.999207 0.507589 0.000000
0.999610 0.492903 0.005698
1.000000 0.477882 0.013460
0.999045 0.464230 0.017761
1.000000 0.452867 0.022286
1.000000 0.437845 0.030047
0.000000 0.997039 0.000063
0.000000 0.988359 0.000372
0.000000 0.981688 0.000000
0.000357 0.973008 0.000234
0.000000 0.965024 0.000543
0.000000 0.955367 0.000000
0.000000 0.945710 0.000000
0.000000 0.934043 0.000000
0.000000 0.923352 0.000355
0.000000 0.913695 0.000000
0.000000 0.902028 0.000000
0.000000 0.895021 0.001060
0.000000 0.883690 0.000000
0.068299 0.853816 0.000000
0.357493 0.809324 0.000593
0.550291 0.776334 0.000000
0.696550 0.755051 0.000000
0.843390 0.736756 0.000000
0.990817 0.721448 0.000000
0.998639 0.719273 0.000000
0.999213 0.733926 0.000000
0.999232 0.710592 0.000000
0.999654 0.673581 0.000417
0.998516 0.632606 0.000230
0.998728 0.614268 0.000000
1.000000 0.601903 0.000000
1.000000 0.590236 0.000043
0.998173 0.576279 0.000000
0.999551 0.563915 0.000000
0.999953 0.550574 0.000000
0.999963 0.538906 0.000000
0.999388 0.524252 0.000000
0.999398 0.512585 0.000000
0.000000 1.000000 0.000285
0.000000 1.000000 0.000285
0.000000 1.000000 0.000285
0.000000 1.000000 0.000285
0.000000 1.000000 0.000285
0.000000 1.000000 0.000285
0.000000 1.000000 0.000285
0.000000 1.000000 0.000285
0.000000 1.000000 0.000285
0.000000 1.000000 0.000285
0.000000 1.000000 0.000285
0.000000 0.992043 0.000593
0.000000 0.980375 0.000679
0.000000 0.970021 0.000012
0.125715 0.929195 0.000000
0.423123 0.880855 0.000000
0.612208 0.847946 0.000000
0.763941 0.823874 0.000000
0.926036 0.802904 0.000000
0.999165 0.792262 0.000000
0.999548 0.801919 0.000000
0.999365 0.785256 0.000090
0.999193 0.757261 0.000000
0.999817 0.713578 0.000000
0.999061 0.682261 0.000110
0.999464 0.668919 0.000000
0.999472 0.657253 0.000000
0.998506 0.644273 0.000145
0.999492 0.633918 0.000000
0.998526 0.621274 0.000000
0.998927 0.607597 0.000000
0.998938 0.595930 0.000000
0.998948 0.584263 0.000000
0.000000 1.000000 0.000285
0.000000 1.000000 0.000285
0.000000 1.000000 0.000285
0.000000 1.000000 0.000285
0.000000 1.000000 0.000285
0.000000 1.000000 0.000285
0.000000 1.000000 0.000285
0.000000 1.000000 0.000285
0.000000 1.000000 0.000285
0.000000 1.000000 0.000285
0.000000 1.000000 0.000285
0.000000 1.000000 0.000285
0.000000 1.000000 0.000285
0.000000 1.000000 0.000285
0.000000 1.000000 0.000285
0.190370 0.999412 0.000000
0.487778 0.951072 0.000000
0.672755 0.920255 0.000000
0.842669 0.896774 0.000000
0.997335 0.876304 0.000000
0.998512 0.870610 0.000000
0.998521 0.858943 0.000000
0.998743 0.828937 0.000000
0.998771 0.793936 0.000000
0.999002 0.752264 0.000000
1.000000 0.739899 0.000000
0.998438 0.725943 0.000000
0.999817 0.713578 0.000000
0.998851 0.700599 0.000468
0.998860 0.689267 0.000000
0.998869 0.677601 0.000000
0.999273 0.663923 0.000000
0.999283 0.652256 0.000000
0.000000 1.000000 0.000285
0.000000 1.000000 0.000285
0.000000 1.000000 0.000285
0.000000 1.000000 0.000285
0.000000 1.000000 0.000285
0.000000 1.000000 0.000285
0.000000 1.000000 0.000285
0.000000 1.000000 0.000285
0.000000 1.000000 0.000285
0.000000 1.000000 0.000285
0.000000 1.000000 0.000285
0.000000 1.000000 0.000285
0.000000 1.000000 0.000285
0.000000 1.000000 0.000285
0.000000 1.000000 0.000285
0.000000 1.000000 0.000285
0.245307 0.999846 0.000000
0.538569 0.999931 0.000484
0.725891 0.969731 0.000000
0.904998 0.943378 0.000000
0.999249 0.925262 0.000000
0.999057 0.920265 0.000000
0.999076 0.896931 0.000000
0.999297 0.866926 0.000000
0.999135 0.826929 0.000277
1.000000 0.804906 0.000000
0.998771 0.793936 0.000000
0.998782 0.782270 0.000000
0.999768 0.771914 0.000000
0.999193 0.757261 0.000000
0.999203 0.745594 0.000000
0.999606 0.731917 0.000000
1.000000 0.718575 0.000000
0.000000 1.000000 0.000285
0.000000 1.000000 0.000285
0.000000 1.000000 0.000285
0.000000 1.000000 0.000285
0.000000 1.000000 0.000285
0.000000 1.000000 0.000285
0.000000 1.000000 0.000285
0.000000 1.000000 0.000285
0.000000 1.000000 0.000285
0.000000 1.000000 0.000285
0.000000 1.000000 0.000285
0.000000 1.000000 0.000285
0.000000 1.000000 0.000285
0.000000 1.000000 0.000285
0.000000 1.000000 0.000285
0.000000 1.000000 0.000285
0.000000 1.000000 0.000285
0.294185 0.999749 0.000000
0.579040 0.999357 0.000090
0.769665 0.993747 0.000157
0.944272 0.971496 0.000000
0.999612 0.958254 0.000000
0.998837 0.950270 0.000000
0.999832 0.928249 0.000000
0.998684 0.898941 0.000000
0.999297 0.866926 0.000000
0.999307 0.855258 0.000000
0.999316 0.843592 0.000000
0.998935 0.833598 0.000723
0.998943 0.822268 0.000000
0.999930 0.811577 0.000141
0.999940 0.799910 0.000226
0.999950 0.788243 0.000312
0.000000 1.000000 0.000285
0.000000 1.000000 0.000285
0.000000 1.000000 0.000285
0.000000 1.000000 0.000285
0.000000 1.000000 0.000285
0.000000 1.000000 0.000285
0.000000 1.000000 0.000285
0.000000 1.000000 0.000285
0.000000 1.000000 0.000285
0.000000 1.000000 0.000285
0.000000 1.000000 0.000285
0.000000 1.000000 0.000285
0.000000 1.000000 0.000285
0.000000 1.000000 0.000285
0.000000 1.000000 0.000285
0.000000 1.000000 0.000285
0.000000 1.000000 0.000285
0.000000 1.000000 0.000285
0.339347 1.000000 0.000000
0.612080 0.999283 0.000000
0.805242 0.998948 0.000000
0.978279 0.984066 0.000000
0.999592 0.979908 0.008035
0.999209 0.971260 0.002176
0.999027 0.955268 0.000000
0.998855 0.926936 0.000035
0.999650 0.911585 0.000000
1.000000 0.902905 0.000208
0.998886 0.891935 0.000294
0.998502 0.882277 0.000000
0.999489 0.871587 0.000688
0.999107 0.861930 0.000019
0.998140 0.849286 0.000000
0.000000 1.000000 0.000285
0.000000 1.000000 0.000285
0.000000 1.000000 0.000285
0.000000 1.000000 0.000285
0.000000 1.000000 0.000285
0.000000 1.000000 0.000285
0.000000 1.000000 0.000285
0.000000 1.000000 0.000285
0.000000 1.000000 0.000285
0.000000 1.000000 0.000285
0.000000 1.000000 0.000285
0.000000 1.000000 0.000285
0.000000 1.000000 0.000285
0.000000 1.000000 0.000285
0.000000 1.000000 0.000285
0.000000 1.000000 0.000285
0.000000 1.000000 0.000285
0.000000 1.000000 0.000285
0.024188 0.999140 0.000199
0.428693 0.999398 0.000161
0.651183 0.999406 0.000000
0.839653 0.998177 0.000000
0.999392 0.988258 0.000000
0.999191 0.992577 0.012387
0.998999 0.987916 0.011188
0.999400 0.975919 0.003375
0.999219 0.959928 0.000532
0.999814 0.951247 0.000841
0.999431 0.941590 0.000172
0.999630 0.934920 0.000000
0.998855 0.926936 0.000035
0.998866 0.915270 0.000121
0.999460 0.906589 0.000430
0.000000 1.000000 0.000285
0.000000 1.000000 0.000285
0.000000 1.000000 0.000285
0.000000 1.000000 0.000285
0.000000 1.000000 0.000285
0.000000 1.000000 0.000285
0.000000 1.000000 0.000285
0.000000 1.000000 0.000285
0.000000 1.000000 0.000285
0.000000 1.000000 0.000285
0.000000 1.000000 0.000285
0.000000 1.000000 0.000285
0.000000 1.000000 0.000285
0.000000 1.000000 0.000285
0.000000 1.000000 0.000285
0.000000 1.000000 0.000285
0.000000 1.000000 0.000285
0.000000 1.000000 0.000285
0.000000 1.000000 0.000285
0.196430 0.999609 0.000043
0.503183 0.999726 0.000125
0.696344 0.999727 0.000000
0.880707 1.000000 0.000926
0.998605 0.991271 0.003512
0.998406 0.996261 0.012609
0.999965 0.999552 0.017269
0.999191 0.992241 0.014118
0.999392 0.986242 0.010211
0.999201 0.981918 0.007282
0.999794 0.974246 0.002399
0.998626 0.968609 0.000223
0.998827 0.961938 0.000000
0.999027 0.955268 0.000000
0.000000 1.000000 0.000285
0.000000 1.000000 0.000285
0.000000 1.000000 0.000285
0.000000 1.000000 0.000285
0.000000 1.000000 0.000285
0.000000 1.000000 0.000285
0.000000 1.000000 0.000285
0.000000 1.000000 0.000285
0.000000 1.000000 0.000285
0.000000 1.000000 0.000285
0.000000 1.000000 0.000285
0.000000 1.000000 0.000285
0.000000 1.000000 0.000285
0.000000 1.000000 0.000285
0.000000 1.000000 0.000285
0.000000 1.000000 0.000285
0.000000 1.000000 0.000285
0.000000 1.000000 0.000285
0.000000 1.000000 0.000285
0.000000 1.000000 0.000285
0.333285 0.999872 0.000000
0.564179 1.000000 0.000000
0.741506 0.999712 0.000465
0.917463 1.000000 0.000000
0.998989 0.999248 0.012832
0.998989 0.999248 0.012832
0.999965 0.999552 0.017269
0.998596 0.999913 0.019000
0.998596 0.999913 0.019000
0.998596 0.999913 0.019000
0.999965 0.999552 0.017269
0.999774 0.994892 0.016071
0.999582 0.990567 0.013141
0.000000 1.000000 0.000285
0.000000 1.000000 0.000285
0.000000 1.000000 0.000285
0.000000 1.000000 0.000285
0.000000 1.000000 0.000285
0.000000 1.000000 0.000285
0.000000 1.000000 0.000285
0.000000 1.000000 0.000285
0.000000 1.000000 0.000285
0.000000 1.000000 0.000285
0.000000 1.000000 0.000285
0.000000 1.000000 0.000285
0.000000 1.000000 0.000285
0.000000 1.000000 0.000285
0.000000 1.000000 0.000285
0.000000 1.000000 0.000285
0.000000 1.000000 0.000285
0.000000 1.000000 0.000285
0.000000 1.000000 0.000285
0.000000 1.000000 0.000285
0.176879 0.999715 0.000000
0.454305 0.999823 0.000000
0.631632 0.999177 0.000141
0.790382 0.999949 0.000000
0.946790 0.999097 0.004883
0.998596 0.999577 0.020730
0.999965 0.999888 0.015538
0.999965 0.999552 0.017269
0.999965 0.999552 0.017269
0.999965 0.999552 0.017269
0.998596 0.999913 0.019000
0.998596 0.999913 0.019000
0.998596 0.999577 0.020730
0.000000 1.000000 0.000285
0.000000 1.000000 0.000285
0.000000 1.000000 0.000285
0.000000 1.000000 0.000285
0.000000 1.000000 0.000285
0.000000 1.000000 0.000285
0.000000 1.000000 0.000285
0.000000 1.000000 0.000285
0.000000 1.000000 0.000285
0.000000 1.000000 0.000285
0.000000 1.000000 0.000285
0.000000 1.000000 0.000285
0.000000 1.000000 0.000285
0.000000 1.000000 0.000285
0.000000 1.000000 0.000285
0.000000 1.000000 0.000285
0.000000 1.000000 0.000285
0.000000 1.000000 0.000285
0.000000 1.000000 0.000285
0.000000 1.000000 0.000285
0.025165 1.000000 0.001176
0.362612 0.999881 0.000000
0.565549 0.999660 0.000000
0.725671 0.999736 0.000000
0.889506 0.999392 0.000000
