Sources/Resources/LUT/gfx-eterna-55-3d-lut-v100/33Grid/F-Log2/FLog2_to_PROVIA_33grid_V.1.00.cube
#title:FLog2_to_PROVIA
#model:GFX ETERNA 55
#FUJIFILM Corporation
#Gamma:F-Log2 to PROVIA
#Gamut:F-Gamut to ITU-R BT.709
#Version:1.00
LUT_3D_SIZE 5
0.000000 0.000000 0.000000
0.144477 0.002406 0.011289
0.785142 0.000214 0.106901
1.000000 0.000000 0.376406
1.000000 0.000000 0.376406
0.002449 0.110281 0.000000
0.109777 0.117207 0.000000
0.920944 0.095864 0.089149
0.999347 0.041718 0.333641
1.000000 0.000299 0.372945
0.000000 0.946686 0.000183
0.000436 0.879670 0.000922
0.703768 0.772890 0.000000
0.999712 0.587782 0.082265
0.999419 0.466398 0.116982
0.000000 1.000000 0.000285
0.000000 1.000000 0.000285
0.000000 1.000000 0.000285
0.980213 1.000000 0.048196
0.999400 0.972895 0.018949
0.000000 1.000000 0.000285
0.000000 1.000000 0.000285
0.000000 1.000000 0.000285
0.555774 0.999546 0.000176
0.982559 0.999551 0.054363
0.001158 0.003525 0.073038
0.176722 0.005586 0.073106
0.902629 0.000000 0.196816
1.000000 0.000000 0.376406
1.000000 0.000000 0.376406
0.000821 0.153709 0.174380
0.129883 0.129883 0.129883
0.958081 0.081168 0.213039
0.999751 0.025688 0.346595
1.000000 0.000000 0.376406
0.000000 0.926662 0.232871
0.000000 0.853678 0.008770
0.724525 0.732423 0.000000
0.998766 0.549451 0.093660
0.999840 0.427370 0.128374
0.000108 0.999366 0.199254
0.000520 0.999899 0.066933
0.000000 1.000000 0.000285
0.982952 0.999557 0.044735
0.998827 0.959921 0.010160
0.000000 1.000000 0.215050
0.000000 0.999581 0.081754
0.000000 1.000000 0.000285
0.579040 0.999357 0.000090
0.982559 0.999551 0.054363
0.013584 0.033314 0.452438
0.239595 0.030262 0.440750
1.000000 0.004388 0.737027
0.999049 0.103896 0.648173
1.000000 0.078031 0.547396
0.000000 0.317910 0.907817
0.058864 0.273282 0.888422
1.000000 0.145846 0.864102
0.999595 0.147502 0.679199
0.999279 0.081380 0.549349
0.000451 0.900092 1.000000
0.000000 0.858260 0.900625
0.724609 0.724609 0.724609
0.999251 0.569296 0.606972
0.999379 0.443500 0.474843
0.000000 0.999415 0.808496
0.000623 1.000000 0.631493
0.000000 0.999601 0.482398
0.985439 0.999652 0.371809
0.998807 0.926460 0.302437
0.000000 1.000000 0.828731
0.000000 0.999993 0.650751
0.000000 0.999942 0.471039
0.556299 0.999943 0.373664
0.979802 0.999747 0.180516
0.052260 0.201920 0.999070
0.241888 0.218331 0.999719
0.999840 0.257990 1.000000
1.000000 0.279651 0.999382
0.999275 0.232678 0.995289
0.000000 0.531097 1.000000
0.000783 0.504078 1.000000
0.932232 0.445511 1.000000
0.999983 0.321324 0.999570
0.999648 0.253330 0.999331
0.000000 0.834109 0.999794
0.000000 0.787440 1.000000
0.352128 0.716199 0.999586
0.999748 0.601000 0.999238
1.000000 0.520060 0.951696
0.002135 0.990721 1.000000
0.002135 0.990721 1.000000
0.001159 0.989745 0.999875
0.949219 0.949219 0.949219
0.999926 0.883227 0.856203
0.002135 0.990721 1.000000
0.002135 0.990721 1.000000
0.002135 0.990721 1.000000
0.297752 0.999918 0.897723
0.984596 0.999740 0.750489
0.002613 0.420036 0.999872
0.001033 0.439071 1.000000
1.000000 0.457310 1.000000
1.000000 0.392303 1.000000
1.000000 0.392303 1.000000
0.000180 0.524426 0.999852
0.001376 0.495397 1.000000
0.863573 0.487052 1.000000
1.000000 0.392303 1.000000
1.000000 0.392303 1.000000
0.000126 0.820431 1.000000
0.000000 0.769102 0.999777
0.339242 0.696155 0.999535
1.000000 0.585649 0.999102
0.999998 0.535994 0.999222
0.002135 0.990721 1.000000
0.002135 0.990721 1.000000
0.000192 0.977101 0.998984
0.911506 0.915317 0.999969
0.999543 0.845676 0.999164
0.002135 0.990721 1.000000
0.002135 0.990721 1.000000
0.002135 0.990721 1.000000
0.036928 0.999607 1.000000
1.000000 1.000000 1.000000
