Sources/Resources/LUT/gfx-eterna-55-3d-lut-v100/33Grid/F-Log2/FLog2_to_ETERNA_33grid_V.1.00.cube
#title:FLog2_to_ETERNA
#model:GFX ETERNA 55
#FUJIFILM Corporation
#Gamma:F-Log2 to ETERNA
#Gamut:F-Gamut to ITU-R BT.709
#Version:1.00
LUT_3D_SIZE 5
0.005859 0.005859 0.005859
0.162064 0.008655 0.027222
0.645146 0.017039 0.096196
0.933841 0.097183 0.125625
0.933841 0.097183 0.125625
0.006910 0.152848 0.000082
0.157055 0.159478 0.000456
0.766422 0.179667 0.088618
0.934959 0.163509 0.115258
0.935985 0.104469 0.125316
0.017661 0.855950 0.000785
0.016148 0.793651 0.000016
0.679364 0.730759 0.006383
0.927571 0.591765 0.062512
0.929218 0.489715 0.069675
0.226694 1.000000 0.241348
0.226694 1.000000 0.241348
0.423762 0.999416 0.269993
0.941092 0.999293 0.173012
0.936450 0.945105 0.147262
0.226694 1.000000 0.241348
0.226694 1.000000 0.241348
0.274202 0.999805 0.249074
0.740480 0.999603 0.294968
0.940699 0.999288 0.182640
0.011116 0.013247 0.108232
0.183941 0.016030 0.111757
0.749727 0.034338 0.109746
0.933841 0.097183 0.125625
0.933841 0.097183 0.125625
0.017795 0.191298 0.193292
0.172852 0.172852 0.172852
0.801225 0.175541 0.095676
0.936540 0.143466 0.120090
0.933841 0.097183 0.125625
0.044782 0.847429 0.367574
0.028833 0.779365 0.211628
0.693639 0.699550 0.146773
0.926815 0.559775 0.066452
0.930225 0.455018 0.074371
0.155507 0.995572 0.393714
0.207324 0.999171 0.333507
0.428252 0.999250 0.310461
0.937779 0.999814 0.101925
0.935100 0.924484 0.137051
0.153746 0.996263 0.403344
0.201263 0.998302 0.336746
0.280645 0.999912 0.300148
0.746541 0.999464 0.296921
0.940699 0.999288 0.182640
0.027819 0.089775 0.381367
0.223720 0.088718 0.378417
0.920826 0.142779 0.567457
0.952460 0.222334 0.400371
0.945652 0.202342 0.281312
0.049252 0.347108 0.713386
0.057888 0.309272 0.697093
0.906625 0.262195 0.717954
0.954967 0.253202 0.449012
0.946237 0.204319 0.286727
0.078732 0.840271 0.829367
0.068613 0.798617 0.753433
0.714844 0.714844 0.714844
0.950567 0.591195 0.519113
0.941502 0.479025 0.332364
0.090555 0.983836 0.727301
0.080598 0.988230 0.619430
0.343365 0.992415 0.568301
0.961379 0.989986 0.501816
0.950916 0.898391 0.392679
0.091138 0.984470 0.739636
0.085289 0.986436 0.633496
0.105243 0.992480 0.532907
0.749432 0.999659 0.553886
0.954744 1.000000 0.371671
0.058674 0.272653 0.866457
0.129417 0.301009 0.903257
0.981158 0.387413 0.999895
0.970234 0.378491 0.894594
0.969115 0.330986 0.808054
0.067228 0.549021 0.937212
0.065093 0.529396 0.941067
0.816430 0.519444 1.000000
0.973708 0.418977 0.959699
0.969679 0.349913 0.846176
0.078177 0.791193 0.886508
0.073908 0.751943 0.894219
0.351363 0.707976 0.941145
0.974893 0.642645 0.944223
0.968326 0.566960 0.837176
0.099725 0.979766 0.852699
0.099725 0.979766 0.852699
0.100904 0.973736 0.854962
0.941406 0.941406 0.941406
0.978230 0.877728 0.847191
0.099725 0.979766 0.852699
0.099725 0.979766 0.852699
0.099725 0.979766 0.852699
0.641078 0.988594 0.869363
0.982634 0.999372 0.800363
0.064559 0.466056 0.951656
0.065526 0.479709 0.947356
0.915926 0.540546 0.999258
0.978715 0.503469 0.999789
0.978715 0.503469 0.999789
0.066061 0.543048 0.936767
0.065295 0.522725 0.940622
0.755210 0.549152 0.999551
0.978715 0.503469 0.999789
0.978715 0.503469 0.999789
0.078187 0.779189 0.888325
0.072941 0.738626 0.896788
0.330654 0.690441 0.940117
0.979181 0.646463 0.998980
0.979603 0.609451 0.999993
0.099725 0.979766 0.852699
0.099725 0.979766 0.852699
0.097984 0.958130 0.857309
0.900171 0.912920 0.990649
0.987412 0.856612 1.000000
0.099725 0.979766 0.852699
0.099725 0.979766 0.852699
0.099725 0.979766 0.852699
0.527680 0.984063 0.915985
1.000000 1.000000 1.000000
