Sources/Resources/LUT/gfx-eterna-55-3d-lut-v100/33Grid/F-Log2/FLog2_to_REALA-ACE_33grid_V.1.00.cube
#title:FLog2_to_REALA-ACE
#model:GFX ETERNA 55
#FUJIFILM Corporation
#Gamma:F-Log2 to REALA ACE
#Gamut:F-Gamut to ITU-R BT.709
#Version:1.00
LUT_3D_SIZE 5
0.000000 0.000000 0.000000
0.091693 0.000000 0.000000
0.719071 0.000457 0.047657
0.903841 0.158865 0.332147
0.903841 0.158865 0.332147
0.000687 0.112652 0.000649
0.135962 0.131951 0.000493
0.826905 0.100347 0.064289
0.905986 0.173208 0.295500
0.903841 0.158865 0.332147
0.642948 0.915686 0.571691
0.552491 0.858193 0.479637
0.747541 0.787159 0.051133
0.980928 0.611572 0.060437
0.967908 0.504428 0.123730
0.663656 0.928851 0.595215
0.663656 0.928851 0.595215
0.683791 0.932068 0.594375
0.996777 0.988943 0.448618
0.997168 0.988613 0.440718
0.663656 0.928851 0.595215
0.663656 0.928851 0.595215
0.663656 0.928851 0.595215
0.851906 0.961324 0.576743
0.994430 0.988327 0.449371
0.000383 0.000000 0.052581
0.150337 0.000000 0.060411
0.812304 0.007869 0.150437
0.903841 0.158865 0.332147
0.903841 0.158865 0.332147
0.000629 0.150057 0.167989
0.150391 0.150391 0.150391
0.853272 0.110246 0.175450
0.905403 0.167533 0.309121
0.903841 0.158865 0.332147
0.617144 0.904886 0.600750
0.521231 0.837603 0.453492
0.754617 0.751410 0.002492
0.978018 0.580266 0.083636
0.963438 0.470504 0.138809
0.657978 0.930246 0.637192
0.661503 0.929872 0.612743
0.683399 0.932733 0.600544
0.997168 0.987605 0.445910
0.998165 0.980370 0.369187
0.658954 0.930886 0.639899
0.661503 0.929536 0.614473
0.661894 0.929878 0.603113
0.858943 0.962833 0.576211
0.994430 0.988327 0.449371
0.000506 0.007266 0.458111
0.192892 0.001300 0.446817
0.871611 0.290372 0.681835
0.903504 0.274770 0.609996
0.916669 0.213289 0.515114
0.085502 0.243570 0.748820
0.086517 0.202583 0.725914
0.862724 0.377418 0.779477
0.901905 0.311089 0.641333
0.917254 0.214931 0.522257
0.502980 0.836009 0.877917
0.479734 0.822273 0.829722
0.769531 0.769531 0.769531
0.996867 0.609974 0.635071
0.976267 0.492330 0.489629
0.650902 0.935749 0.841575
0.652282 0.936491 0.774172
0.656006 0.934823 0.721590
0.993625 0.989805 0.580938
0.998385 0.949021 0.375836
0.651878 0.935381 0.849473
0.651888 0.936820 0.782070
0.654053 0.933542 0.716176
0.839373 0.964430 0.687851
0.995790 0.989215 0.501200
0.178805 0.185443 0.769141
0.182299 0.213350 0.779043
0.867137 0.463869 0.853867
0.870842 0.474447 0.858219
0.865193 0.450585 0.850270
0.179728 0.470663 0.831465
0.173687 0.447468 0.829684
0.825017 0.557756 0.892089
0.876490 0.498307 0.866167
0.866552 0.460883 0.853645
0.397856 0.769726 0.861026
0.305034 0.717477 0.859540
0.318371 0.664164 0.867780
0.929500 0.688030 0.923815
0.918616 0.619669 0.884617
0.647963 0.928690 0.919891
0.647963 0.928690 0.919891
0.646986 0.927378 0.920644
0.972073 0.970005 0.970703
0.998730 0.907550 0.879727
0.647963 0.928690 0.919891
0.647963 0.928690 0.919891
0.647963 0.928690 0.919891
0.748043 0.956477 0.899808
0.993586 0.996145 0.788250
0.158111 0.371826 0.823141
0.161423 0.385085 0.823277
0.903191 0.592333 0.894505
0.889549 0.543995 0.879360
0.889549 0.543995 0.879360
0.178559 0.464689 0.831019
0.171935 0.438507 0.829015
0.770856 0.564296 0.897676
0.889549 0.543995 0.879360
0.889549 0.543995 0.879360
0.371670 0.754982 0.860001
0.286670 0.700559 0.857759
0.298447 0.643619 0.863071
0.924234 0.673154 0.919996
0.915274 0.636706 0.908449
0.647963 0.928690 0.919891
0.647963 0.928690 0.919891
0.640341 0.924195 0.920198
0.917749 0.932515 0.997843
0.979973 0.872813 0.979288
0.647963 0.928690 0.919891
0.647963 0.928690 0.919891
0.647963 0.928690 0.919891
0.678649 0.937653 0.930324
0.998047 0.998047 0.998047
