Sources/Resources/LUT/gfx-eterna-55-3d-lut-v100/33Grid/F-Log2/FLog2_to_CLASSIC-Neg._33grid_V.1.00.cube
#title:FLog2_to_CLASSIC-Neg.
#model:GFX ETERNA 55
#FUJIFILM Corporation
#Gamma:F-Log2 to CLASSIC Neg.
#Gamut:F-Gamut to ITU-R BT.709
#Version:1.00
LUT_3D_SIZE 9
0.000000 0.000000 0.000000
0.010752 0.001091 0.000445
0.097552 0.006811 0.000324
0.270178 0.017272 0.000000
0.757750 0.046666 0.000000
0.937210 0.055562 0.048405
0.937210 0.055898 0.046676
0.937210 0.055898 0.046676
0.937210 0.055898 0.046676
0.000000 0.006671 0.000445
0.002145 0.007286 0.000000
0.093446 0.008903 0.000324
0.314555 0.021276 0.000000
0.849635 0.051606 0.000000
0.937210 0.055898 0.046676
0.937210 0.055898 0.046676
0.937210 0.055898 0.046676
0.937210 0.055898 0.046676
0.002267 0.090256 0.017594
0.001482 0.093604 0.019547
0.082223 0.100135 0.014012
0.353578 0.114403 0.000000
0.853474 0.137519 0.000227
0.937556 0.111888 0.048732
0.936991 0.085904 0.046950
0.935449 0.058942 0.044192
0.937210 0.055898 0.046676
0.012987 0.349231 0.095132
0.012000 0.358913 0.099262
0.010468 0.321292 0.091398
0.272653 0.317786 0.064273
0.823377 0.349479 0.032844
0.944789 0.335321 0.095688
0.941536 0.259454 0.057997
0.941183 0.215131 0.055857
0.939258 0.178176 0.054160
0.034242 0.839426 0.307933
0.033286 0.818476 0.289825
0.029207 0.789263 0.271048
0.095318 0.757811 0.251034
0.752818 0.765835 0.181364
0.961240 0.743092 0.222961
0.956485 0.594265 0.179394
0.953029 0.523387 0.150801
0.950159 0.454823 0.125891
0.043891 0.942485 0.557203
0.044676 0.943170 0.534485
0.043507 0.942909 0.504620
0.042340 0.943993 0.467835
0.204425 0.941747 0.431204
0.920373 0.958476 0.351867
0.969893 0.891025 0.355141
0.966619 0.838491 0.317277
0.965289 0.798232 0.288203
0.048179 0.942940 0.629266
0.048179 0.942940 0.629266
0.048179 0.942940 0.629266
0.048179 0.942605 0.630995
0.048179 0.941932 0.634456
0.548669 0.970820 0.560778
0.957665 0.995109 0.476613
0.964530 0.974337 0.445637
0.967480 0.957629 0.429704
0.048179 0.942940 0.629266
0.048179 0.942940 0.629266
0.048179 0.942940 0.629266
0.048179 0.942940 0.629266
0.048179 0.942268 0.632727
0.236056 0.953417 0.613672
0.875545 0.990526 0.535707
0.957081 0.992795 0.472931
0.957081 0.992795 0.472931
0.048179 0.942940 0.629266
0.048179 0.942940 0.629266
0.048179 0.942940 0.629266
0.048179 0.942940 0.629266
0.048179 0.942605 0.630995
0.048179 0.941932 0.634456
0.698420 0.980468 0.555207
0.960202 0.993664 0.511667
0.957081 0.992795 0.472931
0.000000 0.000000 0.000000
0.014467 0.001009 0.000000
0.107328 0.006926 0.000000
0.290704 0.018479 0.000000
0.805842 0.050252 0.000554
0.937210 0.055562 0.048405
0.937210 0.055898 0.046676
0.937210 0.055898 0.046676
0.937210 0.055898 0.046676
0.000000 0.009651 0.010297
0.006443 0.008511 0.007813
0.098720 0.012784 0.000769
0.359325 0.023271 0.000000
0.878568 0.053288 0.000000
0.937210 0.055898 0.046676
0.937210 0.055898 0.046676
0.937210 0.055898 0.046676
0.937210 0.055898 0.046676
0.003617 0.104827 0.058954
0.003819 0.101182 0.042934
0.087891 0.100998 0.020403
0.368246 0.108740 0.000000
0.863449 0.130963 0.000000
0.937566 0.100221 0.048817
0.937001 0.074572 0.045306
0.937210 0.056234 0.044945
0.937210 0.055898 0.046676
0.016260 0.393363 0.176257
0.012966 0.363827 0.139953
0.011647 0.313919 0.100582
0.279509 0.303976 0.057437
0.830233 0.334997 0.029469
0.945393 0.315983 0.090891
0.940961 0.244800 0.057859
0.940215 0.202151 0.056695
0.939852 0.169496 0.054469
0.036961 0.840866 0.413320
0.034060 0.815368 0.346621
0.029802 0.779574 0.276547
0.107258 0.743558 0.241715
0.760850 0.746667 0.173327
0.959891 0.721800 0.216211
0.955527 0.571299 0.171669
0.952073 0.500420 0.143074
0.950179 0.433168 0.117411
0.047203 0.943309 0.621367
0.046820 0.943734 0.568785
0.043507 0.942909 0.504620
0.040387 0.944057 0.455500
0.240987 0.938948 0.418250
0.926050 0.950696 0.342769
0.970295 0.879700 0.343867
0.967022 0.826829 0.307734
0.963738 0.784618 0.276706
0.051301 0.941793 0.678387
0.048371 0.942560 0.656423
0.049156 0.942909 0.635433
0.048179 0.942605 0.630995
0.048179 0.941932 0.634456
0.575648 0.973238 0.546094
0.954735 0.994532 0.461570
0.966100 0.967978 0.440000
0.969441 0.949932 0.421360
0.051301 0.941793 0.678387
0.049348 0.943201 0.659129
0.049156 0.942237 0.638894
0.048179 0.942940 0.629266
0.048179 0.941932 0.634456
0.243487 0.953588 0.610433
0.876915 0.990164 0.533977
0.957081 0.992795 0.472931
0.957081 0.992795 0.472931
0.049931 0.941819 0.681848
0.049348 0.942865 0.660860
0.049156 0.942237 0.638894
0.048179 0.942940 0.629266
0.048179 0.942605 0.630995
0.048179 0.941932 0.634456
0.709172 0.981561 0.555653
0.960202 0.994000 0.509938
0.957081 0.992795 0.472931
0.005658 0.005473 0.042645
0.021886 0.006127 0.030977
0.120225 0.011270 0.020695
0.353264 0.022739 0.001470
0.845920 0.051688 0.000000
0.937210 0.055898 0.046676
0.937210 0.055898 0.046676
0.937210 0.055898 0.046676
0.937210 0.055898 0.046676
0.005246 0.025440 0.069407
0.012092 0.023633 0.060754
0.123336 0.025486 0.050696
0.437910 0.030151 0.015414
0.905741 0.054990 0.013968
0.937210 0.055898 0.046676
0.937210 0.055898 0.046676
0.937210 0.055898 0.046676
0.937210 0.055898 0.046676
0.007485 0.136583 0.159422
0.008472 0.129589 0.141449
0.107997 0.121739 0.109290
0.423355 0.125744 0.058211
0.879276 0.136893 0.030004
0.937765 0.093550 0.048371
0.937594 0.066228 0.043883
0.937210 0.056234 0.044945
0.937210 0.055898 0.046676
0.025343 0.478502 0.382214
0.021305 0.415392 0.298025
0.017849 0.352579 0.227899
0.315056 0.325696 0.152183
0.845274 0.339906 0.084671
0.945403 0.301291 0.106551
0.941364 0.231122 0.058699
0.940224 0.190820 0.055051
0.939469 0.160173 0.052070
0.046104 0.848607 0.657863
0.042034 0.822851 0.561301
0.037000 0.785794 0.456926
0.125420 0.744966 0.358153
0.773947 0.737956 0.226664
0.960102 0.701445 0.226234
0.954177 0.550678 0.161457
0.950723 0.479463 0.134594
0.948829 0.411876 0.110660
0.052850 0.941964 0.759102
0.052469 0.942389 0.706520
0.049156 0.942237 0.638894
0.044283 0.939466 0.563149
0.278912 0.934347 0.470968
0.930552 0.943569 0.359098
0.968352 0.867424 0.335078
0.965471 0.812880 0.297969
0.962580 0.768658 0.267695
0.053436 0.942599 0.771438
0.051291 0.941698 0.738867
0.052469 0.941717 0.709981
0.049539 0.941812 0.691477
0.049348 0.941185 0.669511
0.602237 0.974305 0.547960
0.956496 0.994176 0.450211
0.967278 0.963291 0.435341
0.968666 0.942957 0.416477
0.053436 0.941927 0.774898
0.053637 0.941641 0.741574
0.052469 0.941045 0.713442
0.050907 0.942123 0.686285
0.050324 0.941488 0.673950
0.253846 0.953665 0.625700
0.882583 0.992035 0.535176
0.957081 0.992795 0.472931
0.957081 0.992795 0.472931
0.054412 0.942231 0.779335
0.053244 0.942643 0.746012
0.051099 0.941070 0.716902
0.049539 0.941812 0.691477
0.051301 0.942130 0.676656
0.054824 0.941420 0.653937
0.716602 0.981396 0.554145
0.959225 0.993359 0.507230
0.957081 0.992795 0.472931
0.023026 0.028282 0.128070
0.034563 0.028713 0.112719
0.146592 0.027891 0.097245
0.465253 0.049092 0.086019
0.893398 0.065108 0.114164
0.942610 0.120233 0.180966
0.939718 0.081388 0.123004
0.937402 0.056190 0.070370
0.937210 0.055898 0.046676
0.024748 0.062497 0.178664
0.026510 0.059790 0.179419
0.160627 0.062456 0.173712
0.578029 0.075460 0.151313
0.931888 0.079435 0.205004
0.944352 0.135818 0.207504
0.940685 0.091344 0.137739
0.937402 0.055854 0.072101
0.937210 0.055898 0.046676
0.019316 0.203283 0.393153
0.019326 0.194304 0.379394
0.142127 0.178631 0.326468
0.528270 0.177765 0.243317
0.907558 0.177939 0.232758
0.948018 0.186006 0.247852
0.942408 0.132281 0.153722
0.937594 0.060515 0.073300
0.937210 0.055898 0.046676
0.044345 0.594154 0.756265
0.038364 0.521792 0.647711
0.034927 0.444718 0.531035
0.390615 0.400948 0.397461
0.877844 0.391155 0.309305
0.954123 0.352430 0.317202
0.947950 0.275407 0.207449
0.942742 0.206995 0.119351
0.939670 0.153167 0.053356
0.057582 0.863927 0.925793
0.055658 0.839071 0.861801
0.049254 0.801705 0.762618
0.154878 0.764858 0.641039
0.804785 0.753549 0.468106
0.967885 0.706284 0.429333
0.960200 0.566625 0.320539
0.954418 0.484568 0.227113
0.948829 0.404818 0.147000
0.060645 0.941521 0.929406
0.058107 0.942295 0.897813
0.056355 0.942072 0.852152
0.055005 0.932542 0.784836
0.317984 0.929815 0.674511
0.939523 0.936423 0.535125
0.974595 0.858071 0.469661
0.968592 0.805011 0.381699
0.963759 0.756244 0.302836
0.059083 0.941591 0.907441
0.056940 0.942370 0.866218
0.055187 0.941140 0.825750
0.054019 0.941889 0.790696
0.054804 0.940222 0.780090
0.625874 0.975276 0.652285
0.962738 0.992890 0.543261
0.971184 0.956107 0.496351
0.971404 0.936185 0.444164
0.058692 0.942256 0.913610
0.057917 0.942338 0.872387
0.056164 0.941109 0.831919
0.054019 0.941553 0.792426
0.053436 0.941927 0.774898
0.277484 0.955646 0.724832
0.888240 0.990450 0.614161
0.960785 0.994634 0.522273
0.958249 0.994063 0.497601
0.059668 0.942560 0.918047
0.056547 0.942028 0.877579
0.055772 0.942110 0.836356
0.054995 0.941857 0.796862
0.052459 0.941958 0.768731
0.091953 0.943432 0.751786
0.724213 0.981427 0.636813
0.962930 0.994526 0.560035
0.959225 0.994703 0.500308
0.066941 0.081351 0.305004
0.056199 0.074642 0.273496
0.195984 0.080187 0.263797
0.622156 0.117585 0.289817
0.942359 0.141551 0.405941
0.953456 0.201656 0.392867
0.951130 0.186781 0.347071
0.948612 0.168925 0.291421
0.947654 0.154696 0.238703
0.081159 0.124850 0.420652
0.095222 0.130799 0.464497
0.237928 0.143884 0.493981
0.753840 0.181287 0.507319
0.959707 0.176940 0.546570
0.954221 0.213577 0.432274
0.952096 0.194719 0.372186
0.950363 0.174860 0.307664
0.946868 0.157035 0.245848
0.123509 0.372642 0.798333
0.139335 0.380251 0.820433
0.204883 0.330880 0.757110
0.688416 0.303211 0.642191
0.947106 0.273143 0.598242
0.958662 0.268052 0.491347
0.954805 0.223285 0.397886
0.948602 0.176559 0.312102
0.946868 0.157035 0.245848
0.057690 0.721473 0.999419
0.054215 0.671912 0.981035
0.055844 0.606640 0.918808
0.506163 0.554075 0.787906
0.918550 0.503327 0.678609
0.968263 0.455996 0.603481
0.962853 0.398624 0.493331
0.957455 0.326560 0.398843
0.951281 0.248192 0.296011
0.063229 0.874682 1.000000
0.060310 0.859749 1.000000
0.060330 0.836414 1.000000
0.178258 0.804529 0.940836
0.843215 0.793853 0.785121
0.979736 0.739567 0.715149
0.972414 0.635589 0.593008
0.966633 0.555211 0.490928
0.960660 0.470174 0.387653
0.066302 0.941616 0.999738
0.064934 0.941977 1.000000
0.062396 0.937038 0.999293
0.061430 0.926411 0.988020
0.346496 0.924484 0.901305
0.948482 0.930526 0.764710
0.983162 0.856874 0.684648
0.977352 0.808809 0.596156
0.972518 0.761721 0.508641
0.063564 0.943011 0.999738
0.062194 0.943372 1.000000
0.061420 0.942111 0.967169
0.059275 0.942555 0.927677
0.058107 0.941287 0.903005
0.637776 0.975765 0.807015
0.973078 0.987736 0.705445
0.980940 0.949647 0.649661
0.980183 0.929083 0.594766
0.064934 0.942313 0.999738
0.063564 0.943011 0.999738
0.061028 0.943112 0.971605
0.059275 0.941882 0.931137
0.059477 0.941597 0.897813
0.320866 0.956802 0.853520
0.889198 0.990228 0.741289
0.965850 0.993329 0.644211
0.965075 0.993411 0.602988
0.065911 0.943290 1.000000
0.063564 0.942675 1.000000
0.061028 0.942104 0.976797
0.060251 0.941851 0.937304
0.059477 0.941597 0.897813
0.100339 0.943718 0.873946
0.732207 0.982044 0.766871
0.968387 0.992554 0.675805
0.963706 0.993099 0.608180
0.142087 0.166488 0.628958
0.128224 0.153870 0.584669
0.292626 0.175478 0.607590
0.791111 0.236887 0.654390
0.968590 0.274127 0.725284
0.965842 0.303992 0.638676
0.963132 0.279123 0.593941
0.960816 0.254597 0.537848
0.956940 0.227451 0.473633
0.196324 0.270001 0.801777
0.232255 0.310115 0.852200
0.369071 0.352006 0.877297
0.862686 0.410644 0.848351
0.975147 0.364840 0.814941
0.967766 0.332881 0.681903
0.965650 0.300339 0.632285
0.961974 0.266524 0.567625
0.959275 0.235701 0.493558
0.344958 0.639690 1.000000
0.388349 0.654385 1.000000
0.354763 0.604803 1.000000
0.793728 0.561749 0.919331
0.978361 0.485360 0.862672
0.972005 0.396043 0.731040
0.966990 0.329267 0.659714
0.964311 0.275110 0.585822
0.958098 0.239378 0.503410
0.203497 0.771868 0.999981
0.224033 0.761407 0.999981
0.250047 0.748157 0.999981
0.577145 0.732816 1.000000
0.946323 0.679332 0.915918
0.979864 0.568401 0.816634
0.973105 0.487047 0.713578
0.968291 0.413937 0.640078
0.962692 0.346863 0.554688
0.065596 0.851962 1.000000
0.062666 0.848696 0.999449
0.062475 0.843700 0.999981
0.182326 0.837678 0.999327
0.850576 0.840073 0.964711
0.987882 0.781093 0.899707
0.981709 0.705415 0.783030
0.979029 0.648232 0.724711
0.974597 0.584107 0.655340
0.065336 0.928636 1.000000
0.064753 0.925650 1.000000
0.065144 0.923976 0.999378
0.065737 0.915295 0.999687
0.341402 0.917775 1.000000
0.947677 0.926626 0.923964
0.988599 0.868154 0.852161
0.985709 0.828637 0.797660
0.982819 0.789793 0.739700
0.066302 0.941616 0.999738
0.068649 0.941895 1.000000
0.067279 0.942593 1.000000
0.065911 0.943290 1.000000
0.064934 0.942313 0.999738
0.572651 0.972330 0.952683
0.984203 0.980576 0.858754
0.989910 0.944181 0.817035
0.987392 0.923973 0.773499
0.066302 0.941616 0.999738
0.067279 0.942593 1.000000
0.064934 0.942313 0.999738
0.064934 0.942313 0.999738
0.062194 0.943708 0.999738
0.239714 0.952763 0.975801
0.886047 0.991426 0.871879
0.976774 0.993175 0.796234
0.972676 0.992338 0.751327
0.066302 0.941616 0.999738
0.066302 0.941616 0.999738
0.065911 0.943290 1.000000
0.063564 0.943011 0.999738
0.064934 0.942313 0.999738
0.062588 0.942035 0.998762
0.746262 0.983192 0.895423
0.978334 0.993443 0.816468
0.973653 0.992307 0.757496
0.280116 0.347643 0.893215
0.256096 0.320883 0.871286
0.436676 0.397114 0.904605
0.879228 0.490527 0.899047
0.982821 0.518517 0.911535
0.977011 0.469445 0.828234
0.976065 0.438844 0.799829
0.972972 0.401966 0.766540
0.969689 0.362779 0.719938
0.438291 0.551602 0.995785
0.461527 0.585407 1.000000
0.447635 0.599388 0.999347
0.838228 0.644354 0.959781
0.985281 0.613098 0.932059
0.979902 0.513330 0.860239
0.978180 0.474747 0.832141
0.974313 0.431228 0.792238
0.971622 0.383697 0.744215
0.348635 0.686277 1.000000
0.357636 0.678408 0.999845
0.367611 0.671517 1.000000
0.612580 0.675693 0.996190
0.958042 0.687018 0.948403
0.982783 0.568883 0.892156
0.979518 0.504681 0.854379
0.978008 0.450448 0.812078
0.972590 0.394324 0.755488
0.226379 0.761686 1.000000
0.245939 0.750249 0.999981
0.267846 0.739091 0.999981
0.284667 0.728712 1.000000
0.893652 0.762095 0.970554
0.987558 0.692359 0.946276
0.982553 0.612907 0.880230
0.980073 0.546366 0.835308
0.975452 0.474556 0.780312
0.062475 0.843700 0.999981
0.062484 0.832034 1.000000
0.062886 0.818355 1.000000
0.113142 0.806230 1.000000
0.695740 0.825491 1.000000
0.985881 0.823362 0.970003
0.987520 0.746421 0.907863
0.985022 0.702206 0.867960
0.982533 0.648005 0.819492
0.065729 0.926962 0.999602
0.065346 0.916969 1.000000
0.065748 0.903629 0.999774
0.064781 0.890648 1.000000
0.208290 0.882428 1.000000
0.919329 0.914151 0.994025
0.991319 0.872954 0.940243
0.990370 0.844033 0.903184
0.988054 0.815810 0.866126
0.066302 0.941616 0.999738
0.066302 0.941616 0.999738
0.066302 0.941616 0.999738
0.066302 0.941616 0.999738
0.067279 0.942593 1.000000
0.499531 0.962230 0.999442
0.976764 0.971236 0.969195
0.993606 0.944916 0.932052
0.991279 0.926679 0.903558
0.066302 0.941616 0.999738
0.066302 0.941616 0.999738
0.066302 0.941616 0.999738
0.066302 0.941616 0.999738
0.067279 0.942593 1.000000
0.124170 0.945317 1.000000
0.867261 0.991690 0.971183
0.988090 0.996056 0.923056
0.985945 0.994819 0.892215
0.066302 0.941616 0.999738
0.066302 0.941616 0.999738
0.066302 0.941616 0.999738
0.066302 0.941616 0.999738
0.066302 0.941616 0.999738
0.064934 0.942313 0.999738
0.630900 0.976951 0.998840
0.979876 0.997215 0.938630
0.985553 0.995820 0.896651
0.474836 0.569449 0.996504
0.471312 0.574528 0.996727
0.447635 0.599388 0.999347
0.821397 0.665392 0.964133
0.982474 0.693139 0.947032
0.984677 0.632438 0.936855
0.985674 0.611088 0.932812
0.983740 0.588826 0.915458
0.982602 0.552892 0.889313
0.413980 0.631477 0.999484
0.415349 0.630779 0.999484
0.416718 0.630082 0.999484
0.746515 0.665056 0.973796
0.963508 0.695560 0.950047
0.986822 0.639724 0.936548
0.986822 0.639724 0.936548
0.984889 0.614772 0.933036
0.983750 0.578502 0.908622
0.350396 0.683569 1.000000
0.360765 0.675340 0.998868
0.372111 0.667751 0.999621
0.530078 0.672206 0.999242
0.932602 0.713242 0.957192
0.987205 0.649044 0.938946
0.986822 0.639724 0.936548
0.985654 0.633751 0.936102
0.983348 0.590499 0.916434
0.231855 0.758896 1.000000
0.252785 0.746762 0.999981
0.273322 0.736301 0.999981
0.290537 0.724248 0.999759
0.875863 0.758822 0.974102
0.989664 0.744297 0.956008
0.987558 0.692359 0.946276
0.988938 0.680330 0.944632
0.985070 0.632443 0.927227
0.063260 0.840016 0.999759
0.063270 0.828349 0.999845
0.076186 0.813392 1.000000
0.128787 0.801544 1.000000
0.668377 0.816104 1.000000
0.964962 0.823829 0.971067
0.990420 0.774607 0.960720
0.990238 0.758615 0.957875
0.989292 0.724989 0.945044
0.065144 0.923976 0.999378
0.066131 0.913285 1.000000
0.065556 0.898632 1.000000
0.065959 0.884954 1.000000
0.203407 0.876537 1.000000
0.893143 0.899071 0.994726
0.993262 0.879517 0.978449
0.994458 0.851497 0.973960
0.991740 0.831909 0.962019
0.066302 0.941616 0.999738
0.066302 0.941616 0.999738
0.066302 0.941616 0.999738
0.066302 0.941616 0.999738
0.065719 0.938629 0.999515
0.500518 0.951539 1.000000
0.966797 0.961420 0.994484
0.995751 0.941112 0.988847
0.994199 0.927162 0.979081
0.066302 0.941616 0.999738
0.066302 0.941616 0.999738
0.066302 0.941616 0.999738
0.066302 0.941616 0.999738
0.067279 0.942593 1.000000
0.067279 0.942593 1.000000
0.826399 0.988561 1.000000
1.000000 1.000000 1.000000
0.997070 0.998414 0.990149
0.066302 0.941616 0.999738
0.066302 0.941616 0.999738
0.066302 0.941616 0.999738
0.066302 0.941616 0.999738
0.066302 0.941616 0.999738
0.067279 0.942593 1.000000
0.522595 0.968712 0.999800
0.970090 0.997005 0.999640
0.996677 0.999753 0.992855
0.427087 0.621180 1.000000
0.418480 0.627375 1.000000
0.415349 0.630779 0.999484
0.813958 0.676888 0.967285
0.987558 0.692359 0.946276
0.986822 0.639724 0.936548
0.986822 0.639724 0.936548
0.986822 0.639724 0.936548
0.986822 0.639724 0.936548
0.412219 0.633849 1.000000
0.418480 0.627375 1.000000
0.416718 0.630082 0.999484
0.765282 0.668970 0.972957
0.968592 0.695116 0.947562
0.986822 0.639724 0.936548
0.986822 0.639724 0.936548
0.986822 0.639724 0.936548
0.986822 0.639724 0.936548
0.354504 0.681477 1.000000
0.365265 0.671238 0.999621
0.375242 0.664345 1.000000
0.553343 0.671682 1.000000
0.937101 0.709476 0.956215
0.986620 0.646058 0.938722
0.986822 0.639724 0.936548
0.986822 0.639724 0.936548
0.986822 0.639724 0.936548
0.238701 0.755409 1.000000
0.259631 0.743275 0.999981
0.279191 0.731501 1.000000
0.299729 0.721040 1.000000
0.877625 0.756451 0.973126
0.989473 0.739972 0.953078
0.988343 0.688675 0.946055
0.987377 0.676368 0.943434
0.986017 0.665734 0.941789
0.062675 0.836693 1.000000
0.063078 0.823352 1.000000
0.097499 0.810914 0.999845
0.144432 0.796859 1.000000
0.686367 0.812034 1.000000
0.965746 0.820145 0.970843
0.990229 0.769946 0.959519
0.989071 0.752978 0.955699
0.988888 0.736986 0.952856
0.064561 0.920989 0.999157
0.064569 0.909322 0.999242
0.066341 0.894948 1.000000
0.064398 0.880991 0.999946
0.221398 0.872468 1.000000
0.899404 0.892934 0.992773
0.993463 0.873181 0.976273
0.993292 0.845523 0.973517
0.992134 0.828555 0.969696
0.066302 0.941616 0.999738
0.066302 0.941616 0.999738
0.066302 0.941616 0.999738
0.066302 0.941616 0.999738
0.067481 0.935922 1.000000
0.534927 0.950767 0.999887
0.968952 0.956702 0.995992
0.995559 0.936787 0.985917
0.995377 0.920459 0.984804
0.066302 0.941616 0.999738
0.066302 0.941616 0.999738
0.066302 0.941616 0.999738
0.066302 0.941616 0.999738
0.067279 0.942593 1.000000
0.069626 0.943208 0.999961
0.833828 0.988060 1.000000
1.000000 1.000000 1.000000
0.998440 0.996372 0.997070
0.066302 0.941616 0.999738
0.066302 0.941616 0.999738
0.066302 0.941616 0.999738
0.066302 0.941616 0.999738
0.066302 0.941616 0.999738
0.067279 0.942593 1.000000
0.537062 0.969721 0.999493
0.971460 0.996644 0.997911
1.000000 1.000000 1.000000
