Sources/Resources/LUT/gfx-eterna-55-3d-lut-v100/33Grid/F-Log2/FLog2_to_Velvia_33grid_V.1.00.cube
#title:FLog2_to_Velvia
#model:GFX ETERNA 55
#FUJIFILM Corporation
#Gamma:F-Log2 to Velvia
#Gamut:F-Gamut to ITU-R BT.709
#Version:1.00
LUT_3D_SIZE 9
0.000000 0.000000 0.000000
0.000977 0.000977 0.000977
0.091693 0.000000 0.000000
0.390040 0.000000 0.000269
0.861402 0.000000 0.038488
0.999559 0.000527 0.450954
0.999950 0.004566 0.420558
0.999950 0.004566 0.420558
0.999950 0.004566 0.420558
0.000977 0.000977 0.000977
0.000977 0.000977 0.000977
0.080157 0.002536 0.000000
0.441262 0.000000 0.000320
0.974591 0.000000 0.109899
0.999367 0.000235 0.427258
0.999950 0.004566 0.420558
0.999950 0.004566 0.420558
0.999950 0.004566 0.420558
0.000000 0.060010 0.000547
0.000142 0.062996 0.000769
0.059964 0.069323 0.000000
0.500449 0.061441 0.000000
0.999780 0.058237 0.000000
0.999700 0.089065 0.320207
1.000000 0.063676 0.346558
1.000000 0.032949 0.384801
1.000000 0.008561 0.415591
0.000000 0.510675 0.000434
0.000000 0.522343 0.000347
0.000000 0.482344 0.001136
0.374617 0.437935 0.000551
0.895471 0.414250 0.000000
0.999477 0.403788 0.079426
0.998759 0.323449 0.092363
0.998608 0.259349 0.157266
1.000000 0.193550 0.217731
0.000000 0.997039 0.000063
0.000000 0.965024 0.000543
0.000000 0.923352 0.000355
0.000000 0.883690 0.000000
0.696550 0.755051 0.000000
0.999213 0.733926 0.000000
0.998728 0.614268 0.000000
0.999551 0.563915 0.000000
0.999398 0.512585 0.000000
0.000000 1.000000 0.000285
0.000000 1.000000 0.000285
0.000000 1.000000 0.000285
0.000000 1.000000 0.000285
0.000000 1.000000 0.000285
0.944272 0.971496 0.000000
0.998684 0.898941 0.000000
0.998935 0.833598 0.000723
0.999950 0.788243 0.000312
0.000000 1.000000 0.000285
0.000000 1.000000 0.000285
0.000000 1.000000 0.000285
0.000000 1.000000 0.000285
0.000000 1.000000 0.000285
0.333285 0.999872 0.000000
0.998989 0.999248 0.012832
0.998596 0.999913 0.019000
0.999582 0.990567 0.013141
0.000000 1.000000 0.000285
0.000000 1.000000 0.000285
0.000000 1.000000 0.000285
0.000000 1.000000 0.000285
0.000000 1.000000 0.000285
0.000000 1.000000 0.000285
0.758711 0.999326 0.000157
0.999965 0.999888 0.015538
0.999965 0.999888 0.015538
0.000000 1.000000 0.000285
0.000000 1.000000 0.000285
0.000000 1.000000 0.000285
0.000000 1.000000 0.000285
0.000000 1.000000 0.000285
0.000000 1.000000 0.000285
0.497122 0.999529 0.000000
0.999573 1.000000 0.023438
0.999965 0.999888 0.015538
0.000000 0.000000 0.000000
0.002347 0.000616 0.000000
0.102445 0.001035 0.000102
0.414281 0.000372 0.000000
0.938428 0.000000 0.066586
0.999950 0.000197 0.443054
0.999950 0.004566 0.420558
0.999950 0.004566 0.420558
0.999950 0.004566 0.420558
0.000583 0.002987 0.000222
0.000977 0.000977 0.000977
0.091301 0.001617 0.000633
0.487794 0.000000 0.000149
0.998238 0.000020 0.157202
1.000000 0.000210 0.423797
0.999950 0.004566 0.420558
0.999950 0.004566 0.420558
0.999950 0.004566 0.420558
0.000526 0.072990 0.000000
0.000000 0.071677 0.000460
0.069737 0.069437 0.000000
0.513164 0.053154 0.000000
0.999588 0.050551 0.013402
0.999710 0.074373 0.335866
1.000000 0.053981 0.361688
0.999155 0.025294 0.393007
0.999950 0.004566 0.420558
0.000518 0.548664 0.000398
0.000000 0.522343 0.000347
0.000000 0.471013 0.000000
0.387342 0.418316 0.000000
0.909756 0.398259 0.000563
0.999688 0.383771 0.087719
0.999948 0.302055 0.113746
0.999211 0.234632 0.180156
0.999643 0.175535 0.234899
0.000000 1.000000 0.000285
0.000000 0.958354 0.000097
0.000000 0.911685 0.000441
0.000000 0.869037 0.000000
0.709857 0.738085 0.000043
1.000000 0.718239 0.000828
0.998545 0.597940 0.000000
0.999370 0.547251 0.000610
0.999217 0.494914 0.004946
0.000000 1.000000 0.000285
0.000000 1.000000 0.000285
0.000000 1.000000 0.000285
0.000000 1.000000 0.000285
0.000000 1.000000 0.000285
0.967156 0.961314 0.000395
0.999086 0.885264 0.000000
0.998753 0.817270 0.000000
0.999375 0.773589 0.000176
0.000000 1.000000 0.000285
0.000000 1.000000 0.000285
0.000000 1.000000 0.000285
0.000000 1.000000 0.000285
0.000000 1.000000 0.000285
0.364958 1.000000 0.000641
0.998989 0.999584 0.011101
0.998596 0.999913 0.019000
0.999201 0.981918 0.007282
0.000000 1.000000 0.000285
0.000000 1.000000 0.000285
0.000000 1.000000 0.000285
0.000000 1.000000 0.000285
0.000000 1.000000 0.000285
0.000000 1.000000 0.000285
0.768486 0.999441 0.000000
0.999965 0.999888 0.015538
0.999965 0.999888 0.015538
0.000000 1.000000 0.000285
0.000000 1.000000 0.000285
0.000000 1.000000 0.000285
0.000000 1.000000 0.000285
0.000000 1.000000 0.000285
0.000000 1.000000 0.000285
0.509242 0.999923 0.000348
0.999573 1.000000 0.023438
0.999965 0.999888 0.015538
0.000000 0.000000 0.020988
0.001953 0.000000 0.012335
0.128641 0.000079 0.021981
0.480163 0.000000 0.034980
0.975949 0.000178 0.163457
1.000000 0.000000 0.425527
0.999950 0.004566 0.420558
0.999950 0.004566 0.420558
0.999950 0.004566 0.420558
0.000383 0.000247 0.049121
0.000000 0.000615 0.041223
0.127462 0.000000 0.052598
0.562462 0.000249 0.082558
0.998803 0.000000 0.293961
0.999559 0.007584 0.414614
0.999950 0.004566 0.420558
0.999950 0.004566 0.420558
0.999950 0.004566 0.420558
0.000869 0.103438 0.133278
0.000294 0.094835 0.101992
0.082031 0.082031 0.082031
0.563209 0.046931 0.062956
0.999961 0.039948 0.178379
0.999127 0.070378 0.340836
0.999731 0.043982 0.372380
1.000000 0.017584 0.403923
0.999950 0.004566 0.420558
0.000000 0.575726 0.189789
0.000000 0.533908 0.070370
0.000000 0.484354 0.000384
0.408654 0.415839 0.000000
0.930494 0.381128 0.000117
1.000000 0.361647 0.157246
0.999766 0.281022 0.136860
0.999422 0.212598 0.198833
0.999461 0.156519 0.247628
0.000000 0.997521 0.117563
0.000000 0.958354 0.000097
0.000000 0.906689 0.000973
0.000456 0.856335 0.001094
0.719824 0.743196 0.000000
0.998659 0.695938 0.000000
0.999340 0.582253 0.000352
0.999189 0.530924 0.000000
1.000000 0.479562 0.004809
0.000000 1.000000 0.000285
0.000000 1.000000 0.000285
0.000000 1.000000 0.000285
0.000000 1.000000 0.000285
0.000000 1.000000 0.000285
0.980061 0.958361 0.000000
0.998905 0.868937 0.000000
1.000000 0.804906 0.000000
0.999193 0.757261 0.000000
0.000000 0.999633 0.046700
0.000000 1.000000 0.000285
0.000000 1.000000 0.000285
0.000000 1.000000 0.000285
0.000000 1.000000 0.000285
0.391939 0.999889 0.000000
0.999191 0.993249 0.008926
0.999382 0.996565 0.017047
0.998424 0.974943 0.002399
0.000000 0.999601 0.052866
0.000000 1.000000 0.000285
0.000000 1.000000 0.000285
0.000000 1.000000 0.000285
0.000000 1.000000 0.000285
0.000000 1.000000 0.000285
0.778262 0.999555 0.000000
0.999965 0.999888 0.015538
0.999965 0.999888 0.015538
0.000000 0.999258 0.064227
0.000000 1.000000 0.000285
0.000000 1.000000 0.000285
0.000000 1.000000 0.000285
0.000000 1.000000 0.000285
0.000000 1.000000 0.000285
0.519018 1.000000 0.000000
0.998596 0.999240 0.022461
0.999965 0.999888 0.015538
0.000757 0.000000 0.162184
0.000565 0.000107 0.135028
0.165962 0.000000 0.157367
0.581984 0.000530 0.261208
0.999549 0.000096 0.513165
1.000000 0.043321 0.571347
1.000000 0.025072 0.520137
0.999155 0.013868 0.451843
0.999559 0.007584 0.414614
0.000152 0.000582 0.262155
0.000152 0.000246 0.263886
0.178445 0.000000 0.329625
0.671494 0.000198 0.465024
0.999329 0.000190 0.667449
1.000000 0.049947 0.597218
0.999912 0.028718 0.536157
0.999741 0.015847 0.457259
0.999559 0.007584 0.414614
0.000168 0.156105 0.566371
0.000000 0.141457 0.556605
0.080957 0.110012 0.531847
0.617092 0.051341 0.515704
0.999511 0.033322 0.582039
1.000000 0.129645 0.581575
0.999299 0.064766 0.514911
1.000000 0.020514 0.448828
0.999559 0.007584 0.414614
0.000000 0.602585 0.692187
0.000218 0.554381 0.605649
0.000000 0.503192 0.518886
0.421875 0.421875 0.421875
0.955463 0.370939 0.398277
0.999055 0.364512 0.471230
1.000000 0.299614 0.391476
0.999784 0.221393 0.323922
0.999470 0.142163 0.261558
0.000471 0.952036 0.613332
0.000000 0.931860 0.521651
0.000000 0.881349 0.421801
0.000000 0.824160 0.331132
0.714136 0.719962 0.227762
0.999223 0.665463 0.291769
1.000000 0.561144 0.269824
0.999953 0.513942 0.187723
0.999227 0.462074 0.114052
0.000000 1.000000 0.420187
0.000000 0.999835 0.336012
0.000000 0.999683 0.226411
0.000000 1.000000 0.109887
0.000137 0.999316 0.019543
0.967710 0.999303 0.000359
0.999287 0.856749 0.111883
0.999748 0.782142 0.066516
0.998821 0.735601 0.000212
0.000078 0.999753 0.377235
0.000000 0.999594 0.277261
0.000000 0.999740 0.181727
0.000000 1.000000 0.094089
0.000000 0.999589 0.072125
0.384507 1.000000 0.000000
0.998204 0.999571 0.030359
0.999573 1.000000 0.023438
0.999400 0.975919 0.003375
0.000000 1.000000 0.385132
0.000000 1.000000 0.287867
0.000000 0.999397 0.193085
0.000000 0.999544 0.097550
0.000000 1.000000 0.059035
0.000137 0.999316 0.019543
0.767118 1.000000 0.000000
0.999573 0.999545 0.026899
0.998596 0.999577 0.020730
0.000000 0.999404 0.398223
0.000000 0.999886 0.300957
0.000000 1.000000 0.203692
0.000319 0.999512 0.103719
0.000000 0.999975 0.035339
0.000137 0.999988 0.016082
0.509242 0.999923 0.000348
0.999180 1.000000 0.033067
0.998596 0.999577 0.020730
0.000112 0.000000 0.507538
0.000707 0.000258 0.459394
0.230615 0.000000 0.519016
0.694329 0.000000 0.714758
0.999097 0.000000 0.883946
0.999815 0.101029 0.763720
1.000000 0.093407 0.723780
1.000000 0.080156 0.672040
0.999470 0.073269 0.616304
0.000869 0.000000 0.667992
0.000859 0.000506 0.723281
0.251285 0.000022 0.848488
0.772683 0.000000 0.981317
1.000000 0.000000 0.999715
0.999020 0.109323 0.800197
0.999040 0.096743 0.744992
0.999451 0.082824 0.687082
0.999470 0.071925 0.623227
0.000011 0.258426 0.999345
0.000998 0.247736 1.000000
0.008083 0.190910 1.000000
0.658421 0.098994 0.992863
1.000000 0.063688 0.971597
1.000000 0.186606 0.809000
1.000000 0.143386 0.741187
1.000000 0.084467 0.694227
0.999470 0.071925 0.623227
0.000676 0.632082 1.000000
0.000000 0.589433 0.999868
0.000000 0.542764 1.000000
0.409647 0.456057 0.903285
0.975520 0.383475 0.829367
0.999369 0.399716 0.760286
0.998824 0.369216 0.661769
0.999467 0.311274 0.615786
0.999153 0.229692 0.565535
0.000270 0.883428 1.000000
0.000000 0.873770 1.000000
0.000000 0.857538 0.939141
0.000000 0.819366 0.835742
0.705078 0.705078 0.705078
0.998983 0.645539 0.669112
0.999453 0.566323 0.587492
0.999894 0.519084 0.521188
1.000000 0.466512 0.457144
0.000192 0.998946 0.886504
0.000000 1.000000 0.805035
0.000000 1.000000 0.707770
0.000040 1.000000 0.613965
0.000000 1.000000 0.529790
0.946369 0.953101 0.431297
0.999852 0.816528 0.454566
0.998743 0.750297 0.404452
0.999768 0.705372 0.341832
0.000000 1.000000 0.769981
0.000000 0.999695 0.636684
0.000249 0.999181 0.525352
0.000000 0.999360 0.423648
0.000471 0.999422 0.369336
0.349465 0.999042 0.295452
0.998960 0.999970 0.189083
0.999936 0.999938 0.195249
0.999180 0.977358 0.150738
0.000402 0.999764 0.787508
0.000000 0.999321 0.654212
0.000000 1.000000 0.539419
0.000068 1.000000 0.434254
0.000000 0.999125 0.355270
0.000280 1.000000 0.340449
0.739907 1.000000 0.216962
0.998787 0.999197 0.047887
1.000000 0.999844 0.040965
0.000010 0.999085 0.800597
0.000422 0.999618 0.668278
0.000441 0.999473 0.549046
0.000000 1.000000 0.443883
0.000000 0.999797 0.351809
0.000000 0.999879 0.310586
0.482616 1.000000 0.231750
0.998386 0.999768 0.114535
0.998787 1.000000 0.042695
0.002601 0.000000 0.832883
0.000648 0.000000 0.822278
0.304049 0.000000 0.994926
0.779328 0.000000 0.999067
1.000000 0.000000 0.999715
1.000000 0.162986 0.990614
0.999354 0.149422 0.944062
1.000000 0.136481 0.887129
1.000000 0.118568 0.834187
0.001163 0.061156 0.941301
0.017373 0.075399 0.979645
0.231665 0.052225 0.999499
0.814503 0.018147 0.999785
0.999651 0.015326 0.999852
1.000000 0.177632 1.000000
1.000000 0.159669 0.982492
0.999363 0.143133 0.916462
0.999976 0.123888 0.851183
0.000268 0.419422 1.000000
0.000278 0.407755 1.000000
0.000508 0.366082 1.000000
0.640132 0.225062 0.999903
0.999736 0.148662 0.998375
0.999467 0.236666 0.999950
1.000000 0.191311 0.999539
1.000000 0.147419 0.935188
1.000000 0.126868 0.861036
0.000877 0.625410 1.000000
0.000504 0.604086 1.000000
0.000000 0.579776 0.999199
0.277424 0.507871 1.000000
0.967256 0.413061 0.998524
1.000000 0.398974 1.000000
0.999753 0.377111 0.927079
0.999801 0.332217 0.858290
0.999659 0.280311 0.800415
0.000328 0.813760 1.000000
0.000000 0.804104 0.999519
0.000000 0.792101 1.000000
0.000166 0.773761 1.000000
0.632321 0.679911 0.999789
1.000000 0.601977 1.000000
1.000000 0.577876 0.849563
0.999443 0.540014 0.782949
0.999876 0.503098 0.723480
0.000200 0.965434 0.999071
0.000010 0.960437 0.999602
0.000795 0.956417 1.000000
0.000018 0.948770 0.999687
0.000029 0.937104 0.999774
0.887695 0.887695 0.887695
1.000000 0.788982 0.791972
0.999681 0.737786 0.714840
1.000000 0.695208 0.649734
0.000573 0.986758 0.999653
0.001159 0.989409 1.000000
0.000182 0.998179 0.950445
0.000000 0.999371 0.833923
0.000210 0.999473 0.763812
0.167581 0.999186 0.677527
0.999878 0.999367 0.558133
0.998929 0.968093 0.533188
1.000000 0.937480 0.482063
0.000573 0.986758 0.999653
0.000182 0.988432 1.000000
0.000000 0.998173 0.960075
0.000392 1.000000 0.846258
0.000000 1.000000 0.719128
0.000000 0.999701 0.627055
0.692934 0.999630 0.530895
0.998929 0.999684 0.370523
0.999141 0.999830 0.274988
0.000573 0.986758 0.999653
0.000182 0.988432 1.000000
0.000000 0.995484 0.973919
0.000000 0.999662 0.857616
0.000019 1.000000 0.733194
0.000000 1.000000 0.625324
0.452455 0.999657 0.553274
0.999313 1.000000 0.417914
0.998748 0.999824 0.284617
0.050604 0.076289 0.999261
0.038101 0.068591 0.986035
0.293822 0.070161 1.000000
0.817787 0.066407 0.999665
1.000000 0.099983 0.999474
1.000000 0.232983 0.999726
0.999868 0.223325 0.999058
0.999687 0.206662 0.999676
0.999505 0.190334 0.998562
0.109150 0.204309 1.000000
0.114406 0.231524 1.000000
0.082311 0.267912 1.000000
0.666118 0.246813 0.999645
0.999525 0.166999 0.998735
0.999457 0.248334 0.999863
0.999860 0.234992 0.998973
0.999677 0.218329 0.999590
0.999888 0.199990 0.999229
0.000000 0.468100 0.999528
0.000238 0.454422 1.000000
0.000449 0.436085 1.000000
0.334240 0.365928 0.999766
0.999993 0.309656 0.999657
1.000000 0.284311 1.000000
1.000000 0.251320 1.000000
1.000000 0.226311 0.999280
0.999687 0.206662 0.999676
0.000504 0.604086 1.000000
0.000000 0.584436 1.000000
0.000342 0.564089 1.000000
0.000000 0.544774 0.999457
0.742957 0.474095 0.998422
1.000000 0.370978 0.999449
0.999149 0.383343 0.999364
1.000000 0.349318 1.000000
0.999993 0.309656 0.999657
0.000146 0.797096 1.000000
0.001143 0.775075 1.000000
0.000578 0.748754 1.000000
0.000607 0.713752 1.000000
0.385227 0.645786 1.000000
1.000000 0.573982 0.999188
1.000000 0.545650 0.999891
1.000000 0.522317 1.000000
0.999645 0.491335 0.998813
0.000000 0.962111 1.000000
0.000000 0.945784 0.999464
0.000000 0.920439 1.000000
0.000000 0.892444 0.999364
0.000873 0.863416 1.000000
0.751472 0.810574 0.999613
0.999630 0.740671 0.999938
0.999459 0.712340 1.000000
0.999297 0.684104 0.940863
0.000573 0.986758 0.999653
0.000573 0.986758 0.999653
0.000573 0.986758 0.999653
0.000573 0.986758 0.999653
0.000967 0.984749 1.000000
0.003897 0.988351 0.999875
0.968750 0.968750 0.968750
1.000000 0.925146 0.905512
0.999916 0.896911 0.845734
0.000573 0.986758 0.999653
0.000573 0.986758 0.999653
0.000573 0.986758 0.999653
0.000573 0.986758 0.999653
0.000573 0.986758 0.999653
0.000765 0.991419 1.000000
0.589061 1.000000 0.886754
1.000000 0.999715 0.751911
0.999474 0.999265 0.628242
0.000573 0.986758 0.999653
0.000573 0.986758 0.999653
0.000573 0.986758 0.999653
0.000573 0.986758 0.999653
0.000573 0.986758 0.999653
0.000765 0.991419 1.000000
0.187091 1.000000 0.913195
0.975596 0.999206 0.793972
1.000000 0.999899 0.640577
0.150999 0.191370 1.000000
0.138477 0.204317 1.000000
0.082311 0.267912 1.000000
0.631476 0.289593 0.998719
0.999771 0.339662 0.999930
1.000000 0.265974 1.000000
0.999830 0.269658 1.000000
0.999246 0.267007 0.998493
1.000000 0.259304 0.999777
0.002087 0.347046 1.000000
0.005219 0.343642 1.000000
0.004242 0.342665 0.999941
0.523928 0.312336 1.000000
1.000000 0.335978 0.999708
0.999438 0.271668 0.999692
0.999438 0.271668 0.999692
0.999830 0.269658 1.000000
0.999246 0.267007 0.998493
0.000000 0.465114 0.999305
0.000439 0.447752 0.999923
0.000258 0.431089 1.000000
0.202449 0.387884 1.000000
0.895344 0.371338 0.999347
1.000000 0.289308 1.000000
0.999438 0.271668 0.999692
1.000000 0.265974 1.000000
0.999246 0.267007 0.998493
0.000705 0.597081 1.000000
0.000000 0.577765 0.999954
0.000000 0.556441 0.999372
0.000170 0.536093 0.999766
0.698772 0.474752 0.999570
1.000000 0.447653 0.999378
1.000000 0.368969 1.000000
1.000000 0.347645 0.999621
0.999388 0.330004 0.999262
0.000348 0.790426 1.000000
0.000366 0.767092 1.000000
0.000588 0.737086 1.000000
0.000224 0.703759 1.000000
0.350245 0.632240 0.999965
0.976693 0.582851 0.998966
1.000000 0.508975 0.999171
0.999262 0.481342 0.999875
1.000000 0.463981 1.000000
0.000000 0.957451 0.999378
0.000000 0.938777 1.000000
0.000441 0.911759 1.000000
0.000000 0.882451 1.000000
0.001276 0.849738 1.000000
0.689136 0.775638 1.000000
0.999660 0.705669 1.000000
0.999315 0.649343 0.999871
0.999527 0.631005 0.999511
0.000573 0.986758 0.999653
0.000573 0.986758 0.999653
0.000573 0.986758 0.999653
0.000573 0.986758 0.999653
0.000382 0.981762 1.000000
0.000000 0.978776 0.999961
0.916772 0.930865 1.000000
1.000000 0.871997 0.999215
0.999543 0.845676 0.999164
0.000573 0.986758 0.999653
0.000573 0.986758 0.999653
0.000573 0.986758 0.999653
0.000573 0.986758 0.999653
0.000573 0.986758 0.999653
0.000573 0.986422 1.000000
0.464700 1.000000 0.999048
1.000000 1.000000 1.000000
0.999417 1.000000 0.984202
0.000573 0.986758 0.999653
0.000573 0.986758 0.999653
0.000573 0.986758 0.999653
0.000573 0.986758 0.999653
0.000573 0.986758 0.999653
0.000573 0.986758 0.999653
0.009362 0.997228 0.999789
0.902246 0.999859 1.000000
0.998047 1.000000 0.987665
0.029873 0.319422 1.000000
0.010112 0.337866 1.000000
0.003849 0.344340 1.000000
0.614442 0.317973 1.000000
0.999771 0.339662 0.999930
0.999438 0.271668 0.999692
0.999438 0.271668 0.999692
0.999438 0.271668 0.999692
0.999438 0.271668 0.999692
0.000909 0.352741 0.999634
0.010112 0.337866 1.000000
0.004242 0.342665 0.999941
0.545431 0.314855 1.000000
1.000000 0.335978 0.999708
0.999438 0.271668 0.999692
0.999438 0.271668 0.999692
0.999438 0.271668 0.999692
0.999438 0.271668 0.999692
0.000429 0.459420 0.999835
0.000640 0.441082 0.999477
0.000066 0.426092 1.000000
0.243905 0.376955 1.000000
0.913726 0.365260 0.999570
0.999428 0.283335 0.999606
0.999438 0.271668 0.999692
0.999438 0.271668 0.999692
0.999438 0.271668 0.999692
0.000906 0.590410 1.000000
0.000140 0.571096 0.999508
0.001136 0.548737 1.000000
0.000372 0.529087 1.000000
0.711094 0.468475 0.999570
1.000000 0.438971 0.999687
1.000000 0.360986 1.000000
1.000000 0.340974 0.999175
1.000000 0.319314 1.000000
0.000548 0.783756 0.999914
0.000568 0.760421 1.000000
0.000597 0.725419 1.000000
0.000627 0.690417 1.000000
0.377233 0.619966 1.000000
0.984325 0.575344 1.000000
0.999050 0.500016 0.998504
0.999855 0.472661 1.000000
0.999683 0.444666 0.999157
0.000604 0.951757 0.999910
0.000230 0.930432 0.999327
0.000059 0.902101 1.000000
0.000000 0.873770 1.000000
0.000000 0.838768 1.000000
0.704004 0.763306 0.999153
0.999085 0.691015 1.000000
1.000000 0.636978 0.999956
1.000000 0.603987 0.999460
0.000573 0.986758 0.999653
0.000573 0.986758 0.999653
0.000573 0.986758 0.999653
0.000573 0.986758 0.999653
0.000192 0.976765 1.000000
0.012100 0.995833 0.999789
0.930271 0.919232 0.999129
0.999141 0.859017 1.000000
0.999371 0.817344 0.999867
0.000573 0.986758 0.999653
0.000573 0.986758 0.999653
0.000573 0.986758 0.999653
0.000573 0.986758 0.999653
0.000573 0.986758 0.999653
0.000573 0.986422 1.000000
0.478190 0.999709 0.999493
1.000000 1.000000 1.000000
0.998440 0.996036 0.998801
0.000573 0.986758 0.999653
0.000573 0.986758 0.999653
0.000573 0.986758 0.999653
0.000573 0.986758 0.999653
0.000573 0.986758 0.999653
0.000573 0.986758 0.999653
0.016007 1.000000 1.000000
0.909675 0.999359 1.000000
1.000000 1.000000 1.000000
