Sources/Resources/LUT/gfx-eterna-55-3d-lut-v100/33Grid/F-Log2/FLog2_to_Velvia_33grid_V.1.00.cube
#title:FLog2_to_Velvia
#model:GFX ETERNA 55
#FUJIFILM Corporation
#Gamma:F-Log2 to Velvia
#Gamut:F-Gamut to ITU-R BT.709
#Version:1.00
LUT_3D_SIZE 5
0.000000 0.000000 0.000000
0.091693 0.000000 0.000000
0.861402 0.000000 0.038488
0.999950 0.004566 0.420558
0.999950 0.004566 0.420558
0.000000 0.060010 0.000547
0.059964 0.069323 0.000000
0.999780 0.058237 0.000000
1.000000 0.063676 0.346558
1.000000 0.008561 0.415591
0.000000 0.997039 0.000063
0.000000 0.923352 0.000355
0.696550 0.755051 0.000000
0.998728 0.614268 0.000000
0.999398 0.512585 0.000000
0.000000 1.000000 0.000285
0.000000 1.000000 0.000285
0.000000 1.000000 0.000285
0.998989 0.999248 0.012832
0.999582 0.990567 0.013141
0.000000 1.000000 0.000285
0.000000 1.000000 0.000285
0.000000 1.000000 0.000285
0.497122 0.999529 0.000000
0.999965 0.999888 0.015538
0.000000 0.000000 0.020988
0.128641 0.000079 0.021981
0.975949 0.000178 0.163457
0.999950 0.004566 0.420558
0.999950 0.004566 0.420558
0.000869 0.103438 0.133278
0.082031 0.082031 0.082031
0.999961 0.039948 0.178379
0.999731 0.043982 0.372380
0.999950 0.004566 0.420558
0.000000 0.997521 0.117563
0.000000 0.906689 0.000973
0.719824 0.743196 0.000000
0.999340 0.582253 0.000352
1.000000 0.479562 0.004809
0.000000 0.999633 0.046700
0.000000 1.000000 0.000285
0.000000 1.000000 0.000285
0.999191 0.993249 0.008926
0.998424 0.974943 0.002399
0.000000 0.999258 0.064227
0.000000 1.000000 0.000285
0.000000 1.000000 0.000285
0.519018 1.000000 0.000000
0.999965 0.999888 0.015538
0.000112 0.000000 0.507538
0.230615 0.000000 0.519016
0.999097 0.000000 0.883946
1.000000 0.093407 0.723780
0.999470 0.073269 0.616304
0.000011 0.258426 0.999345
0.008083 0.190910 1.000000
1.000000 0.063688 0.971597
1.000000 0.143386 0.741187
0.999470 0.071925 0.623227
0.000270 0.883428 1.000000
0.000000 0.857538 0.939141
0.705078 0.705078 0.705078
0.999453 0.566323 0.587492
1.000000 0.466512 0.457144
0.000000 1.000000 0.769981
0.000249 0.999181 0.525352
0.000471 0.999422 0.369336
0.998960 0.999970 0.189083
0.999180 0.977358 0.150738
0.000010 0.999085 0.800597
0.000441 0.999473 0.549046
0.000000 0.999797 0.351809
0.482616 1.000000 0.231750
0.998787 1.000000 0.042695
0.050604 0.076289 0.999261
0.293822 0.070161 1.000000
1.000000 0.099983 0.999474
0.999868 0.223325 0.999058
0.999505 0.190334 0.998562
0.000000 0.468100 0.999528
0.000449 0.436085 1.000000
0.999993 0.309656 0.999657
1.000000 0.251320 1.000000
0.999687 0.206662 0.999676
0.000146 0.797096 1.000000
0.000578 0.748754 1.000000
0.385227 0.645786 1.000000
1.000000 0.545650 0.999891
0.999645 0.491335 0.998813
0.000573 0.986758 0.999653
0.000573 0.986758 0.999653
0.000967 0.984749 1.000000
0.968750 0.968750 0.968750
0.999916 0.896911 0.845734
0.000573 0.986758 0.999653
0.000573 0.986758 0.999653
0.000573 0.986758 0.999653
0.187091 1.000000 0.913195
1.000000 0.999899 0.640577
0.029873 0.319422 1.000000
0.003849 0.344340 1.000000
0.999771 0.339662 0.999930
0.999438 0.271668 0.999692
0.999438 0.271668 0.999692
0.000429 0.459420 0.999835
0.000066 0.426092 1.000000
0.913726 0.365260 0.999570
0.999438 0.271668 0.999692
0.999438 0.271668 0.999692
0.000548 0.783756 0.999914
0.000597 0.725419 1.000000
0.377233 0.619966 1.000000
0.999050 0.500016 0.998504
0.999683 0.444666 0.999157
0.000573 0.986758 0.999653
0.000573 0.986758 0.999653
0.000192 0.976765 1.000000
0.930271 0.919232 0.999129
0.999371 0.817344 0.999867
0.000573 0.986758 0.999653
0.000573 0.986758 0.999653
0.000573 0.986758 0.999653
0.016007 1.000000 1.000000
1.000000 1.000000 1.000000
