Sources/Resources/LUT/gfx-eterna-55-3d-lut-v100/33Grid/F-Log2/FLog2_to_CLASSIC-CHROME_33grid_V.1.00.cube
#title:FLog2_to_CLASSIC-CHROME
#model:GFX ETERNA 55
#FUJIFILM Corporation
#Gamma:F-Log2 to CLASSIC CHROME
#Gamut:F-Gamut to ITU-R BT.709
#Version:1.00
LUT_3D_SIZE 5
0.000000 0.000000 0.000000
0.097362 0.001477 0.002586
0.737434 0.014015 0.066742
0.969772 0.118814 0.271222
0.969772 0.118814 0.271222
0.000918 0.070980 0.000460
0.089672 0.078988 0.000562
0.844654 0.143567 0.095008
0.967770 0.176542 0.261919
0.969964 0.123811 0.270692
0.030577 0.837968 0.016668
0.024364 0.786777 0.013858
0.741319 0.738562 0.094961
0.952126 0.643216 0.272855
0.957692 0.541135 0.244211
0.053705 0.966169 0.195348
0.053705 0.966169 0.195348
0.348921 0.959805 0.241931
0.969039 0.978059 0.346109
0.965162 0.935119 0.363226
0.053705 0.966169 0.195348
0.053705 0.966169 0.195348
0.089091 0.965367 0.200898
0.785663 0.967515 0.341691
0.969039 0.977724 0.347839
0.000000 0.000621 0.031594
0.120033 0.003921 0.033339
0.840635 0.032925 0.135582
0.969772 0.118814 0.271222
0.969772 0.118814 0.271222
0.000000 0.114129 0.132214
0.097656 0.097656 0.097656
0.874554 0.142434 0.176613
0.966219 0.160239 0.264266
0.969772 0.118814 0.271222
0.044782 0.841379 0.398722
0.030988 0.776328 0.204485
0.749342 0.713922 0.175093
0.953133 0.611543 0.261976
0.957720 0.507814 0.235816
0.065596 0.964546 0.420942
0.059746 0.964832 0.323453
0.348910 0.961053 0.295488
0.968265 0.976798 0.311809
0.964588 0.920801 0.361360
0.065204 0.964204 0.432301
0.060331 0.965465 0.335790
0.094357 0.966800 0.273937
0.794069 0.967655 0.344621
0.969039 0.977724 0.347839
0.001099 0.019086 0.352860
0.152815 0.022045 0.333754
0.951733 0.121399 0.579347
0.963363 0.249886 0.529726
0.964963 0.224319 0.443016
0.004119 0.303384 0.757079
0.004550 0.258066 0.740872
0.923256 0.250852 0.698474
0.960586 0.290556 0.567454
0.964963 0.223647 0.446476
0.062293 0.846528 0.900231
0.055103 0.807469 0.828957
0.743164 0.743164 0.743164
0.955381 0.653551 0.647988
0.956284 0.537419 0.506898
0.088410 0.959411 0.815863
0.083929 0.959671 0.714915
0.168404 0.958916 0.625734
0.977981 0.981718 0.646473
0.968083 0.909724 0.571996
0.091731 0.958986 0.826468
0.084514 0.960304 0.727250
0.078080 0.960628 0.613965
0.785220 0.972073 0.627765
0.975655 0.981965 0.522804
0.003622 0.170523 0.885683
0.003785 0.204473 0.916042
0.962010 0.379556 0.970649
0.961023 0.411418 0.860566
0.960287 0.369201 0.797192
0.023847 0.516609 0.969456
0.020937 0.489002 0.973621
0.820155 0.514416 0.965250
0.959222 0.452056 0.904461
0.960268 0.387493 0.822977
0.055093 0.794267 0.956926
0.050823 0.756696 0.955984
0.163667 0.713491 0.959581
0.960186 0.700688 0.915215
0.954979 0.630261 0.837500
0.100321 0.956298 0.929148
0.100321 0.956298 0.929148
0.096806 0.949038 0.932918
0.951172 0.951172 0.951172
0.978202 0.905000 0.886735
0.100321 0.956298 0.929148
0.100321 0.956298 0.929148
0.100321 0.956298 0.929148
0.602188 0.965091 0.895355
0.989861 0.993443 0.863328
0.014361 0.403139 0.978969
0.016889 0.420418 0.977598
0.909080 0.551427 0.961187
0.956033 0.514039 0.962028
0.956033 0.514039 0.962028
0.022679 0.510300 0.970742
0.020555 0.479344 0.972954
0.756197 0.545855 0.962544
0.956033 0.514039 0.962028
0.956033 0.514039 0.962028
0.055103 0.782936 0.955281
0.047904 0.741091 0.958332
0.129861 0.694251 0.958863
0.959018 0.685642 0.961492
0.956902 0.643355 0.962059
0.100321 0.956298 0.929148
0.099344 0.955321 0.928171
0.092125 0.935468 0.937973
0.906030 0.922476 0.977472
0.976641 0.882888 0.978981
0.100321 0.956298 0.929148
0.100321 0.956298 0.929148
0.100321 0.956298 0.929148
0.368162 0.958935 0.941206
1.000000 1.000000 1.000000
