Sources/Resources/LUT/gfx-eterna-55-3d-lut-v100/33Grid/F-Log2/FLog2_to_ASTIA_33grid_V.1.00.cube
#title:FLog2_to_ASTIA
#model:GFX ETERNA 55
#FUJIFILM Corporation
#Gamma:F-Log2 to ASTIA
#Gamut:F-Gamut to ITU-R BT.709
#Version:1.00
LUT_3D_SIZE 5
0.000000 0.000000 0.000000
0.118865 0.004333 0.000016
0.756219 0.000308 0.036657
1.000000 0.000299 0.372945
1.000000 0.000299 0.372945
0.000000 0.105004 0.000000
0.111740 0.107829 0.000000
0.886401 0.028356 0.056204
0.999770 0.000337 0.357149
1.000000 0.000299 0.372945
0.000000 0.943700 0.000000
0.000000 0.880368 0.000922
0.726440 0.781381 0.000000
0.998948 0.562082 0.113808
1.000000 0.403992 0.153973
0.046084 0.999649 0.000114
0.046084 0.999649 0.000114
0.356551 0.999683 0.000000
0.986465 0.999760 0.077305
0.992153 0.990059 0.018110
0.046084 0.999649 0.000114
0.046084 0.999649 0.000114
0.118227 0.999362 0.000832
0.747567 0.999908 0.000688
0.986465 0.999424 0.079035
0.000000 0.002580 0.065895
0.145644 0.000651 0.051536
0.875659 0.000138 0.135446
1.000000 0.000299 0.372945
1.000000 0.000299 0.372945
0.000437 0.145060 0.168520
0.117188 0.117188 0.117188
0.924134 0.002963 0.190786
1.000000 0.000000 0.365047
1.000000 0.000299 0.372945
0.000000 0.908184 0.318417
0.000000 0.846279 0.056469
0.735853 0.748168 0.000000
1.000000 0.512363 0.126265
0.999899 0.349637 0.168692
0.000000 0.999879 0.310586
0.001285 0.999721 0.168637
0.357326 0.999601 0.040663
0.986858 0.999430 0.069405
0.994518 0.964988 0.029642
0.000000 0.999841 0.326382
0.000499 1.000000 0.186164
0.125838 0.999730 0.081770
0.754996 0.999744 0.000000
0.986465 0.999424 0.079035
0.004402 0.014774 0.503462
0.171378 0.005743 0.471796
1.000000 0.000000 0.751625
1.000000 0.000000 0.702503
1.000000 0.000000 0.592903
0.001140 0.315438 0.976949
0.000797 0.259784 0.973165
0.993400 0.034664 0.873837
1.000000 0.000000 0.735829
0.999731 0.000000 0.599070
0.000280 0.872097 0.999759
0.000711 0.831483 0.959325
0.719727 0.719727 0.719727
1.000000 0.533255 0.618589
0.999628 0.371436 0.511167
0.000000 0.997640 0.877628
0.000000 0.999226 0.714691
0.178745 0.999803 0.550843
0.988954 0.999182 0.407840
0.999200 0.918065 0.336070
0.000000 0.995616 0.897641
0.000019 1.000000 0.733194
0.000000 0.999790 0.576203
0.738115 0.999469 0.413223
0.988197 1.000000 0.240464
0.000000 0.183427 1.000000
0.000635 0.214744 0.999910
1.000000 0.114636 0.999610
1.000000 0.134984 0.999216
1.000000 0.067967 0.999954
0.000180 0.524426 0.999852
0.000198 0.501092 1.000000
0.834498 0.422036 1.000000
0.999888 0.199990 0.999229
0.999976 0.094986 1.000000
0.000729 0.800083 1.000000
0.000376 0.755424 1.000000
0.124768 0.698631 1.000000
0.999778 0.565998 0.999496
1.000000 0.473098 0.928344
0.000000 0.973779 1.000000
0.000000 0.973779 1.000000
0.000977 0.973081 1.000000
0.943359 0.943359 0.943359
0.999946 0.864933 0.830418
0.000000 0.973779 1.000000
0.000000 0.973779 1.000000
0.000000 0.973779 1.000000
0.564033 0.999937 0.901660
0.991441 0.999950 0.731452
0.000650 0.429414 0.999563
0.000832 0.445743 1.000000
0.955909 0.420314 0.999500
1.000000 0.297990 0.999743
1.000000 0.297990 0.999743
0.000000 0.519429 1.000000
0.000000 0.493108 1.000000
0.756054 0.475466 0.999845
1.000000 0.297990 0.999743
1.000000 0.297990 0.999743
0.001133 0.786742 1.000000
0.000000 0.740771 1.000000
0.089592 0.680088 1.000000
1.000000 0.543641 1.000000
0.999845 0.484665 0.998368
0.000000 0.973779 1.000000
0.000000 0.973779 1.000000
0.000785 0.968084 1.000000
0.881606 0.900655 0.999695
1.000000 0.818658 0.999113
0.000000 0.973779 1.000000
0.000000 0.973779 1.000000
0.000000 0.973779 1.000000
0.353456 0.999840 1.000000
1.000000 1.000000 1.000000
