Sources/Resources/LUT/gfx-eterna-55-3d-lut-v100/33Grid/F-Log2/FLog2_to_ETERNA_33grid_V.1.00.cube
#title:FLog2_to_ETERNA
#model:GFX ETERNA 55
#FUJIFILM Corporation
#Gamma:F-Log2 to ETERNA
#Gamut:F-Gamut to ITU-R BT.709
#Version:1.00
LUT_3D_SIZE 33
0.005859 0.005859 0.005859
0.005859 0.005859 0.005859
0.005859 0.005859 0.005859
0.010551 0.006755 0.006082
0.038508 0.006788 0.009681
0.078586 0.006880 0.015452
0.102828 0.006995 0.019804
0.134107 0.008957 0.021896
0.162064 0.008655 0.027222
0.198821 0.007154 0.032774
0.232446 0.009059 0.037570
0.277607 0.008370 0.042590
0.325307 0.012623 0.049785
0.385329 0.009926 0.060442
0.463139 0.009829 0.071013
0.550915 0.014509 0.082249
0.645146 0.017039 0.096196
0.744653 0.023450 0.110586
0.845528 0.029165 0.124976
0.933889 0.036831 0.136436
0.933879 0.048834 0.134621
0.934444 0.076163 0.129480
0.933841 0.097183 0.125625
0.933841 0.097183 0.125625
0.933841 0.097183 0.125625
0.933841 0.097183 0.125625
0.933841 0.097183 0.125625
0.933841 0.097183 0.125625
0.933841 0.097183 0.125625
0.933841 0.097183 0.125625
0.933841 0.097183 0.125625
0.933841 0.097183 0.125625
0.933841 0.097183 0.125625
0.005859 0.005859 0.005859
0.005859 0.005859 0.005859
0.005859 0.005859 0.005859
0.005859 0.005859 0.005859
0.038508 0.006788 0.009681
0.074871 0.007297 0.014475
0.099114 0.007413 0.018828
0.130392 0.009039 0.022648
0.159719 0.008375 0.026245
0.189045 0.007375 0.031574
0.228338 0.011152 0.037570
0.272523 0.009151 0.043343
0.325307 0.012623 0.049785
0.399011 0.014619 0.060356
0.482881 0.014048 0.074610
0.578481 0.015881 0.088554
0.675450 0.017016 0.102501
0.779063 0.021335 0.116891
0.883259 0.028977 0.129773
0.934081 0.042163 0.134176
0.934654 0.057154 0.132581
0.933458 0.086854 0.128419
0.933841 0.097183 0.125625
0.933841 0.097183 0.125625
0.933841 0.097183 0.125625
0.933841 0.097183 0.125625
0.933841 0.097183 0.125625
0.933841 0.097183 0.125625
0.933841 0.097183 0.125625
0.933841 0.097183 0.125625
0.933841 0.097183 0.125625
0.933841 0.097183 0.125625
0.933841 0.097183 0.125625
0.005859 0.005859 0.005859
0.005859 0.005859 0.005859
0.005859 0.005859 0.005859
0.005859 0.005859 0.005859
0.031078 0.007287 0.009456
0.066465 0.006821 0.013278
0.094423 0.006855 0.016875
0.126677 0.009120 0.023402
0.157373 0.007760 0.027001
0.185330 0.007794 0.030598
0.226384 0.008861 0.037347
0.277607 0.008370 0.042590
0.340167 0.010950 0.053691
0.416215 0.013224 0.065238
0.503800 0.012572 0.078738
0.603116 0.014323 0.091930
0.704383 0.018362 0.105343
0.809556 0.026981 0.119202
0.917469 0.033868 0.134792
0.933688 0.043838 0.135153
0.934644 0.068821 0.132496
0.933841 0.097183 0.125625
0.933841 0.097183 0.125625
0.933841 0.097183 0.125625
0.933841 0.097183 0.125625
0.933841 0.097183 0.125625
0.933841 0.097183 0.125625
0.933841 0.097183 0.125625
0.933841 0.097183 0.125625
0.933841 0.097183 0.125625
0.933841 0.097183 0.125625
0.933841 0.097183 0.125625
0.933841 0.097183 0.125625
0.005859 0.005859 0.005859
0.005859 0.005859 0.005859
0.005859 0.005859 0.005859
0.005859 0.005859 0.005859
0.031078 0.007287 0.009456
0.061774 0.005927 0.013056
0.090707 0.006937 0.017629
0.122963 0.009875 0.020695
0.153658 0.008178 0.026024
0.189045 0.007375 0.031574
0.232446 0.009059 0.037570
0.283669 0.008232 0.044544
0.348573 0.011762 0.053160
0.429706 0.012921 0.065684
0.522375 0.011153 0.080160
0.625203 0.019492 0.093042
0.729602 0.019792 0.108942
0.841813 0.029583 0.123999
0.934281 0.034821 0.137192
0.934856 0.049811 0.135598
0.934242 0.083170 0.128194
0.933841 0.097183 0.125625
0.933841 0.097183 0.125625
0.933841 0.097183 0.125625
0.933841 0.097183 0.125625
0.933841 0.097183 0.125625
0.933841 0.097183 0.125625
0.933841 0.097183 0.125625
0.933841 0.097183 0.125625
0.933841 0.097183 0.125625
0.933841 0.097183 0.125625
0.933841 0.097183 0.125625
0.933841 0.097183 0.125625
0.005256 0.026879 0.002004
0.005256 0.026879 0.002004
0.005256 0.026879 0.002004
0.005256 0.026879 0.002004
0.023438 0.027135 0.004403
0.060194 0.025634 0.009953
0.090496 0.025947 0.014526
0.124906 0.024168 0.019102
0.157948 0.023086 0.023676
0.193525 0.027279 0.028694
0.238688 0.026255 0.035445
0.292649 0.023697 0.044149
0.361268 0.026810 0.053742
0.445924 0.022554 0.067774
0.542308 0.020704 0.081497
0.646516 0.016342 0.096196
0.757559 0.019825 0.112540
0.872699 0.032883 0.128797
0.934081 0.042163 0.134176
0.934846 0.062151 0.132051
0.934242 0.083170 0.128194
0.933841 0.097183 0.125625
0.933841 0.097183 0.125625
0.933841 0.097183 0.125625
0.933841 0.097183 0.125625
0.933841 0.097183 0.125625
0.933841 0.097183 0.125625
0.933841 0.097183 0.125625
0.933841 0.097183 0.125625
0.933841 0.097183 0.125625
0.933841 0.097183 0.125625
0.933841 0.097183 0.125625
0.933841 0.097183 0.125625
0.005428 0.055547 0.000000
0.005428 0.055547 0.000000
0.005428 0.055547 0.000000
0.006213 0.051863 0.000000
0.016180 0.056638 0.000016
0.057627 0.056032 0.005788
0.090668 0.055287 0.008633
0.123710 0.054205 0.013207
0.159287 0.058062 0.019956
0.194674 0.057260 0.025507
0.245897 0.056769 0.030750
0.300048 0.058871 0.040652
0.372192 0.056905 0.050023
0.463492 0.055833 0.064500
0.564569 0.054540 0.080176
0.672099 0.051771 0.095098
0.785487 0.055868 0.110687
0.901423 0.052903 0.130270
0.934071 0.054167 0.132360
0.934654 0.056818 0.134313
0.934242 0.083170 0.128194
0.933841 0.097183 0.125625
0.933841 0.097183 0.125625
0.933841 0.097183 0.125625
0.933841 0.097183 0.125625
0.933841 0.097183 0.125625
0.933841 0.097183 0.125625
0.933841 0.097183 0.125625
0.933841 0.097183 0.125625
0.933841 0.097183 0.125625
0.933841 0.097183 0.125625
0.933841 0.097183 0.125625
0.933841 0.097183 0.125625
0.006768 0.089515 0.001044
0.005599 0.083878 0.000000
0.005599 0.083878 0.000000
0.006768 0.089515 0.001044
0.015567 0.088317 0.001266
0.048608 0.088242 0.000649
0.090245 0.093306 0.002429
0.125633 0.092839 0.006250
0.161020 0.092037 0.011801
0.200121 0.090815 0.018327
0.250559 0.093673 0.025524
0.309604 0.089999 0.035203
0.385653 0.092611 0.045020
0.477931 0.092516 0.060473
0.582912 0.096138 0.074864
0.694348 0.097947 0.090231
0.790924 0.101091 0.103422
0.888476 0.105214 0.117589
0.933831 0.109187 0.123809
0.934222 0.107176 0.124563
0.935784 0.111476 0.124030
0.934998 0.115496 0.122523
0.934807 0.110163 0.124785
0.935985 0.104469 0.125316
0.933841 0.097183 0.125625
0.933841 0.097183 0.125625
0.933841 0.097183 0.125625
0.933841 0.097183 0.125625
0.933841 0.097183 0.125625
0.933841 0.097183 0.125625
0.933841 0.097183 0.125625
0.933841 0.097183 0.125625
0.933841 0.097183 0.125625
0.005964 0.116869 0.000000
0.005964 0.116869 0.000000
0.005964 0.116869 0.000000
0.005964 0.116869 0.000000
0.005964 0.116869 0.000000
0.042910 0.121374 0.000000
0.087096 0.120382 0.000000
0.122674 0.124912 0.003063
0.159430 0.123747 0.006883
0.198532 0.122527 0.013410
0.252684 0.124964 0.021582
0.315635 0.126206 0.029977
0.396183 0.124379 0.042277
0.492761 0.127525 0.055470
0.586990 0.130056 0.069414
0.682197 0.133562 0.084335
0.778774 0.136708 0.097527
0.875150 0.146860 0.109433
0.934969 0.151506 0.117074
0.936730 0.148798 0.117827
0.936730 0.148798 0.117827
0.935361 0.149495 0.117827
0.935563 0.142489 0.119113
0.936740 0.136795 0.119644
0.935966 0.128476 0.121685
0.934797 0.122166 0.122968
0.935975 0.116473 0.123500
0.935199 0.108153 0.125540
0.936377 0.102795 0.124339
0.933841 0.097183 0.125625
0.933841 0.097183 0.125625
0.933841 0.097183 0.125625
0.933841 0.097183 0.125625
0.006910 0.152848 0.000082
0.006910 0.152848 0.000082
0.005148 0.155554 0.000000
0.005148 0.155554 0.000000
0.005148 0.155554 0.000000
0.028998 0.158353 0.000000
0.079245 0.157557 0.000269
0.117369 0.156704 0.000000
0.157055 0.159478 0.000456
0.200848 0.159152 0.007207
0.253631 0.162624 0.013648
0.318344 0.160821 0.024527
0.396738 0.164048 0.033590
0.481587 0.164453 0.048821
0.577186 0.166287 0.062765
0.670631 0.172837 0.075202
0.766422 0.179667 0.088618
0.862606 0.185159 0.099324
0.935131 0.192512 0.111093
0.935131 0.192512 0.111093
0.935331 0.185842 0.110647
0.935725 0.183496 0.113134
0.935533 0.178499 0.113665
0.936127 0.169819 0.113972
0.934959 0.163509 0.115258
0.936530 0.155805 0.116544
0.935361 0.149495 0.117827
0.934587 0.141513 0.118137
0.935180 0.132496 0.120175
0.934989 0.127499 0.120708
0.933237 0.118203 0.121770
0.934807 0.110163 0.124785
0.935985 0.104469 0.125316
0.005703 0.193543 0.000000
0.006680 0.194520 0.000269
0.007263 0.197506 0.000493
0.007263 0.197506 0.000493
0.007263 0.197506 0.000493
0.013324 0.197703 0.000714
0.059463 0.199336 0.000000
0.108340 0.199574 0.000000
0.153502 0.199558 0.000422
0.195926 0.201273 0.000251
0.249494 0.201061 0.006468
0.312838 0.199957 0.017347
0.387911 0.201256 0.027918
0.472365 0.204007 0.040664
0.564249 0.206258 0.053632
0.660434 0.211415 0.066070
0.753486 0.219638 0.079485
0.848885 0.228479 0.092144
0.935485 0.238852 0.102852
0.935878 0.237177 0.101875
0.935886 0.224838 0.105421
0.936088 0.217832 0.106707
0.936290 0.210825 0.107993
0.935121 0.204851 0.107546
0.935323 0.197844 0.108832
0.935916 0.188828 0.110871
0.935725 0.183496 0.113134
0.936318 0.174479 0.115172
0.936520 0.167809 0.114727
0.935351 0.161499 0.116012
0.935946 0.152483 0.118051
0.936540 0.143466 0.120090
0.936740 0.136795 0.119644
0.005463 0.246882 0.000000
0.006047 0.249870 0.000000
0.006047 0.249870 0.000000
0.006047 0.249870 0.000000
0.006047 0.249870 0.000000
0.006047 0.249870 0.000000
0.036933 0.254177 0.000000
0.095979 0.252183 0.000251
0.142117 0.253816 0.000000
0.189433 0.249420 0.000660
0.244764 0.247844 0.000711
0.306347 0.250118 0.007376
0.380834 0.248095 0.019453
0.465289 0.250847 0.032199
0.555806 0.254132 0.043438
0.650620 0.259649 0.057606
0.743671 0.268209 0.069288
0.835356 0.277466 0.080972
0.927040 0.286388 0.094386
0.937399 0.289490 0.094079
0.935848 0.273187 0.096426
0.934881 0.259871 0.098996
0.935475 0.251191 0.099306
0.935676 0.243848 0.102320
0.934902 0.235529 0.104359
0.935495 0.226848 0.104668
0.935696 0.219840 0.105953
0.936290 0.210825 0.107993
0.935513 0.202842 0.108302
0.935715 0.195835 0.109586
0.934940 0.187852 0.109895
0.936510 0.179812 0.112910
0.935735 0.171493 0.114949
0.009119 0.316468 0.000000
0.007357 0.319175 0.000000
0.007942 0.321825 0.001054
0.008525 0.324811 0.001278
0.008525 0.325148 0.000000
0.008525 0.325148 0.000000
0.008334 0.320152 0.000078
0.077547 0.316599 0.000000
0.133270 0.313014 0.000402
0.182539 0.311243 0.000231
0.234940 0.306402 0.000000
0.297307 0.306000 0.000333
0.373165 0.303951 0.008949
0.456643 0.305726 0.020718
0.549504 0.309290 0.032933
0.640603 0.314890 0.047855
0.734049 0.321776 0.058562
0.823971 0.333740 0.069491
0.913309 0.342719 0.080199
0.936957 0.351517 0.084242
0.937561 0.330832 0.086368
0.935819 0.309533 0.089247
0.934852 0.295880 0.093547
0.935838 0.285191 0.094610
0.936040 0.277848 0.097625
0.935656 0.267855 0.098687
0.935858 0.261184 0.098241
0.935475 0.251191 0.099306
0.935091 0.240861 0.102098
0.935293 0.233855 0.103382
0.936280 0.222828 0.106176
0.935505 0.214845 0.106485
0.935121 0.204851 0.107546
0.010018 0.410782 0.000145
0.009816 0.417452 0.000591
0.008639 0.423147 0.000058
0.009223 0.426133 0.000282
0.010401 0.420439 0.000812
0.010018 0.410782 0.000145
0.009635 0.401124 0.000000
0.052261 0.395833 0.000591
0.117174 0.389376 0.000640
0.171921 0.384815 0.000469
0.229012 0.380868 0.000000
0.291772 0.378793 0.000000
0.365676 0.376135 0.000000
0.450916 0.376211 0.006890
0.542409 0.380135 0.020836
0.635270 0.383699 0.033051
0.724024 0.389356 0.045265
0.814339 0.399311 0.056949
0.897223 0.409768 0.068410
0.932992 0.418286 0.076358
0.933204 0.399275 0.079461
0.934986 0.373234 0.080387
0.936765 0.346520 0.084773
0.937752 0.335493 0.087567
0.937369 0.325500 0.088628
0.937964 0.316483 0.090669
0.935235 0.306211 0.090755
0.934852 0.295880 0.093547
0.935838 0.285191 0.094610
0.935455 0.274860 0.097402
0.936050 0.265845 0.099442
0.935275 0.258197 0.098020
0.934891 0.247867 0.100812
0.010888 0.540098 0.000176
0.012055 0.546071 0.000622
0.010494 0.542108 0.000000
0.011088 0.533426 0.000000
0.010706 0.523434 0.000793
0.011693 0.513079 0.000126
0.010333 0.502110 0.000211
0.020701 0.493543 0.000000
0.101452 0.487398 0.000000
0.163043 0.479350 0.000000
0.220527 0.473394 0.000000
0.285049 0.468612 0.000414
0.359930 0.467266 0.000000
0.445955 0.465002 0.000000
0.537256 0.465611 0.005413
0.627189 0.465573 0.018160
0.715942 0.470893 0.032106
0.799611 0.476992 0.046805
0.880544 0.484823 0.059774
0.928827 0.491725 0.068923
0.929622 0.476374 0.068786
0.930819 0.446673 0.072949
0.932016 0.417310 0.075382
0.933204 0.399275 0.079461
0.933605 0.385934 0.078569
0.934009 0.372257 0.079410
0.937732 0.359500 0.083933
0.936765 0.346520 0.084773
0.936775 0.334516 0.086590
0.936393 0.324524 0.087652
0.936010 0.314529 0.088715
0.935235 0.306211 0.090755
0.934852 0.295880 0.093547
0.013124 0.668716 0.000206
0.013720 0.660036 0.000516
0.012943 0.652389 0.000000
0.013538 0.643707 0.000000
0.013155 0.633715 0.000465
0.013165 0.622047 0.000551
0.012781 0.612390 0.000000
0.011815 0.599746 0.000000
0.068323 0.592477 0.000000
0.145750 0.584741 0.000000
0.209687 0.576971 0.000000
0.275971 0.569817 0.000000
0.353006 0.563754 0.000444
0.439032 0.561827 0.000000
0.530141 0.558447 0.000066
0.620465 0.558416 0.003184
0.703944 0.559183 0.020145
0.786052 0.560647 0.037105
0.865424 0.564177 0.050606
0.927590 0.568095 0.064414
0.928970 0.555730 0.064499
0.930167 0.526366 0.066933
0.928433 0.493399 0.069899
0.929238 0.466380 0.069848
0.930617 0.453008 0.075125
0.931412 0.437993 0.073258
0.931422 0.425653 0.076804
0.933194 0.411279 0.077644
0.933204 0.399275 0.079461
0.934582 0.387247 0.077817
0.934199 0.376918 0.080609
0.936947 0.363520 0.082426
0.936957 0.351517 0.084242
0.015192 0.769004 0.000942
0.014417 0.761356 0.000000
0.013640 0.753373 0.000000
0.014234 0.744692 0.000137
0.014436 0.738022 0.000000
0.014053 0.728029 0.000754
0.014063 0.716698 0.000000
0.013679 0.706704 0.000172
0.016619 0.698639 0.000000
0.122397 0.689598 0.000137
0.191418 0.681049 0.000186
0.265131 0.673394 0.000461
0.341190 0.666355 0.000000
0.430738 0.659013 0.000000
0.518918 0.652368 0.000000
0.607683 0.648708 0.000097
0.693315 0.646103 0.011645
0.772495 0.644637 0.025676
0.849912 0.644871 0.044144
0.920293 0.643931 0.061413
0.925579 0.636481 0.060215
0.926776 0.607116 0.062648
0.927782 0.573091 0.063883
0.928203 0.535407 0.068355
0.928605 0.522066 0.067466
0.927247 0.510760 0.069281
0.929018 0.496385 0.070120
0.928051 0.483406 0.070961
0.930799 0.470344 0.071046
0.929833 0.457365 0.071887
0.931604 0.442653 0.074456
0.931221 0.432660 0.075520
0.932992 0.418286 0.076358
0.017661 0.855950 0.000785
0.016493 0.849976 0.000339
0.017670 0.844283 0.000871
0.016895 0.836300 0.001180
0.015727 0.830327 0.000734
0.016320 0.821646 0.001043
0.016915 0.813301 0.000000
0.016532 0.803308 0.000684
0.016148 0.793651 0.000016
0.075394 0.784987 0.000597
0.166312 0.776947 0.000563
0.245109 0.767168 0.007004
0.324883 0.758030 0.016151
0.418147 0.748925 0.024015
0.508088 0.740245 0.021272
0.597245 0.736593 0.011833
0.679364 0.730759 0.006383
0.756590 0.727675 0.016729
0.833816 0.722241 0.039190
0.903613 0.718987 0.052777
0.925319 0.714162 0.054953
0.925146 0.685496 0.057387
0.925176 0.650158 0.059375
0.926384 0.609463 0.060164
0.927571 0.591765 0.062512
0.927580 0.580098 0.062597
0.927007 0.564772 0.065922
0.928385 0.552743 0.064278
0.928395 0.540740 0.066094
0.930167 0.526702 0.065204
0.929200 0.513049 0.069504
0.929209 0.501719 0.067858
0.929218 0.489715 0.069675
0.026984 0.925725 0.011097
0.024055 0.923132 0.006437
0.024256 0.916461 0.005991
0.025434 0.910768 0.006524
0.024266 0.904795 0.006079
0.024467 0.898459 0.003902
0.020953 0.892543 0.000750
0.020178 0.884560 0.001060
0.020772 0.876215 0.000000
0.018628 0.868930 0.000000
0.128120 0.857790 0.009985
0.216691 0.847791 0.017624
0.301157 0.839211 0.028727
0.393051 0.831139 0.034859
0.488660 0.822314 0.043699
0.579578 0.814946 0.040204
0.663459 0.806404 0.035508
0.740887 0.802028 0.017723
0.816161 0.796320 0.029578
0.886742 0.789045 0.044671
0.926629 0.783133 0.056168
0.925673 0.758486 0.057095
0.925309 0.725493 0.056597
0.925731 0.688482 0.057609
0.925951 0.658142 0.059066
0.925961 0.646138 0.060882
0.925971 0.634807 0.059238
0.925981 0.622803 0.061055
0.926384 0.609463 0.060164
0.926394 0.597123 0.063711
0.927772 0.585095 0.062067
0.927782 0.573091 0.063883
0.926815 0.560111 0.064723
0.032021 0.979921 0.027220
0.031829 0.975596 0.024290
0.031244 0.972946 0.022337
0.032029 0.968927 0.023844
0.030076 0.966974 0.021891
0.029886 0.962648 0.018961
0.030086 0.955978 0.018516
0.030287 0.948971 0.019801
0.027749 0.944368 0.015895
0.028344 0.936359 0.012741
0.053180 0.928466 0.013942
0.178115 0.918641 0.028108
0.267664 0.908946 0.040187
0.360535 0.900842 0.052488
0.457121 0.893665 0.058844
0.554100 0.883806 0.069413
0.642280 0.876824 0.071110
0.720100 0.870438 0.054077
0.794598 0.863469 0.031633
0.865573 0.855864 0.038829
0.925795 0.845825 0.052501
0.927375 0.826454 0.053872
0.926620 0.795136 0.054352
0.926649 0.759462 0.058071
0.927856 0.719439 0.055398
0.927472 0.709445 0.056461
0.924744 0.698836 0.058278
0.925731 0.688482 0.057609
0.926133 0.674806 0.058450
0.925751 0.665147 0.057782
0.924783 0.652168 0.058622
0.926163 0.639803 0.058708
0.926173 0.627800 0.060524
0.039038 1.000000 0.050742
0.035715 0.999813 0.043597
0.037085 0.999787 0.040136
0.036109 0.999147 0.037431
0.037085 1.000000 0.038407
0.036109 0.999483 0.035700
0.035523 0.996832 0.033746
0.035332 0.992509 0.030817
0.032402 0.989242 0.029618
0.032210 0.984918 0.026688
0.032412 0.978919 0.022782
0.116484 0.972014 0.034859
0.219715 0.966676 0.048582
0.312586 0.957900 0.064343
0.412495 0.951643 0.074384
0.512795 0.943375 0.085176
0.608404 0.934885 0.092285
0.691893 0.928018 0.088566
0.767760 0.919006 0.073043
0.834637 0.909221 0.042255
0.897598 0.899131 0.049004
0.928303 0.885430 0.056148
0.926761 0.858132 0.055121
0.926398 0.825477 0.052895
0.927797 0.789105 0.056614
0.927424 0.767782 0.056030
0.925673 0.758486 0.057095
0.927051 0.746458 0.055449
0.926669 0.736463 0.056512
0.925309 0.725493 0.056597
0.926296 0.715139 0.055930
0.926306 0.703136 0.057745
0.925923 0.693479 0.057078
0.043326 1.000000 0.122804
0.042349 1.000000 0.118367
0.043719 1.000000 0.113175
0.044113 0.999857 0.107009
0.043136 0.999889 0.100840
0.041183 0.999280 0.091965
0.041574 0.999286 0.082336
0.042944 0.999597 0.077144
0.037277 1.000000 0.063832
0.037668 0.999749 0.055934
0.038062 0.999420 0.048035
0.036109 0.999483 0.035700
0.153997 0.999479 0.052043
0.253704 0.998884 0.067718
0.348921 0.991396 0.079267
0.453912 0.983686 0.092012
0.553821 0.977429 0.102051
0.647085 0.968659 0.108183
0.726857 0.962546 0.101758
0.799986 0.953921 0.091426
0.864519 0.944529 0.056199
0.923180 0.933551 0.053097
0.928475 0.913762 0.055445
0.928696 0.883756 0.055171
0.927940 0.853111 0.052192
0.927183 0.821457 0.054403
0.926802 0.811800 0.053734
0.927395 0.802783 0.055774
0.927405 0.791452 0.054128
0.926629 0.783133 0.056168
0.927616 0.773114 0.053770
0.927232 0.762785 0.056563
0.925873 0.751814 0.056648
0.185449 0.999861 0.207442
0.177041 1.000000 0.202781
0.170004 0.999555 0.198121
0.156906 1.000000 0.186317
0.148501 1.000000 0.181657
0.135403 1.000000 0.173313
0.123674 0.999983 0.163238
0.104516 1.000000 0.152941
0.083012 0.999595 0.143398
0.055448 0.999230 0.131902
0.043719 0.999179 0.120098
0.111754 1.000000 0.124278
0.174121 1.000000 0.123797
0.239227 0.999123 0.121586
0.311369 0.999509 0.118843
0.399348 0.999871 0.117523
0.493779 0.999763 0.110258
0.592510 0.999536 0.118036
0.679905 0.995566 0.123413
0.757333 0.988838 0.117743
0.826747 0.980967 0.104704
0.887563 0.973337 0.061579
0.931758 0.961685 0.057054
0.930801 0.937039 0.057980
0.930237 0.908365 0.070042
0.929481 0.874359 0.084367
0.928906 0.861049 0.077309
0.928525 0.853408 0.066258
0.927165 0.844455 0.055961
0.926782 0.834798 0.055294
0.927375 0.826454 0.053872
0.926993 0.816460 0.054933
0.926610 0.806467 0.055996
0.226694 1.000000 0.241348
0.226694 1.000000 0.241348
0.226694 1.000000 0.241348
0.226694 1.000000 0.241348
0.226694 1.000000 0.241348
0.226694 1.000000 0.241348
0.224348 1.000000 0.240372
0.214965 0.999825 0.233003
0.205583 0.999716 0.223907
0.193854 0.999329 0.213832
0.183102 0.999582 0.206465
0.185840 0.999531 0.199543
0.217905 0.999489 0.192758
0.257006 1.000000 0.188903
0.310968 1.000000 0.185492
0.377049 1.000000 0.182527
0.456622 0.999817 0.181738
0.539909 0.999957 0.176735
0.628279 0.999652 0.169246
0.706875 0.999905 0.158827
0.781565 0.998940 0.130660
0.848040 0.999471 0.116336
0.906701 0.996223 0.073434
0.932523 0.981672 0.054930
0.933712 0.957926 0.088426
0.933731 0.928542 0.119747
0.933357 0.906881 0.120894
0.932976 0.897896 0.116766
0.931616 0.889615 0.103007
0.930841 0.882640 0.098124
0.929481 0.874022 0.086098
0.930468 0.865348 0.076778
0.928715 0.857398 0.070919
0.226694 1.000000 0.241348
0.226694 1.000000 0.241348
0.226694 1.000000 0.241348
0.226694 1.000000 0.241348
0.226694 1.000000 0.241348
0.226694 1.000000 0.241348
0.226694 1.000000 0.241348
0.226694 1.000000 0.241348
0.226694 1.000000 0.241348
0.226694 1.000000 0.241348
0.226694 1.000000 0.241348
0.228062 0.999851 0.241348
0.258366 1.000000 0.245922
0.293752 0.999697 0.249743
0.327186 0.999294 0.241227
0.374694 1.000000 0.238570
0.436084 0.999525 0.237113
0.503535 0.999687 0.230688
0.581739 0.999933 0.229898
0.658965 0.999876 0.224672
0.732869 0.999234 0.214032
0.803451 0.999354 0.191054
0.868366 0.999282 0.158226
0.922729 0.999514 0.082975
0.936803 0.997829 0.106141
0.935645 0.975484 0.130008
0.937034 0.948092 0.147484
0.934889 0.941142 0.146063
0.935483 0.933805 0.139449
0.935100 0.924484 0.137051
0.934325 0.917845 0.130438
0.933942 0.909195 0.124578
0.932190 0.901580 0.116988
0.226694 1.000000 0.241348
0.226694 1.000000 0.241348
0.226694 1.000000 0.241348
0.226694 1.000000 0.241348
0.226694 1.000000 0.241348
0.226694 1.000000 0.241348
0.226694 1.000000 0.241348
0.226694 1.000000 0.241348
0.226694 1.000000 0.241348
0.226694 1.000000 0.241348
0.226694 1.000000 0.241348
0.226694 1.000000 0.241348
0.244876 1.000000 0.245477
0.280262 1.000000 0.249298
0.322687 1.000000 0.257778
0.367849 0.999348 0.262797
0.423762 0.999416 0.269993
0.485737 0.999344 0.279140
0.553772 0.999468 0.288512
0.621224 0.999296 0.283817
0.691020 1.000000 0.276637
0.758863 0.999236 0.265773
0.826707 1.000000 0.246259
0.890253 0.999696 0.218622
0.941092 0.999293 0.173012
0.938556 0.999731 0.143148
0.937971 0.993384 0.160230
0.938372 0.980043 0.159340
0.936230 0.973765 0.154458
0.938776 0.967038 0.156718
0.938001 0.960062 0.151835
0.938594 0.952054 0.148683
0.936450 0.945105 0.147262
0.226694 1.000000 0.241348
0.226694 1.000000 0.241348
0.226694 1.000000 0.241348
0.226694 1.000000 0.241348
0.226694 1.000000 0.241348
0.226694 1.000000 0.241348
0.226694 1.000000 0.241348
0.226694 1.000000 0.241348
0.226694 1.000000 0.241348
0.226694 1.000000 0.241348
0.226694 1.000000 0.241348
0.226694 1.000000 0.241348
0.234123 0.999712 0.243301
0.264426 1.000000 0.247875
0.306850 0.999724 0.258087
0.348297 0.999790 0.260398
0.402842 0.999883 0.271054
0.462471 1.000000 0.275766
0.525814 0.999771 0.283184
0.592873 0.999256 0.289847
0.662277 0.999356 0.295757
0.724645 0.998955 0.297007
0.789357 0.999841 0.294042
0.849379 1.000000 0.287394
0.906471 1.000000 0.267434
0.944214 0.999155 0.216942
0.941092 0.999293 0.173012
0.941092 0.999630 0.171281
0.941092 0.999630 0.171281
0.940116 0.998989 0.168575
0.939533 0.996003 0.168352
0.938756 0.988692 0.165200
0.938958 0.983030 0.159563
0.226694 1.000000 0.241348
0.226694 1.000000 0.241348
0.226694 1.000000 0.241348
0.226694 1.000000 0.241348
0.226694 1.000000 0.241348
0.226694 1.000000 0.241348
0.226694 1.000000 0.241348
0.226694 1.000000 0.241348
0.226694 1.000000 0.241348
0.226694 1.000000 0.241348
0.226694 1.000000 0.241348
0.226694 1.000000 0.241348
0.226694 1.000000 0.241348
0.253675 0.999270 0.245699
0.288668 1.000000 0.250495
0.330116 0.999199 0.259731
0.378600 1.000000 0.264973
0.436860 1.000000 0.273144
0.500204 1.000000 0.280562
0.567263 0.999166 0.288957
0.632951 1.000000 0.292160
0.700011 0.999504 0.298824
0.762378 0.999775 0.296614
0.826114 1.000000 0.289211
0.884183 0.999404 0.278880
