Sources/Resources/LUT/gfx-eterna-55-3d-lut-v100/33Grid/F-Log2/FLog2_to_REALA-ACE_33grid_V.1.00.cube
#title:FLog2_to_REALA-ACE
#model:GFX ETERNA 55
#FUJIFILM Corporation
#Gamma:F-Log2 to REALA ACE
#Gamut:F-Gamut to ITU-R BT.709
#Version:1.00
LUT_3D_SIZE 9
0.000000 0.000000 0.000000
0.009776 0.000115 0.000000
0.091693 0.000000 0.000000
0.372442 0.000299 0.006747
0.719071 0.000457 0.047657
0.903450 0.156170 0.355622
0.903841 0.158865 0.332147
0.903841 0.158865 0.332147
0.903841 0.158865 0.332147
0.000000 0.008681 0.000000
0.005859 0.006867 0.000667
0.091301 0.001953 0.000000
0.422688 0.000176 0.004090
0.820309 0.028073 0.119648
0.903841 0.157185 0.340800
0.903841 0.158865 0.332147
0.903841 0.158865 0.332147
0.903841 0.158865 0.332147
0.000687 0.112652 0.000649
0.000000 0.118347 0.000116
0.135962 0.131951 0.000493
0.471284 0.101094 0.000000
0.826905 0.100347 0.064289
0.906178 0.180222 0.284585
0.905986 0.173208 0.295500
0.903450 0.164236 0.314090
0.903841 0.158865 0.332147
0.118685 0.436216 0.081012
0.127083 0.447351 0.087316
0.104440 0.408898 0.062012
0.376227 0.383897 0.000449
0.797967 0.349103 0.000000
0.953722 0.390976 0.188309
0.939112 0.329323 0.175734
0.928590 0.280174 0.207980
0.920213 0.238984 0.236457
0.642948 0.915686 0.571691
0.608365 0.895184 0.536673
0.552491 0.858193 0.479637
0.511675 0.816221 0.408757
0.747541 0.787159 0.051133
0.984535 0.751256 0.000000
0.980928 0.611572 0.060437
0.976467 0.561948 0.096368
0.967908 0.504428 0.123730
0.663656 0.929187 0.593484
0.663656 0.929187 0.593484
0.663656 0.929187 0.593484
0.663656 0.929187 0.593484
0.740480 0.942135 0.590878
0.978202 0.984313 0.478344
0.987922 0.909181 0.000208
0.987196 0.841517 0.007868
0.986058 0.798862 0.016331
0.663656 0.928851 0.595215
0.663656 0.928851 0.595215
0.663656 0.928851 0.595215
0.663656 0.928851 0.595215
0.683791 0.932068 0.594375
0.818674 0.955729 0.581350
0.996777 0.988943 0.448618
0.997168 0.988277 0.442449
0.997168 0.988613 0.440718
0.663656 0.928851 0.595215
0.663656 0.928851 0.595215
0.663656 0.928851 0.595215
0.663656 0.928851 0.595215
0.666002 0.929466 0.594461
0.746541 0.942332 0.591102
0.929516 0.976300 0.544496
0.994430 0.988327 0.449371
0.994430 0.988327 0.449371
0.663656 0.928851 0.595215
0.663656 0.928851 0.595215
0.663656 0.928851 0.595215
0.663656 0.928851 0.595215
0.663656 0.928851 0.595215
0.699234 0.934389 0.593313
0.851906 0.961324 0.576743
0.995407 0.988968 0.452079
0.994430 0.988327 0.449371
0.000000 0.000000 0.000000
0.012120 0.000394 0.000445
0.103815 0.000001 0.001831
0.391993 0.000192 0.007414
0.767163 0.000011 0.069449
0.903841 0.155840 0.347723
0.903841 0.158865 0.332147
0.903841 0.158865 0.332147
0.903841 0.158865 0.332147
0.000000 0.009651 0.010297
0.010742 0.010742 0.010742
0.102054 0.002373 0.002808
0.460420 0.000000 0.008887
0.862081 0.099061 0.167105
0.903841 0.157857 0.337339
0.903841 0.158865 0.332147
0.903841 0.158865 0.332147
0.903841 0.158865 0.332147
0.000467 0.139632 0.016496
0.000084 0.133000 0.000254
0.148084 0.132344 0.000938
0.481070 0.089542 0.000000
0.839217 0.103385 0.076317
0.905595 0.175891 0.291285
0.905403 0.168541 0.303929
0.903450 0.163227 0.319281
0.903841 0.158865 0.332147
0.135085 0.460161 0.094597
0.121224 0.441156 0.083188
0.101319 0.401308 0.057882
0.386988 0.373322 0.000980
0.803453 0.334310 0.000444
0.949824 0.374395 0.189680
0.934822 0.312735 0.186734
0.925277 0.265571 0.214765
0.918461 0.229015 0.240979
0.637672 0.912814 0.566055
0.594885 0.886509 0.522468
0.532758 0.845333 0.460552
0.488823 0.796778 0.380352
0.750883 0.770122 0.027301
0.981233 0.726329 0.000000
0.978008 0.594622 0.069708
0.972964 0.541339 0.108874
0.967334 0.487422 0.135707
0.663656 0.929187 0.593484
0.663656 0.929187 0.593484
0.663656 0.929187 0.593484
0.663656 0.929187 0.593484
0.746541 0.942332 0.591102
0.982711 0.979969 0.420348
0.987349 0.894528 0.000070
0.988183 0.830827 0.008930
0.986853 0.783511 0.016195
0.661894 0.929878 0.603113
0.663264 0.929853 0.599653
0.662287 0.929548 0.595215
0.663656 0.928851 0.595215
0.683791 0.932068 0.594375
0.824734 0.956261 0.579843
0.994430 0.988327 0.449371
0.997168 0.988277 0.442449
0.997168 0.988949 0.438989
0.661894 0.929878 0.603113
0.663264 0.929853 0.599653
0.662287 0.929548 0.595215
0.663656 0.928851 0.595215
0.666979 0.930443 0.595438
0.748888 0.942611 0.592079
0.931862 0.976916 0.543743
0.994430 0.988327 0.449371
0.994430 0.988327 0.449371
0.661894 0.929543 0.604843
0.663264 0.929853 0.599653
0.662287 0.929212 0.596944
0.663656 0.928851 0.595215
0.663656 0.928851 0.595215
0.700211 0.935366 0.594290
0.856599 0.962218 0.576965
0.995407 0.988632 0.453809
0.994430 0.988327 0.449371
0.000383 0.000000 0.052581
0.011527 0.000337 0.045129
0.150337 0.000000 0.060411
0.451612 0.000419 0.072606
0.812304 0.007869 0.150437
0.903841 0.157521 0.339071
0.903841 0.158865 0.332147
0.903841 0.158865 0.332147
0.903841 0.158865 0.332147
0.000757 0.012834 0.094696
0.000172 0.012873 0.078898
0.174759 0.007907 0.109137
0.504979 0.000157 0.113880
0.886283 0.129715 0.254175
0.903841 0.159201 0.330418
0.903841 0.158865 0.332147
0.903841 0.158865 0.332147
0.903841 0.158865 0.332147
0.000629 0.150057 0.167989
0.000639 0.142758 0.145579
0.150391 0.150391 0.150391
0.495719 0.086043 0.107109
0.853272 0.110246 0.175450
0.906963 0.174185 0.296477
0.905403 0.167533 0.309121
0.903450 0.161547 0.327934
0.903841 0.158865 0.332147
0.079697 0.503509 0.239391
0.086390 0.460791 0.176237
0.075688 0.413125 0.115656
0.394217 0.370753 0.046640
0.826125 0.330368 0.064078
0.946704 0.357730 0.232274
0.933463 0.299749 0.197203
0.921573 0.251634 0.227719
0.915340 0.218737 0.250694
0.617144 0.904886 0.600750
0.579249 0.877845 0.530984
0.521231 0.837603 0.453492
0.470651 0.786872 0.367656
0.754617 0.751410 0.002492
0.983981 0.707218 0.031086
0.978018 0.580266 0.083636
0.970043 0.524726 0.116414
0.963438 0.470504 0.138809
0.659740 0.930227 0.624101
0.661894 0.929543 0.604843
0.663656 0.929187 0.593484
0.663656 0.929187 0.593484
0.748888 0.942947 0.590348
0.989759 0.977541 0.380102
0.987750 0.880850 0.000910
0.987608 0.815501 0.012254
0.986278 0.768185 0.019519
0.657978 0.930246 0.637192
0.661109 0.929865 0.622372
0.661503 0.929872 0.612743
0.661894 0.929206 0.606574
0.683399 0.932733 0.600544
0.829427 0.957493 0.578336
0.997168 0.987605 0.445910
0.997168 0.988277 0.442449
0.998165 0.980370 0.369187
0.658954 0.931222 0.638168
0.659740 0.930227 0.624101
0.661503 0.929872 0.612743
0.661894 0.929543 0.604843
0.666586 0.930773 0.603335
0.749864 0.943251 0.594784
0.934600 0.976194 0.540281
0.994430 0.988327 0.449371
0.994430 0.988327 0.449371
0.658954 0.930886 0.639899
0.659740 0.930227 0.624101
0.661503 0.929536 0.614473
0.661894 0.929206 0.606574
0.661894 0.929878 0.603113
0.701187 0.936006 0.596995
0.858943 0.962833 0.576211
0.995407 0.988632 0.453809
0.994430 0.988327 0.449371
0.000000 0.001636 0.231539
0.000747 0.002993 0.205361
0.200945 0.000135 0.226107
0.500851 0.000000 0.248683
0.870447 0.105205 0.379079
0.912200 0.191128 0.469625
0.908312 0.172961 0.419167
0.904225 0.163145 0.360505
0.903841 0.158865 0.332147
0.000000 0.023195 0.300500
0.000000 0.019199 0.305468
0.192309 0.018477 0.342767
0.561831 0.000483 0.365704
0.908302 0.168497 0.502144
0.914143 0.200379 0.493988
0.908504 0.175941 0.429020
0.905201 0.163113 0.366671
0.903841 0.158865 0.332147
0.000000 0.152351 0.415325
0.000000 0.143702 0.409465
0.064729 0.135908 0.406809
0.523216 0.112289 0.405261
0.892084 0.166929 0.458524
0.920759 0.236884 0.502828
0.912008 0.194533 0.426894
0.905201 0.164121 0.361481
0.903841 0.158865 0.332147
0.000000 0.512449 0.575598
0.000518 0.453892 0.488391
0.000577 0.401028 0.400653
0.406250 0.406250 0.406250
0.867303 0.355593 0.391563
0.953873 0.385846 0.479883
0.939081 0.322652 0.390053
0.925459 0.262407 0.316246
0.914756 0.214405 0.257394
0.589943 0.901218 0.776640
0.561815 0.883944 0.716641
0.503211 0.843739 0.623352
0.445987 0.793185 0.519765
0.773919 0.755146 0.318121
0.996054 0.700078 0.370273
0.989124 0.579975 0.321567
0.978430 0.520979 0.259340
0.966368 0.461000 0.205765
0.651898 0.934227 0.735433
0.654445 0.933213 0.708277
0.656016 0.932231 0.674954
0.657586 0.930575 0.645089
0.736957 0.941836 0.618789
0.984866 0.974243 0.427046
0.996721 0.861270 0.240965
0.992480 0.801132 0.176253
0.989599 0.753310 0.104535
0.653660 0.934209 0.722343
0.655230 0.932554 0.692481
0.656408 0.931901 0.667054
0.658563 0.931216 0.647797
0.680066 0.934071 0.645225
0.824534 0.957556 0.607976
0.995407 0.987624 0.459000
0.997753 0.988911 0.454785
0.997983 0.972444 0.324812
0.652292 0.933897 0.727535
0.653862 0.932579 0.695942
0.656408 0.931565 0.668785
0.657586 0.930239 0.646820
0.661301 0.931165 0.640876
0.746924 0.944595 0.629840
0.927946 0.977282 0.577821
0.995407 0.988632 0.453809
0.994430 0.987655 0.452832
0.653268 0.934537 0.730241
0.654838 0.933219 0.698647
0.656408 0.931228 0.670516
0.658563 0.930880 0.649527
0.657978 0.930246 0.637192
0.699618 0.936653 0.632051
0.854050 0.962896 0.605852
0.995990 0.988258 0.471336
0.995407 0.988968 0.452079
0.000506 0.007266 0.458111
0.001291 0.009295 0.428470
0.192892 0.001300 0.446817
0.565094 0.041833 0.521152
0.871611 0.290372 0.681835
0.895069 0.301901 0.646610
0.903504 0.274770 0.609996
0.911165 0.241334 0.565039
0.916669 0.213289 0.515114
0.000000 0.034810 0.550235
0.000000 0.031741 0.591234
0.127940 0.021155 0.617738
0.605418 0.183668 0.687325
0.850622 0.353018 0.782663
0.888596 0.321335 0.674879
0.898208 0.289854 0.631874
0.908808 0.249698 0.579551
0.917254 0.214931 0.522257
0.085502 0.243570 0.748820
0.117949 0.248481 0.766930
0.086517 0.202583 0.725914
0.536922 0.254115 0.744086
0.862724 0.377418 0.779477
0.894225 0.364833 0.701692
0.901905 0.311089 0.641333
0.907632 0.254047 0.585942
0.917254 0.214931 0.522257
0.225740 0.619936 0.850188
0.204869 0.563748 0.843027
0.119496 0.496403 0.796941
0.326187 0.448423 0.801703
0.864972 0.492689 0.788246
0.936923 0.496480 0.742773
0.949900 0.428995 0.653614
0.947813 0.363804 0.592140
0.934390 0.296216 0.521348
0.502980 0.836009 0.877917
0.496144 0.830853 0.862430
0.479734 0.822273 0.829722
0.411155 0.781230 0.775480
0.769531 0.769531 0.769531
0.998722 0.709443 0.734800
0.996867 0.609974 0.635071
0.987543 0.552296 0.562462
0.976267 0.492330 0.489629
0.651093 0.934696 0.872192
0.650510 0.935406 0.852933
0.651295 0.935755 0.831946
0.651104 0.935800 0.806519
0.695873 0.943171 0.779637
0.959445 0.943862 0.607325
0.998646 0.835379 0.566259
0.997917 0.783511 0.492585
0.998552 0.742613 0.418829
0.650902 0.935749 0.841575
0.650710 0.937138 0.809227
0.652282 0.936491 0.774172
0.652875 0.934532 0.739871
0.656006 0.934823 0.721590
0.807701 0.959101 0.712696
0.993625 0.989805 0.580938
0.997561 0.972823 0.512421
0.998385 0.949021 0.375836
0.650902 0.934741 0.846765
0.650710 0.936801 0.810958
0.651888 0.937156 0.780340
0.651505 0.934893 0.741602
0.652683 0.933904 0.717906
0.738890 0.947632 0.720938
0.915221 0.978081 0.675617
0.994612 0.989532 0.528356
0.994813 0.988910 0.496762
0.651878 0.935381 0.849473
0.650710 0.936129 0.814418
0.651888 0.936820 0.782070
0.652482 0.935198 0.746039
0.654053 0.933542 0.716176
0.682987 0.937241 0.706906
0.839373 0.964430 0.687851
0.995780 0.990128 0.556489
0.995790 0.989215 0.501200
0.053038 0.037096 0.663570
0.025283 0.031737 0.652605
0.175408 0.059349 0.664922
0.611017 0.249397 0.779638
0.848429 0.394322 0.832726
0.867970 0.412267 0.800430
0.870729 0.392916 0.772914
0.876033 0.368517 0.739007
0.883492 0.340743 0.699688
0.172199 0.139960 0.746544
0.181170 0.164069 0.761636
0.181543 0.184385 0.767410
0.668414 0.339035 0.827145
0.855055 0.419159 0.841652
0.865212 0.432292 0.824484
0.867779 0.408280 0.795770
0.873869 0.380868 0.758180
0.881137 0.349108 0.714199
0.172912 0.439820 0.828262
0.171350 0.435521 0.828793
0.164343 0.399682 0.826122
0.505898 0.393657 0.843645
0.870842 0.474447 0.858219
0.870458 0.466470 0.848898
0.870499 0.427194 0.811173
0.871907 0.388230 0.768253
0.880352 0.352120 0.717883
0.225740 0.619936 0.850188
0.218129 0.604446 0.847121
0.212279 0.585910 0.846538
0.209963 0.551302 0.842360
0.853329 0.600768 0.904751
0.897735 0.572795 0.889485
0.903853 0.516432 0.821004
0.902925 0.465857 0.775465
0.904737 0.414224 0.728196
0.423648 0.786144 0.863030
0.408798 0.775478 0.862672
0.389842 0.766904 0.862312
0.356036 0.748000 0.859863
0.625246 0.737842 0.934220
0.940606 0.731428 0.936786
0.963556 0.660077 0.832804
0.964773 0.615779 0.792148
0.972253 0.566352 0.744348
0.619240 0.909343 0.914957
0.613573 0.907473 0.913758
0.603022 0.900382 0.909407
0.587195 0.889411 0.904610
0.613965 0.908150 0.900667
0.903320 0.903320 0.903320
0.999391 0.826608 0.832184
0.998654 0.783384 0.774000
0.999479 0.744121 0.717015
0.647963 0.928690 0.919891
0.649332 0.929338 0.912970
0.651093 0.932007 0.886035
0.650510 0.934734 0.856394
0.650902 0.935749 0.841575
0.764866 0.958533 0.836536
0.994764 0.995492 0.762824
0.998528 0.948836 0.701934
0.997973 0.923618 0.636211
0.647963 0.928690 0.919891
0.650309 0.929979 0.915676
0.649725 0.931696 0.891227
0.651487 0.935039 0.860832
0.651295 0.936091 0.830214
0.689611 0.943931 0.809277
0.891151 0.979746 0.807270
0.993022 0.992005 0.673988
0.992638 0.990749 0.630058
0.647963 0.928690 0.919891
0.646986 0.928050 0.917183
0.650702 0.932337 0.893933
0.650510 0.933389 0.863316
0.651295 0.935755 0.831946
0.651104 0.936136 0.804790
0.825078 0.967555 0.812051
0.995167 0.994250 0.699637
0.993615 0.991054 0.634496
0.178805 0.185443 0.769141
0.180385 0.167753 0.761860
0.182299 0.213350 0.779043
0.669361 0.372997 0.838245
0.867137 0.463869 0.853867
0.873177 0.485721 0.862570
0.870842 0.474447 0.858219
0.866161 0.462557 0.854622
0.865193 0.450585 0.850270
0.156206 0.313217 0.812964
0.155020 0.329906 0.815809
0.154225 0.344585 0.819406
0.484949 0.427109 0.854833
0.883508 0.521471 0.874117
0.877467 0.499620 0.865415
0.874154 0.487034 0.861816
0.870258 0.471460 0.857997
0.865969 0.457897 0.853421
0.179728 0.470663 0.831465
0.177393 0.458716 0.830573
0.173687 0.447468 0.829684
0.171350 0.435521 0.828793
0.825017 0.557756 0.892089
0.886044 0.526747 0.874562
0.876490 0.498307 0.866167
0.871033 0.479107 0.859417
0.866552 0.460883 0.853645
0.216960 0.598472 0.846676
0.211111 0.580273 0.844363
0.205262 0.562075 0.842051
0.199804 0.541866 0.840492
0.644925 0.591774 0.906587
0.904167 0.593309 0.895481
0.897735 0.572795 0.889485
0.888964 0.541008 0.879138
0.880195 0.509221 0.868790
0.397856 0.769726 0.861026
0.350759 0.744119 0.859417
0.305034 0.717477 0.859540
0.275535 0.689810 0.856644
0.318371 0.664164 0.867780
0.925937 0.736417 0.941001
0.929500 0.688030 0.923815
0.920338 0.657917 0.914445
0.918616 0.619669 0.884617
0.613573 0.907473 0.913758
0.586219 0.888435 0.903634
0.550852 0.866911 0.893062
0.510601 0.839833 0.881071
0.470352 0.812754 0.869079
0.770993 0.849838 0.977526
0.967891 0.828103 0.967073
0.971442 0.795416 0.929038
0.977342 0.763008 0.891980
0.647963 0.928690 0.919891
0.647963 0.928690 0.919891
0.647963 0.928690 0.919891
0.647963 0.928690 0.919891
0.646986 0.927378 0.920644
0.676302 0.937037 0.931078
0.972073 0.970005 0.970703
0.998508 0.929826 0.919800
0.998730 0.907550 0.879727
0.647963 0.928690 0.919891
0.647963 0.928690 0.919891
0.647963 0.928690 0.919891
0.647963 0.928690 0.919891
0.647963 0.928690 0.919891
0.652655 0.932273 0.906270
0.848124 0.977543 0.914336
0.994946 0.998041 0.834887
0.994956 0.996120 0.784789
0.647963 0.928690 0.919891
0.647963 0.928690 0.919891
0.647963 0.928690 0.919891
0.647963 0.928690 0.919891
0.647963 0.928690 0.919891
0.651285 0.932635 0.907999
0.748043 0.956477 0.899808
0.987706 0.996816 0.868742
0.993586 0.996145 0.788250
0.155815 0.315227 0.812212
0.157374 0.318854 0.815141
0.153831 0.346259 0.820382
0.439777 0.437448 0.860110
0.893808 0.590207 0.895790
0.889357 0.538998 0.879890
0.887212 0.532384 0.876738
0.884484 0.522783 0.873363
0.881363 0.514858 0.870965
0.161031 0.386759 0.824254
0.161423 0.385085 0.823277
0.160447 0.383772 0.824033
0.289642 0.421503 0.847708
0.845727 0.574618 0.896578
0.889549 0.543995 0.879360
0.889549 0.543995 0.879360
0.886821 0.534058 0.877715
0.883508 0.521807 0.872387
0.178751 0.469350 0.832219
0.175440 0.456427 0.830352
0.173495 0.442807 0.828484
0.171935 0.438507 0.829015
0.759712 0.564878 0.898207
0.893647 0.552897 0.882735
0.889549 0.543995 0.879360
0.888964 0.541008 0.879138
0.885068 0.525435 0.875317
0.216376 0.595485 0.846453
0.209943 0.574300 0.843918
0.202140 0.553812 0.841383
0.196683 0.533602 0.839824
0.591365 0.579647 0.903913
0.920147 0.653256 0.913246
0.903191 0.591997 0.896234
0.900856 0.580721 0.891884
0.893839 0.557222 0.885665
0.383589 0.762047 0.860890
0.339817 0.738031 0.859505
0.296828 0.710331 0.857895
0.267329 0.682327 0.856731
0.288471 0.650510 0.862316
0.870225 0.727663 0.943742
0.926379 0.680104 0.921419
0.920922 0.660567 0.916398
0.916834 0.640669 0.909649
0.605367 0.900662 0.910384
0.575276 0.882683 0.901988
0.540301 0.859821 0.888710
0.500050 0.832743 0.876718
0.458431 0.805689 0.868188
0.702596 0.818066 0.960738
0.963995 0.812865 0.961523
0.951711 0.774825 0.949753
0.948207 0.757579 0.944957
0.647963 0.928690 0.919891
0.647963 0.928690 0.919891
0.647963 0.928690 0.919891
0.647963 0.928690 0.919891
0.644641 0.926763 0.921399
0.666920 0.935248 0.930633
0.912856 0.938291 0.998067
0.986789 0.902648 0.987683
0.983869 0.888386 0.983109
0.647963 0.928690 0.919891
0.647963 0.928690 0.919891
0.647963 0.928690 0.919891
0.647963 0.928690 0.919891
0.647963 0.928690 0.919891
0.646986 0.927041 0.922375
0.782826 0.965940 0.956878
0.998047 0.998047 0.998047
0.996487 0.998452 0.974351
0.647963 0.928690 0.919891
0.647963 0.928690 0.919891
0.647963 0.928690 0.919891
0.647963 0.928690 0.919891
0.647963 0.928690 0.919891
0.646986 0.927378 0.920644
0.676302 0.937373 0.929347
0.927082 0.994656 0.987478
0.997464 0.998757 0.978789
0.158111 0.371826 0.823141
0.159863 0.380785 0.823808
0.161423 0.385085 0.823277
0.423145 0.451480 0.865746
0.903191 0.592333 0.894505
0.889549 0.543995 0.879360
0.889549 0.543995 0.879360
0.889549 0.543995 0.879360
0.889549 0.543995 0.879360
0.161615 0.389746 0.824476
0.159863 0.380785 0.823808
0.160447 0.383772 0.824033
0.319744 0.428151 0.854457
0.857062 0.579032 0.895515
0.889549 0.543995 0.879360
0.889549 0.543995 0.879360
0.889549 0.543995 0.879360
0.889549 0.543995 0.879360
0.178559 0.464689 0.831019
0.175248 0.451430 0.830882
0.171935 0.438507 0.829015
0.171744 0.433847 0.827817
0.770856 0.564296 0.897676
0.891694 0.550609 0.882511
0.889549 0.543995 0.879360
0.889549 0.543995 0.879360
0.889549 0.543995 0.879360
0.213840 0.590209 0.846007
0.205453 0.566734 0.843250
0.200389 0.544852 0.840715
0.194540 0.526654 0.838403
0.603879 0.578367 0.903383
0.917026 0.645330 0.910848
0.901631 0.588033 0.895035
0.899294 0.576758 0.890683
0.896566 0.567158 0.887308
0.371670 0.754982 0.860001
0.324574 0.729374 0.858392
0.286670 0.700559 0.857759
0.254242 0.669289 0.855394
0.298447 0.643619 0.863071
0.873748 0.722921 0.941789
0.924234 0.673154 0.919996
0.919754 0.654931 0.914223
0.915274 0.636706 0.908449
0.597746 0.896501 0.908962
0.565701 0.876570 0.898614
0.525451 0.849827 0.884891
0.487153 0.825038 0.873121
0.444166 0.798346 0.866320
0.710227 0.810895 0.960516
0.961265 0.802929 0.959879
0.950543 0.769189 0.947579
0.944502 0.746665 0.942336
0.647963 0.928690 0.919891
0.647963 0.928690 0.919891
0.647963 0.928690 0.919891
0.647963 0.928690 0.919891
0.640341 0.924195 0.920198
0.665359 0.931286 0.929434
0.917749 0.932515 0.997843
0.985621 0.897011 0.985508
0.979973 0.872813 0.979288
0.647963 0.928690 0.919891
0.647963 0.928690 0.919891
0.647963 0.928690 0.919891
0.647963 0.928690 0.919891
0.647963 0.928690 0.919891
0.646986 0.927041 0.922375
0.785564 0.964209 0.958610
0.998047 0.998047 0.998047
0.994926 0.989785 0.997380
0.647963 0.928690 0.919891
0.647963 0.928690 0.919891
0.647963 0.928690 0.919891
0.647963 0.928690 0.919891
0.647963 0.928690 0.919891
0.646986 0.927378 0.920644
0.678649 0.937653 0.930324
0.929427 0.994935 0.988454
0.998047 0.998047 0.998047
