Sources/Resources/LUT/gfx-eterna-55-3d-lut-v100/33Grid/F-Log2/FLog2_to_ETERNA_33grid_V.1.00.cube
#title:FLog2_to_ETERNA
#model:GFX ETERNA 55
#FUJIFILM Corporation
#Gamma:F-Log2 to ETERNA
#Gamut:F-Gamut to ITU-R BT.709
#Version:1.00
LUT_3D_SIZE 9
0.005859 0.005859 0.005859
0.038508 0.006788 0.009681
0.162064 0.008655 0.027222
0.325307 0.012623 0.049785
0.645146 0.017039 0.096196
0.933879 0.048834 0.134621
0.933841 0.097183 0.125625
0.933841 0.097183 0.125625
0.933841 0.097183 0.125625
0.005256 0.026879 0.002004
0.023438 0.027135 0.004403
0.157948 0.023086 0.023676
0.361268 0.026810 0.053742
0.757559 0.019825 0.112540
0.934242 0.083170 0.128194
0.933841 0.097183 0.125625
0.933841 0.097183 0.125625
0.933841 0.097183 0.125625
0.006910 0.152848 0.000082
0.005148 0.155554 0.000000
0.157055 0.159478 0.000456
0.396738 0.164048 0.033590
0.766422 0.179667 0.088618
0.935331 0.185842 0.110647
0.934959 0.163509 0.115258
0.935180 0.132496 0.120175
0.935985 0.104469 0.125316
0.010018 0.410782 0.000145
0.010401 0.420439 0.000812
0.117174 0.389376 0.000640
0.365676 0.376135 0.000000
0.724024 0.389356 0.045265
0.933204 0.399275 0.079461
0.937369 0.325500 0.088628
0.935838 0.285191 0.094610
0.934891 0.247867 0.100812
0.017661 0.855950 0.000785
0.015727 0.830327 0.000734
0.016148 0.793651 0.000016
0.324883 0.758030 0.016151
0.679364 0.730759 0.006383
0.925319 0.714162 0.054953
0.927571 0.591765 0.062512
0.928395 0.540740 0.066094
0.929218 0.489715 0.069675
0.043326 1.000000 0.122804
0.043136 0.999889 0.100840
0.037277 1.000000 0.063832
0.153997 0.999479 0.052043
0.553821 0.977429 0.102051
0.864519 0.944529 0.056199
0.927940 0.853111 0.052192
0.927405 0.791452 0.054128
0.925873 0.751814 0.056648
0.226694 1.000000 0.241348
0.226694 1.000000 0.241348
0.226694 1.000000 0.241348
0.244876 1.000000 0.245477
0.423762 0.999416 0.269993
0.691020 1.000000 0.276637
0.941092 0.999293 0.173012
0.936230 0.973765 0.154458
0.936450 0.945105 0.147262
0.226694 1.000000 0.241348
0.226694 1.000000 0.241348
0.226694 1.000000 0.241348
0.226694 1.000000 0.241348
0.339891 0.999650 0.257468
0.579383 0.999560 0.289402
0.837257 1.000000 0.286948
0.940699 0.999288 0.182640
0.940699 0.999288 0.182640
0.226694 1.000000 0.241348
0.226694 1.000000 0.241348
0.226694 1.000000 0.241348
0.226694 1.000000 0.241348
0.274202 0.999805 0.249074
0.474591 1.000000 0.276210
0.740480 0.999603 0.294968
0.947143 0.999731 0.231984
0.940699 0.999288 0.182640
0.005466 0.007197 0.008567
0.044569 0.006985 0.009902
0.171839 0.008097 0.030151
0.342511 0.011229 0.054667
0.695584 0.019896 0.103390
0.934846 0.062151 0.132051
0.933841 0.097183 0.125625
0.933841 0.097183 0.125625
0.933841 0.097183 0.125625
0.006616 0.031800 0.033067
0.030273 0.030273 0.030273
0.165175 0.028920 0.026074
0.389427 0.019837 0.058625
0.807212 0.026702 0.118226
0.935017 0.091153 0.127887
0.933841 0.097183 0.125625
0.933841 0.097183 0.125625
0.933841 0.097183 0.125625
0.011189 0.164635 0.073789
0.009045 0.162391 0.048141
0.163699 0.159637 0.016476
0.404954 0.158855 0.038780
0.780114 0.172357 0.090348
0.936318 0.174479 0.115172
0.935946 0.152483 0.118051
0.935774 0.123479 0.122215
0.933841 0.097183 0.125625
0.016624 0.442151 0.095421
0.014498 0.419932 0.052641
0.123043 0.382223 0.013508
0.369401 0.364386 0.000000
0.732440 0.377493 0.050011
0.934390 0.382250 0.078348
0.935034 0.313217 0.089469
0.934871 0.271874 0.097179
0.935878 0.237177 0.101875
0.027225 0.849869 0.126938
0.021979 0.822077 0.069644
0.018111 0.782592 0.008975
0.327046 0.742654 0.012554
0.681528 0.715045 0.004516
0.925138 0.696827 0.059031
0.927388 0.574765 0.064859
0.929581 0.523379 0.066711
0.930407 0.472018 0.072023
0.048985 0.999603 0.198328
0.043911 1.000000 0.140332
0.039621 0.999350 0.070000
0.162403 0.999955 0.053243
0.564189 0.969534 0.098366
0.869612 0.934771 0.041688
0.926973 0.839795 0.054761
0.926045 0.779810 0.057676
0.927646 0.737440 0.057489
0.219646 0.999952 0.297167
0.231577 0.999718 0.275648
0.229039 0.999820 0.247515
0.243899 0.999491 0.244500
0.428453 0.999974 0.271946
0.696496 1.000000 0.261063
0.938948 0.999738 0.133519
0.938191 0.964051 0.156496
0.935091 0.935479 0.140426
0.219646 0.999952 0.297167
0.231577 0.999718 0.275648
0.227671 0.999845 0.250976
0.226694 1.000000 0.241348
0.340868 1.000000 0.258445
0.583097 0.999813 0.286917
0.840974 1.000000 0.286196
0.940699 0.999288 0.182640
0.940699 0.999288 0.182640
0.218278 0.999977 0.300629
0.230207 1.000000 0.277379
0.227671 0.999509 0.252707
0.226694 1.000000 0.241348
0.276547 1.000000 0.250050
0.478308 1.000000 0.275457
0.744194 0.999184 0.295944
0.946167 0.999091 0.229277
0.940699 0.999288 0.182640
0.011116 0.013247 0.108232
0.044549 0.012507 0.101447
0.183941 0.016030 0.111757
0.383749 0.018206 0.116176
0.749727 0.034338 0.109746
0.934434 0.088166 0.127664
0.933841 0.097183 0.125625
0.933841 0.097183 0.125625
0.933841 0.097183 0.125625
0.013230 0.049821 0.137082
0.021053 0.049327 0.127676
0.186258 0.044589 0.147087
0.436522 0.026289 0.158871
0.862129 0.049463 0.122543
0.934424 0.100170 0.125847
0.933841 0.097183 0.125625
0.933841 0.097183 0.125625
0.933841 0.097183 0.125625
0.017795 0.191298 0.193292
0.017412 0.185002 0.175321
0.172852 0.172852 0.172852
0.435036 0.165648 0.164763
0.801225 0.175541 0.095676
0.935735 0.171493 0.114949
0.936540 0.143466 0.120090
0.935784 0.111476 0.124030
0.933841 0.097183 0.125625
0.028666 0.498241 0.288991
0.024023 0.450775 0.228632
0.107943 0.402957 0.186210
0.388721 0.372344 0.172793
0.748266 0.375357 0.122297
0.934794 0.368237 0.080918
0.936805 0.298170 0.093769
0.935858 0.261184 0.098241
0.935495 0.227184 0.102937
0.044782 0.847429 0.367574
0.037977 0.818698 0.293509
0.028833 0.779365 0.211628
0.324289 0.735456 0.176777
0.693639 0.699550 0.146773
0.924956 0.680835 0.056187
0.926815 0.559775 0.066452
0.929400 0.506043 0.070788
0.930225 0.455018 0.074371
0.061277 0.997075 0.359003
0.056788 0.999928 0.304691
0.052498 0.999471 0.232628
0.138543 0.985299 0.174152
0.570834 0.956923 0.180145
0.879779 0.922122 0.097286
0.926398 0.825477 0.052895
0.926447 0.766805 0.055053
0.925309 0.725493 0.056597
0.155507 0.995572 0.393714
0.186988 0.997248 0.362480
0.207324 0.999171 0.333507
0.248187 1.000000 0.314833
0.428252 0.999250 0.310461
0.704902 1.000000 0.265722
0.937779 0.999814 0.101925
0.937809 0.955738 0.148905
0.935100 0.924484 0.137051
0.155116 0.996574 0.398152
0.184250 0.997971 0.365941
0.203610 0.999590 0.332531
0.215538 1.000000 0.307551
0.346334 0.999759 0.308542
0.589350 1.000000 0.309106
0.844688 0.999946 0.285441
0.940699 0.999288 0.182640
0.940699 0.999288 0.182640
0.153746 0.996263 0.403344
0.182881 0.998332 0.367672
0.201263 0.998302 0.336746
0.214170 1.000000 0.311011
0.280645 0.999912 0.300148
0.482214 1.000000 0.300129
0.746541 0.999464 0.296921
0.944797 0.999789 0.229277
0.940699 0.999288 0.182640
0.017721 0.042599 0.213892
0.031997 0.041300 0.200270
0.200523 0.038827 0.216441
0.449388 0.050511 0.257387
0.831184 0.080207 0.302391
0.939823 0.175931 0.201301
0.936338 0.150808 0.117074
0.935190 0.120156 0.123723
0.936377 0.102795 0.124339
0.019825 0.088152 0.256500
0.020612 0.084131 0.258007
0.205559 0.081932 0.289668
0.511525 0.076323 0.338425
0.913072 0.102267 0.368079
0.941957 0.186482 0.244167
0.934768 0.158512 0.115788
0.935774 0.123479 0.122215
0.934424 0.100170 0.125847
0.029647 0.239706 0.401239
0.030240 0.232033 0.396356
0.171414 0.214219 0.383367
0.481699 0.198934 0.376391
0.853747 0.201244 0.382383
0.945039 0.235363 0.275641
0.934738 0.192506 0.120722
0.935572 0.130486 0.120929
0.934424 0.100170 0.125847
0.044788 0.568087 0.580942
0.041715 0.514260 0.514945
0.035713 0.459519 0.435636
0.415039 0.415039 0.415039
0.787107 0.400735 0.386593
0.943926 0.393360 0.295956
0.939897 0.329336 0.156477
0.935848 0.273187 0.096426
0.935303 0.221851 0.105199
0.065464 0.850226 0.624453
0.056110 0.824526 0.567161
0.047943 0.784490 0.494910
0.305083 0.739798 0.444656
0.709627 0.701116 0.405160
0.939978 0.671102 0.306762
0.934025 0.561386 0.210579
0.928032 0.507076 0.069059
0.931796 0.447986 0.072196
0.078453 0.990354 0.571285
0.076308 0.991470 0.528333
0.069090 0.984051 0.474106
0.063643 0.965281 0.405144
0.565338 0.938686 0.408396
0.889335 0.903511 0.347945
0.939477 0.806829 0.277376
0.933475 0.753432 0.191145
0.925319 0.714162 0.054953
0.075917 0.990455 0.543153
0.075141 0.992219 0.493277
0.080034 0.995516 0.446333
0.189717 0.996766 0.417770
0.424911 0.997132 0.432930
0.708598 0.999504 0.387660
0.947918 0.999649 0.273207
0.943669 0.942777 0.251672
0.938815 0.912975 0.195133
0.076893 0.990423 0.549321
0.073772 0.991907 0.498469
0.071627 0.994703 0.446863
0.137124 0.997619 0.414258
0.334978 0.997170 0.420183
0.589723 0.999781 0.423898
0.847800 1.000000 0.388122
0.947335 1.000000 0.255680
0.943820 0.999820 0.223110
0.076500 0.991426 0.553758
0.074748 0.992211 0.502905
0.068889 0.995090 0.452055
0.131065 0.996413 0.419227
0.246809 0.995845 0.401271
0.483955 0.998835 0.414922
0.749652 0.999901 0.397871
0.951433 1.000000 0.304046
0.946167 0.999763 0.225816
0.027819 0.089775 0.381367
0.024306 0.089236 0.350528
0.223720 0.088718 0.378417
0.529075 0.107730 0.464766
0.920826 0.142779 0.567457
0.954594 0.231877 0.448429
0.952460 0.222334 0.400371
0.948763 0.210844 0.340731
0.945652 0.202342 0.281312
0.032261 0.138872 0.468128
0.034014 0.141112 0.503407
0.216605 0.145258 0.559962
0.611114 0.156250 0.659363
0.966725 0.173555 0.691227
0.958490 0.239048 0.495511
0.954211 0.226253 0.426996
0.949540 0.215131 0.359457
0.946237 0.204319 0.286727
0.049252 0.347108 0.713386
0.050811 0.347038 0.735352
0.057888 0.309272 0.697093
0.540818 0.275402 0.718488
0.906625 0.262195 0.717954
0.958441 0.287975 0.543534
0.954967 0.253202 0.449012
0.950516 0.215098 0.365625
0.946237 0.204319 0.286727
0.062468 0.647945 0.842941
0.059970 0.604402 0.799578
0.055721 0.553580 0.746895
0.408660 0.499010 0.736097
0.821410 0.462770 0.722472
0.955949 0.448925 0.612220
0.951508 0.407221 0.487387
0.950197 0.354383 0.403109
0.947527 0.292254 0.310264
0.078732 0.840271 0.829367
0.076014 0.824716 0.796660
0.068613 0.798617 0.753433
0.198863 0.756758 0.713016
0.714844 0.714844 0.714844
0.957123 0.674850 0.645109
0.950567 0.591195 0.519113
0.944957 0.537132 0.426715
0.941502 0.479025 0.332364
0.092508 0.977723 0.770784
0.090957 0.968143 0.738524
0.084715 0.959012 0.699117
0.078090 0.941903 0.650391
0.515072 0.914085 0.658336
0.890282 0.884373 0.632461
0.956452 0.795689 0.547208
0.948688 0.746008 0.455031
0.942676 0.704279 0.368715
0.090555 0.983836 0.727301
0.086064 0.986690 0.672988
0.080598 0.988230 0.619430
0.077476 0.990385 0.565116
0.343365 0.992415 0.568301
0.702115 0.998680 0.580238
0.961379 0.989986 0.501816
0.956746 0.927491 0.458848
0.950916 0.898391 0.392679
0.090162 0.984502 0.733470
0.088410 0.985624 0.680886
0.082943 0.987165 0.627327
0.078453 0.990018 0.573015
0.248742 0.992231 0.551871
0.588917 0.995881 0.583152
0.849924 0.999077 0.550304
0.960212 0.999472 0.421769
0.953768 1.000000 0.365505
0.091138 0.984470 0.739636
0.087040 0.985313 0.686078
0.085289 0.986436 0.633496
0.078060 0.990684 0.579183
0.105243 0.992480 0.532907
0.458324 0.994522 0.555759
0.749432 0.999659 0.553886
0.959618 1.000000 0.462992
0.954744 1.000000 0.371671
0.043165 0.159703 0.632093
0.039854 0.152493 0.600809
0.236712 0.164993 0.654040
0.624748 0.196090 0.778250
0.974851 0.239423 0.870421
0.966617 0.296517 0.717968
0.964684 0.280639 0.667735
0.962166 0.263791 0.606895
0.961018 0.247590 0.539134
0.050900 0.236656 0.763813
0.054001 0.258170 0.816223
0.091322 0.274925 0.863355
0.657278 0.300729 0.967930
0.977330 0.295882 0.967258
0.967182 0.313764 0.764742
0.965057 0.294569 0.706386
0.962347 0.274069 0.639155
0.962769 0.252181 0.562296
0.065113 0.505725 0.942969
0.065304 0.510722 0.942438
0.064749 0.471390 0.949394
0.499397 0.426584 0.982406
0.923875 0.388044 0.992700
0.966941 0.358701 0.808105
0.965621 0.315513 0.734124
0.963122 0.278356 0.657883
0.961591 0.256195 0.570418
0.067523 0.668053 0.914609
0.067926 0.654375 0.915449
0.066374 0.637400 0.921257
0.215381 0.598016 0.947403
0.814256 0.551528 0.978082
0.968577 0.496241 0.866579
0.963360 0.446890 0.740324
0.959110 0.400099 0.666876
0.957990 0.351250 0.587257
0.080514 0.803812 0.883937
0.078369 0.796189 0.885977
0.077986 0.786197 0.887040
0.076636 0.762215 0.894134
0.635614 0.729612 0.932266
0.971933 0.681775 0.904695
0.963012 0.626216 0.751593
0.959537 0.585057 0.689949
0.956848 0.541223 0.622891
0.096826 0.940154 0.858681
0.093312 0.933230 0.860719
0.092145 0.926920 0.862003
0.089425 0.908341 0.844871
0.344583 0.887625 0.839130
0.860352 0.860352 0.860352
0.970879 0.797660 0.781899
0.964083 0.755247 0.718301
0.960608 0.715096 0.651465
0.099725 0.979766 0.852699
0.098749 0.979798 0.846531
0.097974 0.980216 0.803578
0.090747 0.983792 0.752726
0.089578 0.984203 0.719402
0.642266 0.991396 0.766152
0.974065 0.969652 0.744579
0.969622 0.912824 0.697616
0.964376 0.885032 0.640324
0.099725 0.979766 0.852699
0.099725 0.979766 0.852699
0.097583 0.980546 0.811477
0.094461 0.982701 0.757163
0.088602 0.985916 0.704582
0.500336 0.989318 0.720785
0.838749 0.999374 0.732277
0.974448 0.999136 0.643149
0.968397 0.999707 0.578985
0.099725 0.979766 0.852699
0.099725 0.979766 0.852699
0.098559 0.980850 0.815913
0.094461 0.981693 0.762355
0.088602 0.984908 0.709774
0.332010 0.986802 0.695517
0.739436 0.995607 0.729468
0.975615 0.999397 0.673011
0.967028 0.999396 0.584177
0.058674 0.272653 0.866457
0.055562 0.257766 0.839918
0.129417 0.301009 0.903257
0.649217 0.350194 0.999934
0.981158 0.387413 0.999895
0.971192 0.396416 0.928277
0.970234 0.378491 0.894594
0.969479 0.354566 0.857004
0.969115 0.330986 0.808054
0.064416 0.401044 0.961270
0.064981 0.428373 0.956129
0.064577 0.442386 0.953558
0.482153 0.470278 0.999676
0.941223 0.449310 1.000000
0.974877 0.422263 0.973988
0.971383 0.400069 0.934667
0.971806 0.372131 0.888958
0.969298 0.342944 0.831665
0.067228 0.549021 0.937212
0.065476 0.539725 0.938273
0.065093 0.529396 0.941067
0.125709 0.518018 0.952031
0.816430 0.519444 1.000000
0.976599 0.461183 1.000000
0.973708 0.418977 0.959699
0.971987 0.384762 0.909105
0.969679 0.349913 0.846176
0.067926 0.654375 0.915449
0.065983 0.639410 0.920504
0.065801 0.622410 0.922852
0.066596 0.606386 0.926176
0.639810 0.610417 0.995336
0.978867 0.554800 1.000000
0.974607 0.513291 0.959988
0.970549 0.468138 0.903314
0.969621 0.420253 0.843931
0.078177 0.791193 0.886508
0.077019 0.772208 0.893070
0.073908 0.751943 0.894219
0.073534 0.729609 0.898829
0.351363 0.707976 0.941145
0.911690 0.693977 0.999871
0.974893 0.642645 0.944223
0.972193 0.607453 0.892652
0.968326 0.566960 0.837176
0.092920 0.935240 0.859965
0.091762 0.916927 0.863067
0.090412 0.893282 0.868430
0.085740 0.868381 0.871840
0.084783 0.843062 0.876226
0.753024 0.830909 0.976501
0.979850 0.792532 0.947542
0.974020 0.762425 0.886566
0.971512 0.731894 0.836196
0.099725 0.979766 0.852699
0.099725 0.979766 0.852699
0.099725 0.979766 0.852699
0.099725 0.979766 0.852699
0.100904 0.973736 0.854962
0.465331 0.962139 0.909714
0.941406 0.941406 0.941406
0.982893 0.905222 0.890418
0.978230 0.877728 0.847191
0.099725 0.979766 0.852699
0.099725 0.979766 0.852699
0.099725 0.979766 0.852699
0.099725 0.979766 0.852699
0.099725 0.979766 0.852699
0.241667 0.979922 0.847970
0.792199 0.993175 0.886289
0.989076 0.999479 0.851437
0.981657 0.999402 0.794196
0.099725 0.979766 0.852699
0.099725 0.979766 0.852699
0.099725 0.979766 0.852699
0.099725 0.979766 0.852699
0.099725 0.979766 0.852699
0.099142 0.980476 0.833441
0.641078 0.988594 0.869363
0.967372 1.000000 0.870028
0.982634 0.999372 0.800363
0.064799 0.411373 0.958476
0.064989 0.416034 0.959676
0.064577 0.442386 0.953558
0.451830 0.493299 0.994931
0.897745 0.539620 1.000000
0.978915 0.496799 0.999344
0.978925 0.485132 0.999429
0.978352 0.470478 0.999293
0.977002 0.447841 0.999464
0.065526 0.479709 0.947356
0.064549 0.478396 0.948110
0.064549 0.478396 0.948110
0.322595 0.500221 0.981293
0.839484 0.537929 0.999071
0.978715 0.503469 0.999789
0.978715 0.503469 0.999789
0.979902 0.486109 1.000000
0.977184 0.464505 0.998848
0.065275 0.546732 0.936988
0.063916 0.535427 0.938805
0.064510 0.526409 0.940843
0.064318 0.521748 0.939645
0.743282 0.553419 1.000000
0.978120 0.512151 0.999480
0.978715 0.503469 0.999789
0.978915 0.496799 0.999344
0.976982 0.471175 0.999293
0.067341 0.650716 0.918688
0.066768 0.635390 0.922012
0.066978 0.616381 0.925113
0.066405 0.601055 0.928437
0.597779 0.608036 0.989341
0.972958 0.606268 0.999547
0.978082 0.558819 0.999137
0.978485 0.545142 0.999977
0.976752 0.512848 0.999480
0.077986 0.786197 0.887040
0.077221 0.765537 0.892626
0.074109 0.744935 0.895504
0.071391 0.721653 0.902598
0.316962 0.698087 0.936657
0.846777 0.700433 0.999820
0.980349 0.652436 0.999426
0.978214 0.633483 0.999820
0.979019 0.606464 0.999769
0.093705 0.931220 0.861473
0.091963 0.909920 0.864351
0.089637 0.885634 0.867008
0.087310 0.860676 0.873125
0.083423 0.831756 0.878043
0.700451 0.809099 0.969700
0.982578 0.792722 0.999371
0.982416 0.752723 1.000000
0.982043 0.731399 0.999578
0.099725 0.979766 0.852699
0.099725 0.979766 0.852699
0.099725 0.979766 0.852699
0.099725 0.979766 0.852699
0.100520 0.964078 0.854292
0.429965 0.938934 0.907798
0.896254 0.920681 0.986655
0.988752 0.890917 1.000000
0.987402 0.868952 0.996816
0.099725 0.979766 0.852699
0.099725 0.979766 0.852699
0.099725 0.979766 0.852699
0.099725 0.979766 0.852699
0.099725 0.979766 0.852699
0.099725 0.979766 0.852699
0.720833 0.989010 0.949290
1.000000 1.000000 1.000000
0.994141 0.997166 0.978567
0.099725 0.979766 0.852699
0.099725 0.979766 0.852699
0.099725 0.979766 0.852699
0.099725 0.979766 0.852699
0.099725 0.979766 0.852699
0.099725 0.979766 0.852699
0.519273 0.983588 0.914785
0.926689 0.997002 0.984991
0.997070 1.000000 0.981496
0.064559 0.466056 0.951656
0.065334 0.474376 0.949618
0.065526 0.479709 0.947356
0.440867 0.510882 0.993114
0.915926 0.540546 0.999258
0.978715 0.503469 0.999789
0.978715 0.503469 0.999789
0.978715 0.503469 0.999789
0.978715 0.503469 0.999789
0.065132 0.481719 0.946601
0.065334 0.474376 0.949618
0.064549 0.478396 0.948110
0.352505 0.502880 0.983383
0.854344 0.536928 0.999515
0.978715 0.503469 0.999789
0.978715 0.503469 0.999789
0.978715 0.503469 0.999789
0.978715 0.503469 0.999789
0.066061 0.543048 0.936767
0.067046 0.532021 0.939559
0.065295 0.522725 0.940622
0.065103 0.517392 0.942884
0.755210 0.549152 0.999551
0.978907 0.508466 0.999258
0.978715 0.503469 0.999789
0.978715 0.503469 0.999789
0.978715 0.503469 0.999789
0.067151 0.646055 0.917487
0.065600 0.629081 0.923298
0.065809 0.610071 0.926398
0.066604 0.594384 0.927991
0.608339 0.603794 0.992046
0.976090 0.602863 1.000000
0.978867 0.554800 1.000000
0.979270 0.541458 0.999753
0.979278 0.529791 0.999840
0.078187 0.779189 0.888325
0.077421 0.758532 0.893910
0.072941 0.738626 0.896788
0.070615 0.714005 0.901175
0.330654 0.690441 0.940117
0.851670 0.694657 0.999598
0.979181 0.646463 0.998980
0.978023 0.628487 1.000000
0.979603 0.609451 0.999993
0.092536 0.925246 0.861026
0.089818 0.901962 0.868120
0.087492 0.877676 0.870778
0.084190 0.852078 0.874188
0.081278 0.824134 0.880081
0.707690 0.803266 0.972183
0.983565 0.782032 1.000000
0.982617 0.746053 0.999715
0.981267 0.723416 0.999887
0.099725 0.979766 0.852699
0.099725 0.979766 0.852699
0.099725 0.979766 0.852699
0.099725 0.979766 0.852699
0.097984 0.958130 0.857309
0.442287 0.931986 0.911258
0.900171 0.912920 0.990649
0.989345 0.882236 1.000000
0.987412 0.856612 1.000000
0.099725 0.979766 0.852699
0.099725 0.979766 0.852699
0.099725 0.979766 0.852699
0.099725 0.979766 0.852699
0.099725 0.979766 0.852699
0.099725 0.979766 0.852699
0.726892 0.988871 0.951243
1.000000 1.000000 1.000000
0.996296 0.988751 0.999109
0.099725 0.979766 0.852699
0.099725 0.979766 0.852699
0.099725 0.979766 0.852699
0.099725 0.979766 0.852699
0.099725 0.979766 0.852699
0.099725 0.979766 0.852699
0.527680 0.984063 0.915985
0.930404 0.996920 0.984239
1.000000 1.000000 1.000000
