Sources/Resources/LUT/gfx-eterna-55-3d-lut-v100/33Grid/F-Log2/FLog2_to_CLASSIC-CHROME_33grid_V.1.00.cube
#title:FLog2_to_CLASSIC-CHROME
#model:GFX ETERNA 55
#FUJIFILM Corporation
#Gamma:F-Log2 to CLASSIC CHROME
#Gamut:F-Gamut to ITU-R BT.709
#Version:1.00
LUT_3D_SIZE 33
0.000000 0.000000 0.000000
0.000000 0.000000 0.000000
0.000000 0.000000 0.000000
0.000000 0.000000 0.000000
0.006061 0.000197 0.000222
0.020528 0.001206 0.000000
0.040077 0.001100 0.000582
0.066666 0.002166 0.002449
0.097362 0.001477 0.002586
0.142524 0.001462 0.004144
0.188662 0.002759 0.004950
0.254352 0.003278 0.009882
0.326102 0.004330 0.013309
0.403912 0.005578 0.016958
0.509680 0.006187 0.027664
0.627760 0.010844 0.045207
0.737434 0.014015 0.066742
0.835954 0.027084 0.100837
0.922736 0.046392 0.150727
0.973727 0.073795 0.227106
0.971160 0.093774 0.276585
0.969782 0.106475 0.274770
0.969772 0.118814 0.271222
0.969772 0.118814 0.271222
0.969772 0.118814 0.271222
0.969772 0.118814 0.271222
0.969772 0.118814 0.271222
0.969772 0.118814 0.271222
0.969772 0.118814 0.271222
0.969772 0.118814 0.271222
0.969772 0.118814 0.271222
0.969772 0.118814 0.271222
0.969772 0.118814 0.271222
0.000000 0.000000 0.000000
0.000000 0.000000 0.000000
0.000000 0.000000 0.000000
0.000000 0.000000 0.000000
0.006061 0.000197 0.000222
0.018181 0.000591 0.000667
0.037733 0.000484 0.001337
0.064321 0.001888 0.001473
0.093646 0.001560 0.003341
0.131379 0.002045 0.004676
0.184947 0.002841 0.005703
0.248290 0.003080 0.009660
0.326102 0.004330 0.013309
0.424440 0.006448 0.018602
0.540959 0.008149 0.029753
0.655323 0.012887 0.048051
0.770665 0.017258 0.074245
0.866055 0.032052 0.116238
0.951659 0.055036 0.175981
0.971170 0.085468 0.259367
0.969005 0.098492 0.275077
0.971342 0.111111 0.272508
0.969772 0.118814 0.271222
0.969772 0.118814 0.271222
0.969772 0.118814 0.271222
0.969772 0.118814 0.271222
0.969772 0.118814 0.271222
0.969772 0.118814 0.271222
0.969772 0.118814 0.271222
0.969772 0.118814 0.271222
0.969772 0.118814 0.271222
0.969772 0.118814 0.271222
0.969772 0.118814 0.271222
0.000000 0.000000 0.000000
0.000000 0.000000 0.000000
0.000000 0.000000 0.000000
0.000000 0.000000 0.000000
0.004691 0.000895 0.000222
0.015837 0.000312 0.000000
0.034018 0.000902 0.000360
0.059629 0.000994 0.001250
0.089931 0.001978 0.002364
0.129034 0.001765 0.003699
0.180256 0.001947 0.005481
0.254352 0.003278 0.009882
0.345653 0.004222 0.013977
0.446336 0.006283 0.021977
0.565201 0.008600 0.032375
0.685627 0.012864 0.054356
0.797446 0.021305 0.085964
0.892049 0.039111 0.131642
0.974128 0.065495 0.200257
0.971554 0.091764 0.277340
0.969197 0.103489 0.274547
0.969772 0.118814 0.271222
0.969772 0.118814 0.271222
0.969772 0.118814 0.271222
0.969772 0.118814 0.271222
0.969772 0.118814 0.271222
0.969772 0.118814 0.271222
0.969772 0.118814 0.271222
0.969772 0.118814 0.271222
0.969772 0.118814 0.271222
0.969772 0.118814 0.271222
0.969772 0.118814 0.271222
0.969772 0.118814 0.271222
0.000000 0.000000 0.000000
0.000000 0.000000 0.000000
0.000000 0.000000 0.000000
0.000000 0.000000 0.000000
0.004691 0.000895 0.000222
0.013490 0.000000 0.000445
0.030303 0.001322 0.000000
0.055914 0.001411 0.000273
0.087587 0.001699 0.001388
0.131379 0.002045 0.004676
0.188662 0.002759 0.004950
0.264127 0.003056 0.011082
0.356797 0.003641 0.013445
0.465888 0.006178 0.022645
0.589444 0.008716 0.036727
0.713192 0.014236 0.060660
0.823248 0.024711 0.094977
0.919019 0.047147 0.148019
0.973727 0.073123 0.230567
0.971160 0.093774 0.276585
0.971342 0.110775 0.274238
0.969772 0.118814 0.271222
0.969772 0.118814 0.271222
0.969772 0.118814 0.271222
0.969772 0.118814 0.271222
0.969772 0.118814 0.271222
0.969772 0.118814 0.271222
0.969772 0.118814 0.271222
0.969772 0.118814 0.271222
0.969772 0.118814 0.271222
0.969772 0.118814 0.271222
0.969772 0.118814 0.271222
0.969772 0.118814 0.271222
0.000192 0.004997 0.000000
0.000192 0.004997 0.000000
0.000192 0.004997 0.000000
0.000192 0.004997 0.000000
0.001560 0.004300 0.000000
0.013682 0.004693 0.000000
0.029517 0.005006 0.000000
0.057867 0.003700 0.000496
0.091884 0.004267 0.002586
0.135285 0.006960 0.003390
0.198629 0.007534 0.005617
0.276833 0.006773 0.010020
0.374193 0.007915 0.014335
0.484652 0.009419 0.025265
0.613293 0.010842 0.040324
0.738411 0.014992 0.067719
0.847682 0.028481 0.105720
0.942275 0.054929 0.166883
0.971170 0.085468 0.259367
0.969982 0.099469 0.276054
0.971342 0.110775 0.274238
0.969772 0.118814 0.271222
0.969772 0.118814 0.271222
0.969772 0.118814 0.271222
0.969772 0.118814 0.271222
0.969772 0.118814 0.271222
0.969772 0.118814 0.271222
0.969772 0.118814 0.271222
0.969772 0.118814 0.271222
0.969772 0.118814 0.271222
0.969772 0.118814 0.271222
0.969772 0.118814 0.271222
0.969772 0.118814 0.271222
0.000000 0.011667 0.000000
0.000000 0.011667 0.000000
0.000000 0.011667 0.000000
0.000000 0.010690 0.000000
0.000000 0.011667 0.000000
0.012112 0.012061 0.000360
0.030294 0.012989 0.000000
0.057274 0.012381 0.000187
0.093637 0.013563 0.001524
0.140168 0.012851 0.003083
0.204489 0.014739 0.004556
0.290704 0.016463 0.009402
0.390411 0.018220 0.012964
0.511623 0.020816 0.024340
0.639872 0.023577 0.042105
0.765179 0.032723 0.068968
0.868582 0.048994 0.116598
0.966308 0.070694 0.185438
0.971554 0.094117 0.265227
0.969005 0.098492 0.275077
0.971342 0.110775 0.274238
0.969772 0.118814 0.271222
0.969772 0.118814 0.271222
0.969772 0.118814 0.271222
0.969772 0.118814 0.271222
0.969772 0.118814 0.271222
0.969772 0.118814 0.271222
0.969772 0.118814 0.271222
0.969772 0.118814 0.271222
0.969772 0.118814 0.271222
0.969772 0.118814 0.271222
0.969772 0.118814 0.271222
0.969772 0.118814 0.271222
0.000000 0.023335 0.000000
0.000373 0.021324 0.000582
0.000373 0.021324 0.000582
0.000000 0.023335 0.000000
0.000000 0.023335 0.000000
0.009756 0.023450 0.000000
0.027546 0.026051 0.000000
0.059217 0.026338 0.000324
0.095972 0.025846 0.000683
0.144849 0.025412 0.003219
0.217184 0.029786 0.005137
0.303793 0.029500 0.010738
0.406823 0.033185 0.012793
0.534677 0.038965 0.024614
0.664486 0.046025 0.041848
0.786272 0.059577 0.072394
0.871492 0.076266 0.114164
0.954167 0.096322 0.170976
0.970557 0.120172 0.245043
0.968201 0.126182 0.271668
0.968393 0.131515 0.269406
0.968977 0.134501 0.269629
0.968393 0.131515 0.269406
0.969964 0.123811 0.270692
0.969772 0.118814 0.271222
0.969772 0.118814 0.271222
0.969772 0.118814 0.271222
0.969772 0.118814 0.271222
0.969772 0.118814 0.271222
0.969772 0.118814 0.271222
0.969772 0.118814 0.271222
0.969772 0.118814 0.271222
0.969772 0.118814 0.271222
0.000747 0.042649 0.001164
0.000747 0.042649 0.001164
0.000747 0.042649 0.001164
0.000747 0.042649 0.001164
0.000747 0.042649 0.001164
0.005044 0.045553 0.000633
0.024596 0.045783 0.000000
0.054506 0.048778 0.000000
0.091262 0.048286 0.000289
0.145807 0.050059 0.002293
0.219903 0.051726 0.004965
0.314134 0.056272 0.008527
0.424591 0.058785 0.014266
0.554793 0.065515 0.023601
0.669742 0.073577 0.040390
0.771001 0.086932 0.065832
0.860328 0.103209 0.098949
0.937525 0.126390 0.154031
0.967990 0.153258 0.227035
0.965827 0.162249 0.263512
0.965827 0.162249 0.263512
0.965433 0.164259 0.262757
0.965242 0.158926 0.265019
0.967790 0.152535 0.265551
0.967990 0.145528 0.266836
0.968775 0.141508 0.268343
0.968584 0.136512 0.268875
0.967809 0.128529 0.269184
0.968987 0.122834 0.269715
0.969772 0.118814 0.271222
0.969772 0.118814 0.271222
0.969772 0.118814 0.271222
0.969772 0.118814 0.271222
0.000918 0.070980 0.000460
0.000918 0.070980 0.000460
0.000526 0.072990 0.000000
0.000526 0.072990 0.000000
0.000526 0.072990 0.000000
0.001110 0.075977 0.000000
0.018315 0.075591 0.000000
0.048616 0.076912 0.000000
0.089672 0.078988 0.000562
0.149301 0.079646 0.003543
0.220657 0.083043 0.004484
0.322711 0.085080 0.009024
0.427301 0.092392 0.014008
0.542060 0.097137 0.022676
0.657985 0.106847 0.036980
0.758458 0.124221 0.060914
0.844654 0.143567 0.095008
0.924982 0.166031 0.137000
0.963853 0.194384 0.206012
0.965597 0.205938 0.253317
0.964428 0.198956 0.258063
0.963452 0.197980 0.257087
0.965998 0.191588 0.257618
0.963853 0.183966 0.259656
0.967770 0.176542 0.261919
0.966601 0.170232 0.263202
0.966410 0.165572 0.262004
0.965635 0.157253 0.264043
0.968575 0.148515 0.267058
0.968383 0.143518 0.267591
0.968584 0.136512 0.268875
0.968393 0.131515 0.269406
0.969964 0.123811 0.270692
0.000687 0.112652 0.000649
0.000000 0.116336 0.000871
0.000000 0.118347 0.000116
0.000000 0.118347 0.000116
0.000000 0.118347 0.000116
0.000000 0.118347 0.000116
0.008893 0.120470 0.000000
0.039588 0.119781 0.000000
0.084358 0.121777 0.000000
0.142225 0.125477 0.000269
0.220619 0.130048 0.002409
0.317982 0.130854 0.008458
0.416319 0.133309 0.012021
0.530292 0.142074 0.019180
0.642109 0.153876 0.033485
0.746691 0.168486 0.060880
0.832495 0.190514 0.090758
0.910669 0.217360 0.132972
0.964792 0.245391 0.189340
0.962618 0.262352 0.244766
0.962044 0.247027 0.248091
0.962828 0.243006 0.249597
0.964792 0.233628 0.249907
0.964017 0.225309 0.251946
0.963240 0.217326 0.252255
0.965597 0.205602 0.255047
0.964428 0.198956 0.258063
0.965022 0.190276 0.258371
0.963853 0.183966 0.259656
0.968162 0.174532 0.262671
0.966995 0.168558 0.262226
0.966219 0.160239 0.264266
0.967790 0.152535 0.265551
0.000437 0.177995 0.000000
0.000046 0.179669 0.000000
0.000237 0.184664 0.000000
0.000237 0.184664 0.000000
0.000237 0.184664 0.000000
0.000237 0.184664 0.000000
0.002191 0.186955 0.000000
0.027801 0.187381 0.000000
0.069832 0.190771 0.000000
0.129270 0.187104 0.000000
0.209234 0.184306 0.001312
0.304442 0.190165 0.004121
0.409817 0.193458 0.010613
0.521051 0.203282 0.019504
0.631893 0.213770 0.034563
0.732949 0.234132 0.058719
0.818563 0.251500 0.087399
0.898498 0.275975 0.128637
0.961420 0.303815 0.180034
0.958461 0.323116 0.242605
0.960434 0.303753 0.234348
0.961813 0.291051 0.236164
0.961037 0.282396 0.239934
0.961631 0.273379 0.241973
0.962618 0.262689 0.243035
0.962235 0.252359 0.245828
0.962435 0.245017 0.248843
0.964792 0.233628 0.249907
0.963432 0.222323 0.251722
0.962657 0.214339 0.252031
0.965988 0.203928 0.254070
0.963843 0.196306 0.256110
0.964830 0.185279 0.258902
0.000551 0.275992 0.000000
0.000742 0.280654 0.000645
0.000000 0.284338 0.000867
0.000541 0.287324 0.001089
0.000148 0.289334 0.000336
0.000148 0.289334 0.000336
0.000350 0.282664 0.000000
0.010910 0.278758 0.000867
0.056858 0.275395 0.000473
0.117664 0.271031 0.000524
0.196652 0.267592 0.000000
0.294990 0.270047 0.003074
0.399388 0.272698 0.006859
0.510039 0.278527 0.020718
0.621857 0.290666 0.033294
0.719794 0.302428 0.058511
0.806776 0.319435 0.085461
0.883389 0.342990 0.123015
0.956871 0.366589 0.177121
0.956841 0.390165 0.235698
0.959791 0.370096 0.237070
0.959811 0.349114 0.225129
0.958451 0.337808 0.226946
0.958461 0.325469 0.230492
0.960424 0.315418 0.234261
0.960434 0.303753 0.234348
0.961420 0.292725 0.237140
0.961037 0.282396 0.239934
0.962023 0.271369 0.242727
0.963010 0.260678 0.243789
0.961650 0.249037 0.247335
0.964007 0.237649 0.248398
0.963623 0.227319 0.251191
0.000000 0.402683 0.000983
0.000635 0.408992 0.000000
0.000434 0.415664 0.000145
0.000000 0.419348 0.000367
0.000000 0.412678 0.000000
0.000000 0.402683 0.000983
0.000000 0.389343 0.000095
0.000070 0.382671 0.000000
0.034683 0.374894 0.000316
0.098811 0.372121 0.000591
0.180536 0.367289 0.000000
0.284745 0.365280 0.002164
0.388166 0.365947 0.010163
0.498626 0.367452 0.021093
0.611229 0.375233 0.036907
0.707604 0.383368 0.059195
0.795371 0.396692 0.085923
0.872769 0.416226 0.124985
0.943715 0.436566 0.168261
0.956985 0.455515 0.224356
0.957971 0.441462 0.242723
0.958383 0.417463 0.236726
0.957818 0.394503 0.219372
0.957828 0.383507 0.215996
0.957838 0.371504 0.217813
0.957455 0.360839 0.222336
0.958835 0.348138 0.224153
0.958451 0.337808 0.226946
0.960223 0.322762 0.231247
0.960817 0.313409 0.235015
0.960826 0.301406 0.236832
0.961813 0.290715 0.237896
0.961430 0.280386 0.240687
0.004625 0.546572 0.000398
0.005008 0.556565 0.000000
0.005210 0.549558 0.000622
0.005803 0.541213 0.000000
0.004443 0.530244 0.000000
0.002109 0.517961 0.000126
0.003487 0.505597 0.000211
0.001342 0.498311 0.000520
0.015819 0.487653 0.000296
0.077411 0.479604 0.000126
0.162851 0.474353 0.000090
0.265106 0.469384 0.005914
0.374003 0.467933 0.010452
0.487594 0.465696 0.023868
0.600006 0.468481 0.040211
0.697166 0.473941 0.057085
0.782981 0.483629 0.090512
0.858627 0.495885 0.120254
0.927620 0.513936 0.163309
0.955557 0.527223 0.218647
0.957319 0.518802 0.248821
0.956754 0.493490 0.243579
0.955213 0.467872 0.233898
0.957186 0.448507 0.225640
0.957588 0.435503 0.223020
0.957991 0.422161 0.222128
0.955655 0.410215 0.221239
0.957818 0.394503 0.219372
0.956851 0.382195 0.216749
0.959208 0.370470 0.219543
0.957848 0.358828 0.223090
0.958835 0.348138 0.224153
0.958451 0.337808 0.226946
0.014878 0.676668 0.006066
0.014101 0.669021 0.004644
0.013326 0.661373 0.003222
0.012551 0.653390 0.003531
0.012168 0.643733 0.002864
0.010808 0.633435 0.000000
0.010427 0.623442 0.000551
0.009458 0.610799 0.000000
0.009660 0.603792 0.000945
0.049748 0.593224 0.001612
0.134213 0.586326 0.004062
0.239597 0.577950 0.010639
0.355341 0.572677 0.016910
0.472646 0.570694 0.027839
0.586237 0.568121 0.042985
0.684766 0.572884 0.059859
0.772151 0.576213 0.087648
0.846236 0.583497 0.121382
0.913869 0.590914 0.162793
0.952952 0.603282 0.219332
0.954512 0.599851 0.258601
0.954341 0.572192 0.255845
0.955537 0.544844 0.247895
0.958104 0.517135 0.238216
0.957528 0.503153 0.234616
0.956562 0.490846 0.231996
0.955989 0.476863 0.228399
0.956390 0.463522 0.227507
0.957769 0.451158 0.227593
0.957195 0.437512 0.222264
0.958574 0.425147 0.222352
0.957608 0.412168 0.223192
0.957033 0.398522 0.217864
0.024382 0.763779 0.012300
0.021846 0.758839 0.010125
0.022047 0.752170 0.009680
0.020880 0.745860 0.010966
0.020104 0.738549 0.007812
0.018935 0.732239 0.009097
0.018946 0.720909 0.007454
0.017194 0.712284 0.005055
0.017787 0.703604 0.005364
0.020727 0.695538 0.004918
0.096786 0.687155 0.011360
0.203147 0.680764 0.013722
0.330428 0.672562 0.021946
0.449887 0.666535 0.030922
0.566215 0.662567 0.046067
0.672959 0.662473 0.066402
0.758785 0.662511 0.089532
0.832678 0.664126 0.127258
0.899727 0.668221 0.170176
0.952500 0.674959 0.219793
0.951513 0.676240 0.267183
0.951142 0.653570 0.273524
0.952731 0.623541 0.269789
0.953152 0.589554 0.255226
0.953947 0.575211 0.249897
0.955719 0.561172 0.249009
0.956122 0.548502 0.244656
0.957894 0.535136 0.240305
0.958295 0.521795 0.239413
0.957720 0.507814 0.235816
0.957730 0.496146 0.235902
0.958134 0.483477 0.231551
0.956190 0.469857 0.229685
0.030577 0.837968 0.016668
0.030385 0.832971 0.017199
0.029217 0.826999 0.016754
0.030395 0.821304 0.017285
0.030597 0.814297 0.018571
0.028059 0.809358 0.016396
0.027284 0.801375 0.016703
0.026507 0.793728 0.015281
0.024364 0.786777 0.013858
0.023587 0.778794 0.014167
0.046078 0.770622 0.014391
0.153809 0.763199 0.018485
0.283436 0.755276 0.027683
0.415016 0.749305 0.038836
0.540143 0.744812 0.050742
0.651387 0.741288 0.068371
0.741319 0.738562 0.094961
0.816975 0.737134 0.135172
0.884809 0.738888 0.170944
0.945405 0.743116 0.221539
0.952432 0.746210 0.272836
0.952643 0.724849 0.288051
0.952472 0.696518 0.288755
0.951917 0.660546 0.278407
0.952126 0.643216 0.272855
0.953506 0.631859 0.267750
0.953908 0.619191 0.263398
0.952941 0.606882 0.260777
0.953344 0.594214 0.256426
0.955115 0.580847 0.252074
0.955518 0.568178 0.247723
0.955920 0.554837 0.246831
0.957692 0.541135 0.244211
0.039709 0.903084 0.025781
0.039518 0.898422 0.024582
0.039719 0.891416 0.025866
0.039527 0.886419 0.026399
0.036991 0.881479 0.024222
0.037192 0.874809 0.023777
0.034655 0.869870 0.021602
0.034856 0.862862 0.022887
0.032711 0.855912 0.021465
0.031937 0.848266 0.020044
0.032136 0.841595 0.019597
0.087276 0.834687 0.021911
0.216903 0.826764 0.031109
0.361973 0.820828 0.040977
0.499614 0.814717 0.054083
0.623372 0.808569 0.078102
0.722102 0.804981 0.103183
0.801866 0.802470 0.138204
0.868723 0.802576 0.176461
0.931473 0.803430 0.221641
0.954729 0.804827 0.273383
0.952392 0.788511 0.294988
0.951436 0.762520 0.302836
0.951072 0.729864 0.300609
0.951878 0.704189 0.293637
0.951886 0.693195 0.290262
0.952873 0.683513 0.286132
0.951907 0.671877 0.280051
0.951917 0.660882 0.276676
0.951927 0.649551 0.275032
0.953698 0.636856 0.267219
0.952731 0.624549 0.264597
0.952741 0.613554 0.261224
0.046314 0.951592 0.032804
0.045731 0.948941 0.030851
0.045147 0.945955 0.030629
0.047301 0.941237 0.032137
0.046717 0.938249 0.031914
0.043788 0.934984 0.030715
0.042619 0.929011 0.030269
0.042428 0.924351 0.029071
0.042630 0.917680 0.028625
0.039116 0.911764 0.025474
0.039316 0.904757 0.026757
0.039911 0.896749 0.023606
0.132782 0.889654 0.030715
0.291343 0.883077 0.042757
0.444819 0.875935 0.062477
0.583435 0.869459 0.083480
0.696049 0.863892 0.108032
0.781873 0.862585 0.138081
0.854206 0.859902 0.176340
0.917350 0.859418 0.218813
0.956250 0.856467 0.269047
0.956845 0.842408 0.297043
0.953732 0.819119 0.313765
0.953169 0.791453 0.320637
0.952806 0.759134 0.316681
0.951446 0.749508 0.309845
0.952432 0.739489 0.307445
0.952049 0.730168 0.305047
0.952059 0.719509 0.299942
0.952068 0.708851 0.294836
0.951687 0.699530 0.292437
0.951697 0.688870 0.287333
0.951705 0.678212 0.282226
0.047866 0.967222 0.033919
0.047866 0.967222 0.033919
0.047866 0.967222 0.033919
0.047866 0.967222 0.033919
0.047866 0.967222 0.033919
0.047866 0.967222 0.033919
0.047866 0.967222 0.033919
0.048650 0.963201 0.035426
0.049435 0.959517 0.035202
0.046506 0.956252 0.034005
0.046314 0.951592 0.032804
0.045147 0.945955 0.030629
0.048671 0.940539 0.032137
0.185334 0.934125 0.040803
0.362077 0.926460 0.062168
0.520244 0.918532 0.090761
0.652016 0.915878 0.110036
0.751138 0.910280 0.135870
0.828558 0.907489 0.169914
0.892878 0.901647 0.211188
0.948399 0.897003 0.252238
0.960913 0.887994 0.291508
0.958385 0.866682 0.313645
0.956643 0.843366 0.326905
0.955102 0.815060 0.331070
0.953944 0.798092 0.327250
0.953169 0.790109 0.327559
0.954154 0.780762 0.321699
0.953379 0.772780 0.322009
0.952996 0.764130 0.316149
0.953983 0.754448 0.312019
0.952623 0.744151 0.308644
0.952241 0.735165 0.304516
0.051378 0.966752 0.069949
0.050402 0.966785 0.063782
0.049425 0.967152 0.055883
0.048449 0.967184 0.049715
0.049819 0.967495 0.044523
0.048842 0.967526 0.038356
0.047866 0.967222 0.033919
0.047866 0.967222 0.033919
0.047866 0.967222 0.033919
0.047866 0.967222 0.033919
0.047866 0.967222 0.033919
0.047866 0.967222 0.033919
0.047866 0.967222 0.033919
0.063701 0.966861 0.037070
0.225192 0.963214 0.052043
0.413078 0.953285 0.081527
0.573592 0.945973 0.109367
0.695588 0.942868 0.130902
0.786890 0.939780 0.155762
0.858639 0.934782 0.190335
0.918851 0.930024 0.236800
0.963622 0.924289 0.277407
0.960500 0.909977 0.307887
0.959342 0.888640 0.326562
0.958970 0.863955 0.343286
0.957620 0.840982 0.345188
0.956845 0.833671 0.342034
0.956068 0.826023 0.340614
0.955685 0.817039 0.336484
0.955887 0.811041 0.332578
0.955503 0.801383 0.331910
0.954729 0.794073 0.328758
0.952977 0.786120 0.322898
0.054300 0.965554 0.154125
0.053323 0.965921 0.146227
0.053715 0.965256 0.140059
0.054108 0.964926 0.132160
0.051762 0.966664 0.120801
0.050785 0.966695 0.114633
0.051179 0.966702 0.105005
0.051570 0.966372 0.097106
0.051963 0.966042 0.089206
0.052355 0.966385 0.077848
0.050402 0.966448 0.065513
0.049425 0.966480 0.059344
0.048449 0.966848 0.051446
0.057248 0.967330 0.043015
0.164777 0.966577 0.047554
0.319815 0.963398 0.068473
0.473090 0.962255 0.092098
0.616198 0.961999 0.120691
0.731932 0.964360 0.147640
0.815803 0.961436 0.174007
0.882469 0.956881 0.211065
0.940336 0.952854 0.251363
0.965948 0.944878 0.293784
0.963612 0.928227 0.317122
0.962061 0.907555 0.341965
0.960711 0.881894 0.357710
0.957983 0.871957 0.356066
0.959553 0.865262 0.352160
0.957408 0.858312 0.350738
0.957610 0.851977 0.348563
0.956835 0.843994 0.348870
0.956058 0.836683 0.345718
0.955283 0.829707 0.340836
0.053705 0.966169 0.195348
0.053705 0.966169 0.195348
0.053705 0.966169 0.195348
0.053705 0.966169 0.195348
0.053705 0.966169 0.195348
0.053705 0.966169 0.195348
0.055075 0.966144 0.191888
0.054098 0.966847 0.182258
0.053513 0.965878 0.171652
0.053907 0.965884 0.162024
0.054300 0.966226 0.150665
0.053715 0.965256 0.140059
0.054108 0.965598 0.128700
0.076397 0.966115 0.118984
0.154600 0.967032 0.114733
0.275035 0.962318 0.122957
0.409153 0.961958 0.132824
0.541900 0.960954 0.149613
0.661742 0.963239 0.166181
0.758319 0.966048 0.181101
0.835344 0.968627 0.197086
0.899857 0.970808 0.222254
0.957522 0.972105 0.269917
0.967106 0.959829 0.307989
0.964770 0.943178 0.331325
0.963219 0.923179 0.352707
0.962645 0.906172 0.364684
0.961477 0.900199 0.364239
0.961678 0.893530 0.363794
0.960510 0.887555 0.363347
0.960711 0.881557 0.359441
0.959936 0.874246 0.356288
0.958768 0.868273 0.355844
0.053705 0.966169 0.195348
0.053705 0.966169 0.195348
0.053705 0.966169 0.195348
0.053705 0.966169 0.195348
0.053705 0.966169 0.195348
0.053705 0.966169 0.195348
0.053705 0.966169 0.195348
0.053705 0.966169 0.195348
0.053705 0.966169 0.195348
0.053705 0.966169 0.195348
0.053705 0.966169 0.195348
0.053705 0.966169 0.195348
0.068172 0.966507 0.198500
0.118418 0.966047 0.197574
0.177463 0.964726 0.195141
0.261143 0.962183 0.194352
0.367696 0.960453 0.197914
0.479916 0.959586 0.207867
0.595066 0.961649 0.220749
0.699073 0.963958 0.235895
0.784505 0.967686 0.249617
0.855469 0.969733 0.267110
0.916658 0.973009 0.278210
0.967679 0.976836 0.296012
0.967288 0.974141 0.319484
0.967298 0.957769 0.343796
0.964770 0.937465 0.360742
0.964578 0.932469 0.361273
0.964386 0.927136 0.363535
0.963218 0.921499 0.361360
0.963028 0.916167 0.363621
0.963228 0.909159 0.364906
0.962061 0.903186 0.364461
0.053705 0.966169 0.195348
0.053705 0.966169 0.195348
0.053705 0.966169 0.195348
0.053705 0.966169 0.195348
0.053705 0.966169 0.195348
0.053705 0.966169 0.195348
0.053705 0.966169 0.195348
0.053705 0.966169 0.195348
0.053705 0.966169 0.195348
0.053705 0.966169 0.195348
0.053705 0.966169 0.195348
0.053705 0.966169 0.195348
0.057419 0.965751 0.196324
0.101213 0.965760 0.201344
0.162211 0.964712 0.209515
0.246475 0.962468 0.222794
0.348921 0.959805 0.241931
0.444520 0.960966 0.259336
0.547550 0.960954 0.280426
0.644518 0.962762 0.290910
0.731319 0.965793 0.304633
0.807367 0.968404 0.314449
0.873249 0.972239 0.327504
0.930723 0.974588 0.344551
0.969039 0.978059 0.346109
0.967480 0.977121 0.329336
0.969241 0.971053 0.347395
0.968464 0.961390 0.356355
0.966905 0.956755 0.358618
0.966713 0.951758 0.359149
0.966521 0.946089 0.363140
0.966330 0.941093 0.363672
0.965162 0.935119 0.363226
0.053705 0.966169 0.195348
0.053705 0.966169 0.195348
0.053705 0.966169 0.195348
0.053705 0.966169 0.195348
0.053705 0.966169 0.195348
0.053705 0.966169 0.195348
0.053705 0.966169 0.195348
0.053705 0.966169 0.195348
0.053705 0.966169 0.195348
0.053705 0.966169 0.195348
0.053705 0.966169 0.195348
0.053705 0.966169 0.195348
0.053705 0.965833 0.197078
0.080685 0.964890 0.199700
0.136600 0.964957 0.206894
0.209719 0.964303 0.215512
0.306103 0.961780 0.232696
0.405810 0.960849 0.250101
0.506495 0.960558 0.270215
0.604047 0.963336 0.291304
0.694563 0.964267 0.314656
0.771196 0.967177 0.338539
0.834731 0.969388 0.357539
0.892790 0.973045 0.383461
0.943810 0.976536 0.402992
0.969814 0.978314 0.385601
0.968063 0.977756 0.341673
0.969039 0.977724 0.347839
0.969433 0.976050 0.346863
0.968456 0.974400 0.349348
0.968848 0.972055 0.351833
0.968265 0.968397 0.355070
0.969049 0.964712 0.354847
0.053705 0.966169 0.195348
0.053705 0.966169 0.195348
0.053705 0.966169 0.195348
0.053705 0.966169 0.195348
0.053705 0.966169 0.195348
0.053705 0.966169 0.195348
0.053705 0.966169 0.195348
0.053705 0.966169 0.195348
0.053705 0.966169 0.195348
0.053705 0.966169 0.195348
0.053705 0.966169 0.195348
0.053705 0.966169 0.195348
0.053705 0.966169 0.195348
0.063480 0.965947 0.196546
0.111965 0.966515 0.203519
0.178048 0.964352 0.212668
0.267002 0.962665 0.227898
0.364364 0.962127 0.240867
0.466415 0.960466 0.264442
0.566708 0.961850 0.285532
0.660939 0.963036 0.306398
0.741285 0.966199 0.327797
0.809512 0.968633 0.350480
0.870309 0.971566 0.372941
