Sources/Resources/LUT/gfx-eterna-55-3d-lut-v100/33Grid/F-Log2/FLog2_to_CLASSIC-CHROME_33grid_V.1.00.cube
#title:FLog2_to_CLASSIC-CHROME
#model:GFX ETERNA 55
#FUJIFILM Corporation
#Gamma:F-Log2 to CLASSIC CHROME
#Gamut:F-Gamut to ITU-R BT.709
#Version:1.00
LUT_3D_SIZE 9
0.000000 0.000000 0.000000
0.006061 0.000197 0.000222
0.097362 0.001477 0.002586
0.326102 0.004330 0.013309
0.737434 0.014015 0.066742
0.971160 0.093774 0.276585
0.969772 0.118814 0.271222
0.969772 0.118814 0.271222
0.969772 0.118814 0.271222
0.000192 0.004997 0.000000
0.001560 0.004300 0.000000
0.091884 0.004267 0.002586
0.374193 0.007915 0.014335
0.847682 0.028481 0.105720
0.971342 0.110775 0.274238
0.969772 0.118814 0.271222
0.969772 0.118814 0.271222
0.969772 0.118814 0.271222
0.000918 0.070980 0.000460
0.000526 0.072990 0.000000
0.089672 0.078988 0.000562
0.427301 0.092392 0.014008
0.844654 0.143567 0.095008
0.964428 0.198956 0.258063
0.967770 0.176542 0.261919
0.968575 0.148515 0.267058
0.969964 0.123811 0.270692
0.000000 0.402683 0.000983
0.000000 0.412678 0.000000
0.034683 0.374894 0.000316
0.388166 0.365947 0.010163
0.795371 0.396692 0.085923
0.957971 0.441462 0.242723
0.957838 0.371504 0.217813
0.960223 0.322762 0.231247
0.961430 0.280386 0.240687
0.030577 0.837968 0.016668
0.030597 0.814297 0.018571
0.024364 0.786777 0.013858
0.283436 0.755276 0.027683
0.741319 0.738562 0.094961
0.952432 0.746210 0.272836
0.952126 0.643216 0.272855
0.953344 0.594214 0.256426
0.957692 0.541135 0.244211
0.051378 0.966752 0.069949
0.049819 0.967495 0.044523
0.047866 0.967222 0.033919
0.047866 0.967222 0.033919
0.573592 0.945973 0.109367
0.918851 0.930024 0.236800
0.958970 0.863955 0.343286
0.955685 0.817039 0.336484
0.952977 0.786120 0.322898
0.053705 0.966169 0.195348
0.053705 0.966169 0.195348
0.053705 0.966169 0.195348
0.057419 0.965751 0.196324
0.348921 0.959805 0.241931
0.731319 0.965793 0.304633
0.969039 0.978059 0.346109
0.966905 0.956755 0.358618
0.965162 0.935119 0.363226
0.053705 0.966169 0.195348
0.053705 0.966169 0.195348
0.053705 0.966169 0.195348
0.053705 0.966169 0.195348
0.197597 0.963909 0.215067
0.587234 0.962384 0.288906
0.882038 0.973634 0.374363
0.969039 0.977724 0.347839
0.969039 0.977724 0.347839
0.053705 0.966169 0.195348
0.053705 0.966169 0.195348
0.053705 0.966169 0.195348
0.053705 0.966169 0.195348
0.089091 0.965367 0.200898
0.427708 0.960349 0.255207
0.785663 0.967515 0.341691
0.970399 0.978611 0.399668
0.969039 0.977724 0.347839
0.000000 0.000000 0.001731
0.009776 0.000115 0.000000
0.107136 0.001593 0.002055
0.347021 0.003525 0.013977
0.789039 0.021166 0.083035
0.969982 0.099469 0.276054
0.969772 0.118814 0.271222
0.969772 0.118814 0.271222
0.969772 0.118814 0.271222
0.000000 0.005998 0.003906
0.004883 0.004883 0.004883
0.099899 0.006418 0.004761
0.411926 0.008064 0.017402
0.892049 0.039111 0.131642
0.971926 0.114097 0.272730
0.969772 0.118814 0.271222
0.969772 0.118814 0.271222
0.969772 0.118814 0.271222
0.000000 0.081322 0.020386
0.000000 0.079655 0.009782
0.096709 0.079826 0.003492
0.436885 0.087174 0.015738
0.855608 0.137315 0.098469
0.965415 0.188265 0.259125
0.966995 0.168558 0.262226
0.968775 0.141508 0.268343
0.969772 0.118814 0.271222
0.000000 0.441616 0.050069
0.000434 0.413311 0.012259
0.038014 0.364819 0.000625
0.392676 0.350850 0.007543
0.801833 0.382875 0.088715
0.959551 0.422764 0.240632
0.958239 0.356818 0.223843
0.960625 0.308412 0.235547
0.963202 0.266011 0.241527
0.033890 0.836440 0.092946
0.029620 0.809959 0.034899
0.023981 0.776784 0.014923
0.289899 0.742468 0.025285
0.744459 0.723490 0.095800
0.952251 0.729883 0.271722
0.951945 0.627561 0.268282
0.954532 0.577861 0.251850
0.957510 0.525479 0.239637
0.054883 0.966524 0.164731
0.051963 0.966378 0.087477
0.047866 0.967222 0.033919
0.047866 0.967222 0.033919
0.589237 0.941287 0.109590
0.924138 0.922238 0.237333
0.957216 0.854995 0.342616
0.955304 0.808390 0.330625
0.952987 0.774789 0.321254
0.059364 0.964247 0.276063
0.055458 0.966390 0.241008
0.054681 0.965801 0.203246
0.059766 0.966030 0.197301
0.351265 0.960420 0.241176
0.741879 0.964912 0.290035
0.968848 0.976424 0.329336
0.967106 0.949747 0.359901
0.963995 0.929146 0.362780
0.059364 0.964247 0.276063
0.055458 0.966055 0.242738
0.054290 0.967139 0.205952
0.053705 0.966169 0.195348
0.201312 0.963828 0.214312
0.592318 0.961604 0.288152
0.885752 0.972543 0.378800
0.969039 0.977724 0.347839
0.969039 0.977724 0.347839
0.060341 0.964552 0.280500
0.056435 0.966695 0.245446
0.054290 0.966131 0.211144
0.053705 0.966169 0.195348
0.095152 0.965563 0.201120
0.433767 0.959874 0.258890
0.788007 0.967458 0.344398
0.970399 0.978947 0.397936
0.969039 0.977724 0.347839
0.000000 0.000621 0.031594
0.005859 0.001826 0.026625
0.120033 0.003921 0.033339
0.399604 0.007283 0.053742
0.840635 0.032925 0.135582
0.971342 0.111111 0.272508
0.969772 0.118814 0.271222
0.969772 0.118814 0.271222
0.969772 0.118814 0.271222
0.000000 0.008922 0.058441
0.000765 0.009905 0.049789
0.117679 0.010268 0.058234
0.473499 0.010915 0.081086
0.932883 0.058758 0.197501
0.969379 0.120825 0.270470
0.969772 0.118814 0.271222
0.969772 0.118814 0.271222
0.969772 0.118814 0.271222
0.000000 0.114129 0.132214
0.000000 0.106494 0.111535
0.097656 0.097656 0.097656
0.472836 0.097569 0.099211
0.874554 0.142434 0.176613
0.963853 0.183966 0.259656
0.966219 0.160239 0.264266
0.968001 0.133190 0.270383
0.969772 0.118814 0.271222
0.006960 0.502394 0.290277
0.004282 0.449245 0.211192
0.012354 0.394834 0.144664
0.402422 0.363449 0.122695
0.814529 0.383136 0.165437
0.958776 0.409067 0.270360
0.960011 0.342108 0.226415
0.961420 0.292725 0.237140
0.962818 0.255345 0.246051
0.044782 0.841379 0.398722
0.036024 0.813720 0.307130
0.030988 0.776328 0.204485
0.267398 0.738109 0.149569
0.749342 0.713922 0.175093
0.951868 0.715857 0.293550
0.953133 0.611543 0.261976
0.956112 0.559834 0.246300
0.957720 0.507814 0.235816
0.062082 0.964679 0.386640
0.060531 0.964845 0.304196
0.053705 0.966506 0.193617
0.050987 0.961369 0.107265
0.593928 0.932772 0.158266
0.929220 0.915745 0.265997
0.956250 0.843360 0.336535
0.953944 0.797756 0.328981
0.953389 0.762121 0.316902
0.065596 0.964546 0.420942
0.060129 0.965751 0.369113
0.059746 0.964832 0.323453
0.059554 0.965212 0.296296
0.348910 0.961053 0.295488
0.749892 0.966054 0.297401
0.968265 0.976798 0.311809
0.965938 0.943102 0.362918
0.964588 0.920801 0.361360
0.065596 0.963874 0.424402
0.059737 0.966416 0.375282
0.059354 0.965496 0.329621
0.059948 0.964546 0.290130
0.205995 0.962610 0.285398
0.597201 0.962454 0.313801
0.888098 0.972823 0.379777
0.969039 0.977724 0.347839
0.969039 0.977724 0.347839
0.065204 0.964204 0.432301
0.059737 0.965744 0.378742
0.060331 0.965465 0.335790
0.059554 0.965212 0.296296
0.094357 0.966800 0.273937
0.437282 0.960749 0.288000
0.794069 0.967655 0.344621
0.970399 0.978947 0.397936
0.969039 0.977724 0.347839
0.000000 0.006138 0.132766
0.000172 0.005815 0.115239
0.133897 0.007802 0.122622
0.483254 0.015880 0.175559
0.897668 0.062686 0.321031
0.965193 0.191385 0.397835
0.969723 0.162028 0.348664
0.969752 0.136772 0.298739
0.968987 0.122834 0.269715
0.000000 0.021033 0.191652
0.000343 0.019022 0.192407
0.134652 0.019963 0.220777
0.565927 0.026190 0.282554
0.959604 0.092479 0.416359
0.965768 0.201670 0.420469
0.966392 0.169750 0.360468
0.969944 0.141097 0.301669
0.970355 0.121801 0.271446
0.000761 0.179015 0.404015
0.002140 0.168330 0.395450
0.073718 0.147437 0.366699
0.524374 0.141356 0.346785
0.901466 0.177792 0.412245
0.961803 0.262726 0.442005
0.964600 0.205443 0.369841
0.970528 0.144419 0.300161
0.970355 0.121801 0.271446
0.020143 0.570558 0.632855
0.013165 0.514505 0.554301
0.008340 0.455749 0.466871
0.409180 0.409180 0.409180
0.830297 0.416052 0.417176
0.958134 0.438108 0.465164
0.957416 0.375580 0.386387
0.961199 0.308278 0.311825
0.961067 0.246050 0.247114
0.057429 0.853598 0.713820
0.050230 0.825533 0.645922
0.042849 0.785173 0.556144
0.198911 0.745808 0.469450
0.750269 0.720471 0.447323
0.953005 0.717175 0.497933
0.952318 0.617966 0.428067
0.955115 0.561019 0.354171
0.958697 0.499717 0.283516
0.081201 0.960824 0.656165
0.077103 0.961332 0.604336
0.071053 0.962911 0.534980
0.059737 0.950621 0.456613
0.569647 0.923201 0.442558
0.931145 0.910691 0.484000
0.959945 0.837037 0.487889
0.955304 0.790242 0.424070
0.952412 0.752406 0.360918
0.078664 0.960927 0.628032
0.073590 0.962136 0.566573
0.069885 0.962651 0.505117
0.067157 0.963132 0.449828
0.333830 0.960133 0.459711
0.750649 0.967797 0.449204
0.972151 0.979506 0.441868
0.967298 0.937268 0.449356
0.964195 0.913738 0.407328
0.081009 0.959861 0.635929
0.073197 0.962467 0.574473
0.069492 0.963315 0.511285
0.065787 0.963494 0.451559
0.173125 0.961441 0.437595
0.591313 0.962022 0.459964
0.889055 0.976633 0.486140
0.970982 0.978573 0.415465
0.969814 0.978649 0.383872
0.080617 0.960527 0.642098
0.074173 0.962098 0.582371
0.069100 0.963646 0.519184
0.066763 0.963462 0.457725
0.065989 0.963545 0.416505
0.431393 0.959646 0.437625
0.793656 0.969810 0.463097
0.972342 0.980133 0.463832
0.969814 0.978649 0.383872
0.001099 0.019086 0.352860
0.001301 0.019136 0.317806
0.152815 0.022045 0.333754
0.582702 0.045245 0.431699
0.951733 0.121399 0.579347
0.961782 0.262199 0.564695
0.963363 0.249886 0.529726
0.963382 0.235289 0.484906
0.964963 0.224319 0.443016
0.003004 0.056858 0.470324
0.003387 0.058113 0.514254
0.118920 0.063448 0.560684
0.653799 0.087004 0.629843
0.964197 0.158290 0.682215
0.962357 0.271139 0.594250
0.962769 0.254533 0.550183
0.964551 0.238574 0.499197
0.964963 0.223311 0.448207
0.004119 0.303384 0.757079
0.003727 0.301362 0.777090
0.004550 0.258066 0.740872
0.548680 0.230591 0.697313
0.923256 0.250852 0.698474
0.959369 0.330147 0.632336
0.960586 0.290556 0.567454
0.965135 0.240552 0.504610
0.964963 0.223647 0.446476
0.035871 0.650143 0.884250
0.029467 0.601686 0.842172
0.020334 0.544301 0.793259
0.346101 0.493406 0.740571
0.843297 0.476625 0.713649
0.956868 0.505454 0.687089
0.959262 0.463193 0.607164
0.959320 0.404951 0.547113
0.958413 0.336755 0.472329
0.062293 0.846528 0.900231
0.058205 0.831335 0.869254
0.055103 0.807469 0.828957
0.046736 0.770070 0.777919
0.743164 0.743164 0.743164
0.958233 0.733350 0.735024
0.955381 0.653551 0.647988
0.953678 0.599698 0.578530
0.956284 0.537419 0.506898
0.093293 0.957236 0.857086
0.089589 0.951364 0.828508
0.085299 0.943514 0.794517
0.073781 0.931174 0.751204
0.469708 0.909009 0.717789
0.922901 0.903500 0.722547
0.963238 0.835319 0.685128
0.957811 0.792207 0.621532
0.956290 0.754682 0.553187
0.088410 0.959411 0.815863
0.089397 0.958466 0.766742
0.083929 0.959671 0.714915
0.081201 0.960489 0.657894
0.168404 0.958916 0.625734
0.734582 0.969501 0.653894
0.977981 0.981718 0.646473
0.972161 0.933560 0.618460
0.968083 0.909724 0.571996
0.092125 0.957985 0.822032
0.089003 0.958795 0.774641
0.084905 0.959639 0.721081
0.079832 0.960178 0.663086
0.078080 0.960292 0.615695
0.577400 0.963377 0.643667
0.885704 0.979461 0.643132
0.976037 0.983222 0.566735
0.974679 0.981662 0.518367
0.091731 0.958986 0.826468
0.089980 0.959100 0.779079
0.084514 0.960304 0.727250
0.080809 0.960147 0.669255
0.078080 0.960628 0.613965
0.374473 0.958988 0.607435
0.785220 0.972073 0.627765
0.977789 0.984787 0.605472
0.975655 0.981965 0.522804
0.003941 0.067871 0.659579
0.002974 0.062285 0.622347
0.129059 0.077062 0.661016
0.648666 0.124948 0.739188
0.962751 0.226449 0.814774
0.959933 0.335968 0.737945
0.959954 0.319020 0.705239
0.960366 0.301068 0.668094
0.961169 0.282788 0.623051
0.004246 0.144653 0.794536
0.004417 0.163574 0.842285
0.003814 0.176192 0.881691
0.655979 0.233535 0.897582
0.962097 0.290010 0.891820
0.961675 0.350547 0.769676
0.962481 0.330922 0.731555
0.959963 0.310713 0.688021
0.961946 0.287747 0.638316
0.018218 0.466726 0.975523
0.018218 0.466726 0.975523
0.015913 0.419442 0.976622
0.433947 0.380456 0.937570
0.931908 0.381646 0.918906
0.958305 0.401577 0.798441
0.959913 0.356950 0.749887
0.958393 0.316065 0.698848
0.962138 0.291063 0.646438
0.038972 0.666953 0.960887
0.035076 0.650371 0.962258
0.036072 0.628349 0.961677
0.030041 0.592142 0.966903
0.827736 0.572638 0.928258
0.955238 0.551235 0.849684
0.956073 0.505009 0.768559
0.959252 0.453351 0.717829
0.957740 0.401470 0.663413
0.058406 0.807525 0.957063
0.056261 0.800239 0.957372
0.054902 0.789605 0.955726
0.051982 0.774001 0.958074
0.630512 0.755406 0.924196
0.960549 0.737714 0.894946
0.956107 0.690969 0.796072
0.954194 0.650412 0.752930
0.954826 0.604473 0.705129
0.086467 0.921593 0.938590
0.086275 0.916260 0.940852
0.086084 0.910928 0.943113
0.079056 0.902120 0.921235
0.129322 0.884376 0.889333
0.885742 0.885742 0.885742
0.967901 0.841641 0.837374
0.963832 0.806139 0.790996
0.960740 0.771612 0.745593
0.100321 0.956298 0.929148
0.099344 0.957338 0.917789
0.095829 0.957807 0.881758
0.092708 0.957946 0.837829
0.088410 0.959746 0.814133
0.642668 0.967637 0.818907
0.985582 0.974262 0.827692
0.976631 0.930515 0.793734
0.973529 0.906649 0.753437
0.100321 0.956298 0.929148
0.100321 0.957642 0.922227
0.095438 0.958809 0.886195
0.093684 0.958250 0.842266
0.089195 0.959087 0.798335
0.407878 0.959643 0.773438
0.867885 0.980943 0.802163
0.984214 0.990418 0.748091
0.983246 0.987521 0.697016
0.100321 0.956298 0.929148
0.100321 0.956970 0.925687
0.095438 0.957800 0.891387
0.093293 0.958916 0.848433
0.088802 0.960090 0.802773
0.107578 0.960065 0.762219
0.762318 0.973662 0.791011
0.986750 0.990989 0.772763
0.982854 0.988187 0.703183
0.003622 0.170523 0.885683
0.004417 0.159541 0.863051
0.003785 0.204473 0.916042
0.638524 0.288845 0.949820
0.962010 0.379556 0.970649
0.960027 0.429407 0.881914
0.961023 0.411418 0.860566
0.960458 0.391147 0.829367
0.960287 0.369201 0.797192
0.009738 0.318893 0.988000
0.012255 0.347841 0.986544
0.011651 0.369196 0.980957
0.395784 0.421929 0.969746
0.936741 0.436463 0.966621
0.957461 0.453084 0.912359
0.957873 0.433453 0.883868
0.960831 0.407766 0.854176
0.960468 0.382504 0.813879
0.023847 0.516609 0.969456
0.021511 0.504327 0.970297
0.020937 0.489002 0.973621
0.020947 0.477334 0.973707
0.820155 0.514416 0.965250
0.957814 0.492702 0.938726
0.959222 0.452056 0.904461
0.960430 0.418419 0.868910
0.960268 0.387493 0.822977
0.035076 0.650371 0.962258
0.035287 0.632033 0.961898
0.033152 0.612408 0.965754
0.030041 0.592142 0.966903
0.624367 0.615153 0.960058
0.956367 0.582368 0.960536
0.955611 0.561133 0.909102
0.955460 0.517197 0.870176
0.957853 0.467541 0.828319
0.055093 0.794267 0.956926
0.052567 0.776987 0.958298
0.050823 0.756696 0.955984
0.048497 0.732075 0.960371
0.163667 0.713491 0.959581
0.911079 0.733049 0.963051
0.960186 0.700688 0.915215
0.956308 0.668502 0.876957
0.954979 0.630261 0.837500
0.086275 0.916260 0.940852
0.082962 0.902329 0.944176
0.075743 0.883820 0.947055
0.067549 0.863661 0.952418
0.062091 0.842444 0.956051
0.765719 0.848645 0.963238
0.969844 0.836441 0.936149
0.967135 0.810901 0.894875
0.962663 0.786722 0.859769
0.100321 0.956298 0.929148
0.100321 0.956298 0.929148
0.100321 0.956298 0.929148
0.099344 0.954985 0.929902
0.096806 0.949038 0.932918
0.275703 0.939006 0.943676
0.951172 0.951172 0.951172
0.981111 0.925887 0.917179
0.978202 0.905000 0.886735
0.100321 0.956298 0.929148
0.100321 0.956298 0.929148
0.100321 0.956298 0.929148
0.100321 0.956298 0.929148
0.100321 0.955962 0.930879
0.099736 0.957681 0.906431
0.806283 0.979487 0.911269
0.992982 0.995320 0.896875
0.988885 0.993475 0.857160
0.100321 0.956298 0.929148
0.100321 0.956298 0.929148
0.100321 0.956298 0.929148
0.100321 0.956298 0.929148
0.100321 0.956298 0.929148
0.098368 0.957706 0.909892
0.602188 0.965091 0.895355
0.978122 0.994305 0.906812
0.989861 0.993443 0.863328
0.009929 0.323891 0.987469
0.009728 0.330560 0.987915
0.012628 0.370173 0.981934
0.349031 0.452311 0.970191
0.895005 0.548745 0.960520
0.956234 0.507031 0.963313
0.957413 0.501338 0.963844
0.956636 0.493355 0.964153
0.958026 0.474363 0.938368
0.016496 0.422428 0.976844
0.016889 0.420418 0.977598
0.015913 0.419106 0.978351
0.132210 0.454508 0.970742
0.841055 0.537618 0.962286
0.956033 0.514039 0.962028
0.956033 0.514039 0.962028
0.957413 0.501338 0.963844
0.957814 0.488669 0.959492
0.021894 0.514320 0.969234
0.022689 0.498633 0.970827
0.021723 0.485317 0.973399
0.020161 0.481018 0.973930
0.743292 0.548809 0.964051
0.956024 0.526042 0.960211
0.956033 0.514039 0.962028
0.957211 0.508008 0.964290
0.956636 0.493355 0.964153
0.034884 0.645374 0.962789
0.036464 0.626340 0.962429
0.032376 0.604761 0.964331
0.030242 0.585473 0.966458
0.561809 0.610220 0.961071
0.957295 0.641344 0.962813
0.955974 0.584042 0.961512
0.955793 0.567715 0.960398
0.955229 0.541393 0.960347
0.054902 0.789605 0.955726
0.052768 0.770316 0.957852
0.048679 0.749075 0.958023
0.045378 0.723812 0.959704
0.108740 0.701389 0.960371
0.850473 0.731079 0.960825
0.958816 0.692312 0.961938
0.958443 0.670988 0.961356
0.957678 0.651337 0.961750
0.086084 0.911264 0.941383
0.080033 0.898728 0.944708
0.071837 0.878234 0.951802
0.066381 0.857016 0.955433
0.063078 0.832090 0.955382
0.701026 0.825769 0.959454
0.969259 0.826397 0.972265
0.966551 0.793462 0.969063
0.965000 0.778169 0.966219
0.100321 0.956298 0.929148
0.100321 0.956298 0.929148
0.100321 0.956298 0.929148
0.098368 0.954009 0.928926
0.093293 0.941777 0.936688
0.220000 0.918922 0.944773
0.902505 0.927555 0.977695
0.980527 0.910465 0.980985
0.977608 0.895869 0.978142
0.100321 0.956298 0.929148
0.100321 0.956298 0.929148
0.100321 0.956298 0.929148
0.100321 0.956298 0.929148
0.100321 0.955962 0.930879
0.099927 0.957300 0.933587
0.700706 0.972110 0.960597
1.000000 1.000000 1.000000
0.995117 0.997470 0.983004
0.100321 0.956298 0.929148
0.100321 0.956298 0.929148
0.100321 0.956298 0.929148
0.100321 0.956298 0.929148
0.100321 0.956298 0.929148
0.098951 0.956660 0.930879
0.353696 0.958263 0.939785
0.932559 0.992203 0.985746
0.997070 0.999423 0.984957
0.014361 0.403139 0.978969
0.015328 0.416119 0.978130
0.016889 0.420418 0.977598
0.329853 0.474415 0.966645
0.909080 0.551427 0.961187
0.956033 0.514039 0.962028
0.956033 0.514039 0.962028
0.956033 0.514039 0.962028
0.956033 0.514039 0.962028
0.017080 0.425414 0.977067
0.015328 0.416119 0.978130
0.015913 0.419106 0.978351
0.182256 0.460384 0.971992
0.855129 0.540301 0.962953
0.956033 0.514039 0.962028
0.956033 0.514039 0.962028
0.956033 0.514039 0.962028
0.956033 0.514039 0.962028
0.022679 0.510300 0.970742
0.021128 0.493999 0.973090
0.020555 0.479344 0.972954
0.019970 0.476357 0.972730
0.756197 0.545855 0.962544
0.955833 0.520709 0.962473
0.956033 0.514039 0.962028
0.956033 0.514039 0.962028
0.956033 0.514039 0.962028
0.036062 0.639681 0.963321
0.032951 0.619415 0.964468
0.030232 0.597140 0.966371
0.029858 0.576151 0.964059
0.576084 0.605896 0.963024
0.957103 0.636348 0.963343
0.956175 0.577371 0.961067
0.955602 0.562717 0.960931
0.956396 0.547031 0.962524
0.055103 0.782936 0.955281
0.050624 0.763031 0.958160
0.047904 0.741091 0.958332
0.045971 0.715131 0.960013
0.129861 0.694251 0.958863
0.855365 0.725304 0.960602
0.959018 0.685642 0.961492
0.957275 0.665015 0.960911
0.956902 0.643355 0.962059
0.083154 0.907662 0.941914
0.075150 0.892165 0.948477
0.072039 0.871563 0.951356
0.062867 0.850428 0.955742
0.058195 0.825863 0.957423
0.710025 0.818237 0.957501
0.968878 0.817076 0.969867
0.965775 0.785816 0.967641
0.963057 0.763876 0.967812
0.100321 0.956298 0.929148
0.100321 0.956298 0.929148
0.099344 0.955321 0.928171
0.098368 0.954009 0.928926
0.092125 0.935468 0.937973
0.250504 0.912899 0.947171
0.906030 0.922476 0.977472
0.979752 0.902482 0.981292
0.976641 0.882888 0.978981
0.100321 0.956298 0.929148
0.100321 0.956298 0.929148
0.100321 0.956298 0.929148
0.100321 0.956298 0.929148
0.100321 0.955962 0.930879
0.099927 0.957300 0.933587
0.709114 0.972922 0.960066
1.000000 1.000000 1.000000
0.994926 0.990121 0.995649
0.100321 0.956298 0.929148
0.100321 0.956298 0.929148
0.100321 0.956298 0.929148
0.100321 0.956298 0.929148
0.100321 0.956298 0.929148
0.098951 0.956660 0.930879
0.368162 0.958935 0.941206
0.934904 0.992481 0.986722
1.000000 1.000000 1.000000
