Sources/Resources/LUT/gfx-eterna-55-3d-lut-v100/33Grid/F-Log2/FLog2_to_ETERNA-BB_33grid_V.1.00.cube
#title:FLog2_to_ETERNA-BB
#model:GFX ETERNA 55
#FUJIFILM Corporation
#Gamma:F-Log2 to ETERNA BLEACH BYPASS
#Gamut:F-Gamut to ITU-R BT.709
#Version:1.00
LUT_3D_SIZE 9
0.000000 0.000000 0.000000
0.014073 0.002683 0.000667
0.081516 0.010145 0.016653
0.194894 0.024565 0.039078
0.446890 0.035870 0.065202
0.614583 0.088359 0.117507
0.622971 0.110153 0.128919
0.622971 0.110153 0.128919
0.622971 0.110153 0.128919
0.001943 0.013620 0.001868
0.012695 0.014039 0.005774
0.081899 0.020138 0.015590
0.226557 0.035848 0.043567
0.514343 0.032673 0.076083
0.618873 0.101587 0.123812
0.622971 0.110153 0.128919
0.622971 0.110153 0.128919
0.622971 0.110153 0.128919
0.023187 0.088108 0.025183
0.025141 0.089726 0.028868
0.097858 0.101740 0.041836
0.275173 0.109063 0.061605
0.547486 0.133862 0.119153
0.645000 0.178605 0.164124
0.638959 0.157762 0.150230
0.629595 0.134655 0.139574
0.623554 0.113140 0.129140
0.106058 0.331432 0.122563
0.109764 0.341673 0.128644
0.146740 0.311848 0.125269
0.303529 0.315613 0.157239
0.623512 0.376641 0.237297
0.779257 0.454715 0.300567
0.723631 0.351374 0.250438
0.694555 0.291736 0.222598
0.671529 0.243290 0.198355
0.321099 0.775258 0.348554
0.309582 0.756868 0.336390
0.299635 0.731447 0.322051
0.457401 0.735852 0.356727
0.754127 0.788091 0.423113
0.923804 0.812909 0.449942
0.888716 0.694737 0.422309
0.865306 0.637306 0.393938
0.835063 0.572703 0.360460
0.438872 0.892071 0.483269
0.422652 0.885463 0.465606
0.397051 0.878409 0.440574
0.465076 0.892219 0.439477
0.713721 0.934917 0.475503
0.909803 0.945146 0.499625
0.944635 0.907363 0.500019
0.938019 0.872539 0.482527
0.933549 0.843320 0.473379
0.518414 0.912171 0.556633
0.518414 0.912171 0.556633
0.518414 0.912171 0.556633
0.528773 0.915273 0.556324
0.641558 0.938038 0.580173
0.826093 0.962863 0.602253
0.951413 0.973448 0.561716
0.951814 0.962796 0.546980
0.949871 0.951192 0.534730
0.518414 0.912171 0.556633
0.518414 0.912171 0.556633
0.518414 0.912171 0.556633
0.518414 0.912171 0.556633
0.588000 0.927254 0.570577
0.749854 0.954246 0.598160
0.908978 0.972646 0.617176
0.952389 0.973752 0.566152
0.952389 0.973752 0.566152
0.518414 0.912171 0.556633
0.518414 0.912171 0.556633
0.518414 0.912171 0.556633
0.518414 0.912171 0.556633
0.547540 0.918178 0.560676
0.677721 0.944882 0.587145
0.856589 0.966156 0.616680
0.954533 0.975661 0.593531
0.952389 0.973752 0.566152
0.000000 0.000000 0.001731
0.020135 0.002881 0.000892
0.086207 0.011040 0.016875
0.205647 0.025322 0.041254
0.478170 0.037161 0.070755
0.616728 0.094973 0.120660
0.622971 0.110153 0.128919
0.622971 0.110153 0.128919
0.622971 0.110153 0.128919
0.002135 0.015929 0.015180
0.017578 0.017578 0.017578
0.085805 0.023708 0.021226
0.249239 0.031665 0.048450
0.540920 0.044400 0.083055
0.622779 0.105829 0.125989
0.622971 0.110153 0.128919
0.622971 0.110153 0.128919
0.622971 0.110153 0.128919
0.028060 0.098273 0.062860
0.026501 0.095991 0.053008
0.102156 0.102629 0.051687
0.282996 0.106217 0.064313
0.553940 0.132050 0.120130
0.641296 0.168364 0.158043
0.634470 0.150197 0.149563
0.628820 0.127344 0.136422
0.622971 0.110153 0.128919
0.120094 0.371039 0.173070
0.108586 0.343335 0.148880
0.146548 0.305507 0.132723
0.301001 0.301023 0.144765
0.620984 0.361042 0.230015
0.767548 0.430657 0.292394
0.713090 0.333288 0.242710
0.686752 0.272928 0.211410
0.668217 0.231375 0.191297
0.319328 0.779214 0.401360
0.307427 0.756208 0.362569
0.296514 0.722513 0.324844
0.451742 0.722986 0.352153
0.753946 0.771764 0.422000
0.920883 0.797975 0.448827
0.884628 0.675511 0.412098
0.856920 0.615513 0.382527
0.826677 0.551246 0.347320
0.428503 0.892907 0.523293
0.413461 0.884637 0.485395
0.390990 0.878213 0.440351
0.463708 0.893588 0.436016
0.719591 0.930454 0.474527
0.911957 0.941437 0.495942
0.942884 0.899411 0.494160
0.937637 0.863218 0.480128
0.930820 0.834056 0.468273
0.516451 0.915500 0.587472
0.520558 0.916096 0.573629
0.518022 0.913509 0.559339
0.528773 0.915273 0.556324
0.645273 0.937956 0.579417
0.828832 0.963484 0.591871
0.949460 0.973512 0.549379
0.951623 0.958472 0.544051
0.949680 0.946532 0.533532
0.516451 0.915500 0.587472
0.520558 0.916096 0.573629
0.518022 0.913509 0.559339
0.518414 0.912171 0.556633
0.591715 0.927172 0.569825
0.753569 0.953828 0.599137
0.910348 0.971949 0.617176
0.952389 0.973752 0.566152
0.952389 0.973752 0.566152
0.515082 0.915861 0.589203
0.521928 0.915062 0.575359
0.518022 0.913173 0.561071
0.518414 0.912171 0.556633
0.547540 0.918178 0.560676
0.679090 0.944185 0.587145
0.860303 0.965737 0.617656
0.954533 0.975661 0.593531
0.952389 0.973752 0.566152
0.005266 0.007482 0.041890
0.024424 0.009386 0.041805
0.093426 0.021147 0.057257
0.245907 0.035019 0.082750
0.517845 0.044543 0.108565
0.622779 0.105829 0.125989
0.622971 0.110153 0.128919
0.622971 0.110153 0.128919
0.622971 0.110153 0.128919
0.012867 0.031281 0.062176
0.022643 0.031732 0.059914
0.100836 0.040284 0.076345
0.291844 0.039625 0.101304
0.575493 0.073208 0.135293
0.622578 0.112164 0.128165
0.622971 0.110153 0.128919
0.622971 0.110153 0.128919
0.622971 0.110153 0.128919
0.034484 0.120708 0.118954
0.031363 0.114461 0.107902
0.118164 0.118164 0.118164
0.311910 0.118463 0.131012
0.574447 0.146173 0.173515
0.642081 0.165016 0.156090
0.634087 0.141212 0.145434
0.625699 0.119754 0.132292
0.622971 0.110153 0.128919
0.139175 0.440402 0.305542
0.118312 0.383637 0.241364
0.163715 0.337340 0.206480
0.326583 0.323008 0.212886
0.640909 0.372514 0.281450
0.761305 0.412787 0.297980
0.704310 0.313168 0.232277
0.680117 0.259085 0.205860
0.661582 0.218205 0.182286
0.317729 0.794026 0.543445
0.310137 0.765618 0.486906
0.301376 0.732582 0.423000
0.453685 0.726188 0.407664
0.758053 0.764630 0.447957
0.918940 0.783011 0.453883
0.876039 0.659717 0.404593
0.846772 0.596089 0.372094
0.817898 0.530789 0.338618
0.408740 0.893540 0.614700
0.394283 0.888257 0.577023
0.375528 0.882086 0.529497
0.456660 0.890976 0.502218
0.722520 0.927333 0.508605
0.916065 0.937328 0.506324
0.940739 0.893134 0.489277
0.934517 0.855291 0.477732
0.927116 0.822807 0.467382
0.494544 0.914896 0.648039
0.505105 0.915024 0.628250
0.511951 0.915570 0.607484
0.532479 0.918456 0.598746
0.648787 0.939503 0.605066
0.834893 0.963346 0.593825
0.951221 0.972484 0.541480
0.948693 0.955878 0.539391
0.949488 0.942207 0.530602
0.494153 0.916233 0.650747
0.503737 0.915385 0.629981
0.509606 0.914617 0.609969
0.515082 0.914852 0.594395
0.597183 0.930000 0.600888
0.757475 0.955382 0.615156
0.910739 0.970611 0.614468
0.952389 0.973752 0.566152
0.952389 0.973752 0.566152
0.494153 0.915561 0.654208
0.501390 0.914769 0.630734
0.509213 0.916292 0.610946
0.513712 0.915214 0.596125
0.551637 0.921368 0.593468
0.682019 0.945434 0.598727
0.861280 0.967050 0.616902
0.953557 0.974685 0.592555
0.952389 0.973752 0.566152
0.019905 0.026741 0.092794
0.032025 0.028143 0.088047
0.110218 0.036696 0.104476
0.302183 0.056988 0.147546
0.573903 0.091140 0.201325
0.659447 0.186817 0.246707
0.645987 0.159176 0.210179
0.630572 0.130927 0.164777
0.623554 0.113140 0.129140
0.027496 0.059853 0.125105
0.028281 0.056169 0.124884
0.125240 0.066619 0.150856
0.360615 0.077599 0.196547
0.620395 0.125670 0.261376
0.665690 0.199645 0.267078
0.647155 0.163805 0.217546
0.634478 0.134497 0.170415
0.622578 0.112164 0.128165
0.055145 0.166667 0.273563
0.055738 0.159667 0.265220
0.143133 0.157713 0.260215
0.361121 0.160481 0.265301
0.625018 0.198824 0.309448
0.691836 0.253329 0.307563
0.659830 0.197818 0.240452
0.636431 0.136786 0.170636
0.622578 0.112164 0.128165
0.199077 0.535031 0.534938
0.170988 0.472768 0.466630
0.203695 0.416128 0.406938
0.393555 0.393555 0.393555
0.707103 0.439447 0.439929
0.808544 0.473499 0.443989
0.745105 0.371419 0.339323
0.696316 0.282643 0.256230
0.657675 0.213290 0.183569
0.282504 0.805589 0.687656
0.287024 0.785546 0.650513
0.302113 0.753291 0.597125
0.466150 0.750310 0.576288
0.781672 0.781207 0.591910
0.936518 0.783785 0.557984
0.896940 0.667459 0.481231
0.863182 0.599965 0.429027
0.820636 0.523681 0.368035
0.369620 0.895914 0.722211
0.360044 0.893834 0.698069
0.360054 0.888552 0.665277
0.440020 0.890796 0.641016
0.722692 0.927771 0.651531
0.922498 0.935996 0.624801
0.949920 0.886807 0.566310
0.938231 0.848151 0.513317
0.928686 0.813086 0.479051
0.449957 0.912761 0.733140
0.467556 0.915071 0.709359
0.480854 0.915148 0.682648
0.512526 0.919133 0.664726
0.652875 0.945622 0.682766
0.840742 0.966421 0.674008
0.955702 0.976930 0.618204
0.953576 0.952695 0.585804
0.949488 0.938846 0.547906
0.448588 0.912786 0.736601
0.465209 0.914120 0.711843
0.479878 0.913836 0.683403
0.490438 0.914635 0.660152
0.596971 0.934896 0.670465
0.762741 0.956815 0.688194
0.916982 0.974701 0.679832
0.955117 0.975959 0.607597
0.954926 0.975332 0.585634
0.448588 0.912114 0.740061
0.463840 0.914145 0.715304
0.478116 0.915198 0.689569
0.489068 0.914661 0.663613
0.540089 0.923528 0.655457
0.690214 0.949797 0.674695
0.867914 0.969131 0.683019
0.956286 0.976892 0.634000
0.954533 0.976669 0.588339
0.048396 0.065244 0.213854
0.043514 0.063387 0.193398
0.143795 0.076100 0.216134
0.386581 0.103529 0.294755
0.653951 0.180343 0.414390
0.716048 0.268618 0.413753
0.702578 0.252980 0.375411
0.688916 0.234026 0.328945
0.675445 0.218725 0.288871
0.063801 0.098104 0.295512
0.072006 0.100210 0.323114
0.171693 0.116226 0.373227
0.475466 0.155955 0.451281
0.702578 0.224750 0.520770
0.727174 0.284312 0.449392
0.709998 0.260115 0.396311
0.691454 0.236950 0.341504
0.677006 0.222016 0.293531
0.133009 0.287187 0.528125
0.141023 0.287320 0.540683
0.187975 0.253964 0.520757
0.466370 0.264028 0.535439
0.721658 0.307558 0.584023
0.765230 0.351015 0.520097
0.727949 0.295993 0.430048
0.693990 0.241218 0.347140
0.677006 0.222016 0.293531
0.247456 0.634364 0.693247
0.229514 0.586146 0.663059
0.219404 0.526105 0.621820
0.477671 0.518259 0.653000
0.794552 0.551052 0.715258
0.873530 0.566675 0.676090
0.835082 0.508368 0.571749
0.792152 0.428477 0.478941
0.733990 0.330951 0.371261
0.289330 0.810313 0.765356
0.288172 0.795697 0.749422
0.283499 0.775502 0.728605
0.448504 0.778106 0.745001
0.807617 0.807617 0.807617
0.962282 0.793532 0.774309
0.937342 0.710580 0.675777
0.906514 0.651392 0.598817
0.867290 0.581405 0.513821
0.297083 0.886449 0.781305
0.298654 0.881097 0.770477
0.310976 0.877173 0.758364
0.396015 0.884927 0.760949
0.702336 0.923978 0.810118
0.933614 0.935128 0.805711
0.962797 0.886256 0.732398
0.959907 0.849763 0.662324
0.946455 0.814824 0.603386
0.374684 0.904354 0.793965
0.399318 0.906157 0.780035
0.419846 0.910387 0.764375
0.463246 0.916105 0.749606
0.615324 0.944662 0.769066
0.846582 0.973098 0.795636
0.967994 0.979777 0.751191
0.961963 0.953316 0.706234
0.956899 0.939500 0.662167
0.372338 0.903739 0.794718
0.397948 0.906182 0.783496
0.418476 0.910413 0.767836
0.440182 0.910295 0.745785
0.559812 0.932933 0.752327
0.771712 0.963784 0.791543
0.922632 0.980078 0.782958
0.963504 0.980614 0.707262
0.962729 0.979016 0.674691
0.369991 0.903124 0.795473
0.394234 0.906265 0.784251
0.416130 0.909799 0.768590
0.437051 0.912691 0.750222
0.500194 0.922961 0.737321
0.685897 0.952416 0.766769
0.872194 0.975542 0.784415
0.967018 0.982498 0.731180
0.961359 0.979377 0.676421
0.097587 0.115138 0.427575
0.091144 0.110324 0.400727
0.194737 0.132264 0.444363
0.509436 0.196374 0.548117
0.764657 0.306451 0.673973
0.793732 0.378524 0.637785
0.777140 0.355631 0.593583
0.758404 0.326799 0.542765
0.737323 0.299030 0.484051
0.130368 0.171909 0.528984
0.142864 0.187914 0.559429
0.211070 0.212002 0.590594
0.596713 0.307205 0.682250
0.805059 0.372424 0.750848
0.809540 0.405771 0.678749
0.792172 0.375568 0.631394
0.768946 0.341522 0.567797
0.744349 0.308511 0.502470
0.260307 0.466433 0.676167
0.267928 0.470257 0.679321
0.249785 0.426022 0.663423
0.552803 0.437121 0.728114
0.824712 0.471901 0.803855
0.839391 0.468687 0.730507
0.806611 0.405866 0.660246
0.773627 0.350387 0.586969
0.749231 0.312721 0.510813
0.289658 0.658019 0.734879
0.293191 0.641609 0.733012
0.291449 0.622325 0.725508
0.463299 0.616739 0.766129
0.846644 0.649631 0.876273
0.915101 0.621482 0.841664
0.885834 0.568609 0.753790
0.850898 0.510842 0.680290
0.814211 0.445459 0.599198
0.287397 0.783345 0.772227
0.287205 0.778684 0.771028
0.286822 0.769364 0.768629
0.358180 0.769064 0.788607
0.772795 0.816257 0.897294
0.963622 0.799943 0.917680
0.947643 0.752766 0.834158
0.937715 0.710395 0.787109
0.920559 0.664544 0.725551
0.298856 0.868378 0.801180
0.296903 0.866088 0.800958
0.296711 0.861428 0.799758
0.311379 0.856438 0.795542
0.618666 0.903090 0.871559
0.927734 0.927734 0.927734
0.973912 0.890764 0.885620
0.970036 0.860258 0.838711
0.965181 0.829111 0.789093
0.298836 0.890368 0.807931
0.300205 0.890006 0.806199
0.331675 0.897636 0.804296
0.376638 0.904963 0.802840
0.522261 0.932981 0.833437
0.822713 0.974142 0.895695
0.979311 0.979968 0.891856
0.975233 0.954452 0.854043
0.970561 0.938289 0.812462
0.298836 0.890368 0.807931
0.298836 0.890368 0.807931
0.326008 0.895430 0.804828
0.361194 0.903313 0.800441
0.473787 0.923098 0.814437
0.731230 0.961911 0.864531
0.926910 0.984808 0.893003
0.977357 0.987424 0.841449
0.972868 0.986581 0.806171
0.298836 0.890368 0.807931
0.298836 0.890368 0.807931
0.315256 0.894675 0.802653
0.357871 0.901386 0.801949
0.416907 0.911732 0.799431
0.628603 0.948917 0.840820
0.876866 0.979942 0.886563
0.979894 0.989341 0.859199
0.973845 0.987558 0.807148
0.157904 0.199209 0.581754
0.148532 0.188441 0.567551
0.240175 0.238319 0.610039
0.623836 0.361529 0.725441
0.861459 0.476691 0.837008
0.870823 0.506855 0.811324
0.857744 0.486855 0.785848
0.841152 0.461610 0.753757
0.823393 0.431402 0.716032
0.227966 0.335536 0.646890
0.242606 0.362860 0.656262
0.249431 0.382034 0.659551
0.586972 0.482295 0.765667
0.865518 0.527557 0.864265
0.884676 0.533829 0.841684
0.872382 0.510482 0.814253
0.855207 0.482588 0.780212
0.834911 0.448447 0.735117
0.278248 0.516666 0.695973
0.274935 0.504416 0.690644
0.272992 0.491131 0.687047
0.397515 0.502618 0.721055
0.840039 0.599442 0.877903
0.905557 0.573981 0.871425
0.884091 0.532524 0.832808
0.860473 0.495447 0.794415
0.837639 0.456367 0.747145
0.291823 0.642642 0.731282
0.292032 0.624976 0.727461
0.289898 0.607032 0.722664
0.289525 0.587051 0.715160
0.757659 0.683295 0.876359
0.939688 0.662465 0.925942
0.925250 0.634519 0.884977
0.906915 0.590329 0.843652
0.879400 0.539695 0.791054
0.287014 0.774024 0.769828
0.283118 0.758787 0.764278
0.283136 0.737133 0.755798
0.278072 0.716258 0.748071
0.600017 0.763203 0.852664
0.937416 0.801476 0.952820
0.960912 0.765328 0.923128
0.950582 0.732938 0.894277
0.939477 0.694581 0.855353
0.296903 0.866088 0.800958
0.295150 0.857464 0.798559
0.293207 0.844516 0.793231
0.291263 0.830896 0.791363
0.434552 0.844951 0.831453
0.877700 0.904815 0.954258
0.973902 0.889325 0.953023
0.968254 0.868824 0.927769
0.965736 0.845255 0.901540
0.298836 0.890368 0.807931
0.298836 0.890368 0.807931
0.298836 0.890368 0.807931
0.298836 0.890368 0.807931
0.381127 0.906815 0.832926
0.741389 0.958239 0.933887
0.970703 0.970703 0.970703
0.986167 0.953724 0.949046
0.981293 0.940198 0.928676
0.298836 0.890368 0.807931
0.298836 0.890368 0.807931
0.298836 0.890368 0.807931
0.298836 0.890368 0.807931
0.343596 0.901004 0.824223
0.619795 0.951028 0.895886
0.911649 0.987388 0.954017
0.989651 0.995649 0.946749
0.988483 0.993709 0.925539
0.298836 0.890368 0.807931
0.298836 0.890368 0.807931
0.298836 0.890368 0.807931
0.298836 0.890368 0.807931
0.298836 0.890368 0.807931
0.493519 0.930246 0.862941
0.833849 0.977161 0.936609
0.982220 0.994470 0.955180
0.989460 0.994350 0.928246
0.238910 0.340616 0.651997
0.239685 0.348599 0.651688
0.249431 0.382034 0.659551
0.577368 0.509503 0.770688
0.888101 0.633660 0.901167
0.917458 0.599004 0.899833
0.913360 0.590101 0.896458
0.907700 0.578243 0.886692
0.898338 0.557489 0.863922
0.261120 0.429428 0.667551
0.261120 0.429092 0.669282
0.260143 0.428115 0.668305
0.496830 0.501679 0.748089
0.857809 0.623025 0.889758
0.919994 0.603272 0.905468
0.919994 0.603272 0.905468
0.915704 0.590380 0.897434
0.906534 0.573614 0.879325
0.277663 0.513680 0.695749
0.274744 0.499756 0.689447
0.272801 0.486472 0.685848
0.344541 0.495828 0.706491
0.807170 0.628183 0.876086
0.923698 0.614184 0.908090
0.919994 0.603272 0.905468
0.918434 0.599980 0.900809
0.908285 0.581229 0.886913
0.292999 0.637284 0.730082
0.289496 0.620036 0.725284
0.289515 0.597710 0.720265
0.288357 0.581078 0.714715
0.727559 0.677318 0.866149
0.942770 0.715044 0.938379
0.938902 0.665813 0.927895
0.935982 0.651888 0.921590
0.925452 0.623816 0.905298
0.286822 0.769364 0.768629
0.282341 0.751476 0.761125
0.279623 0.731217 0.752645
0.272213 0.710063 0.743941
0.575201 0.749442 0.842985
0.908090 0.802811 0.945762
0.963057 0.766565 0.953969
0.960338 0.745633 0.948950
0.954297 0.724119 0.938515
0.295926 0.864775 0.801711
0.295936 0.853780 0.798335
0.295361 0.840135 0.793007
0.292835 0.824200 0.787457
0.417750 0.833676 0.822219
0.845261 0.886557 0.944887
0.974879 0.886941 0.971306
0.971385 0.858026 0.966593
0.968858 0.841755 0.962775
0.298836 0.890368 0.807931
0.298836 0.890368 0.807931
0.298836 0.890368 0.807931
0.298836 0.890368 0.807931
0.374874 0.901958 0.831504
0.714227 0.943863 0.924961
0.951747 0.960448 0.978996
0.986167 0.946666 0.985387
0.983437 0.937738 0.978551
0.298836 0.890368 0.807931
0.298836 0.890368 0.807931
0.298836 0.890368 0.807931
0.298836 0.890368 0.807931
0.345942 0.901284 0.825200
0.567796 0.943536 0.890952
0.883298 0.985332 0.970430
1.000000 1.000000 1.000000
0.997070 0.998078 0.991878
0.298836 0.890368 0.807931
0.298836 0.890368 0.807931
0.298836 0.890368 0.807931
0.298836 0.890368 0.807931
0.298836 0.890368 0.807931
0.441914 0.921416 0.855302
0.779695 0.971698 0.944012
0.971851 0.995978 0.991742
0.995700 0.998440 0.993609
0.256247 0.412541 0.664485
0.259953 0.423455 0.667106
0.260143 0.428451 0.666574
0.580088 0.530435 0.775707
0.898854 0.634080 0.905074
0.919994 0.603272 0.905468
0.919994 0.603272 0.905468
0.919994 0.603272 0.905468
0.919994 0.603272 0.905468
0.261705 0.432414 0.667773
0.259953 0.423455 0.667106
0.260143 0.428115 0.668305
0.517157 0.508549 0.753642
0.865822 0.625175 0.891933
0.919994 0.603272 0.905468
0.919994 0.603272 0.905468
0.919994 0.603272 0.905468
0.919994 0.603272 0.905468
0.276104 0.510054 0.692820
0.275528 0.496071 0.689222
0.272609 0.481811 0.684649
0.357054 0.493877 0.709421
0.813623 0.626034 0.878794
0.919792 0.610278 0.904184
0.919994 0.603272 0.905468
0.919994 0.603272 0.905468
0.919994 0.603272 0.905468
0.290463 0.632008 0.729637
0.292436 0.612307 0.723110
0.289716 0.591376 0.718090
0.285237 0.573152 0.712317
0.733035 0.674529 0.866149
0.946293 0.710301 0.936426
0.938711 0.661488 0.924965
0.934422 0.648260 0.918660
0.928763 0.635395 0.914087
0.285654 0.763727 0.766453
0.282542 0.745141 0.758949
0.278848 0.723569 0.751222
0.278867 0.701579 0.744472
0.581463 0.742969 0.842761
0.909267 0.797117 0.946293
0.963258 0.759893 0.953523
0.959170 0.739661 0.948505
0.953713 0.720460 0.941754
0.296711 0.861428 0.799758
0.294374 0.850153 0.795405
0.292825 0.834859 0.792564
0.293620 0.820516 0.787235
0.420297 0.827620 0.821020
0.848393 0.883489 0.943911
0.974104 0.879294 0.969883
0.970218 0.852053 0.966148
0.967106 0.832458 0.963836
0.298836 0.890368 0.807931
0.298836 0.890368 0.807931
0.298836 0.890368 0.807931
0.298836 0.890368 0.807931
0.372338 0.897018 0.829329
0.719703 0.941073 0.924961
0.953900 0.956404 0.977043
0.985582 0.944016 0.983434
0.982269 0.931092 0.981567
0.298836 0.890368 0.807931
0.298836 0.890368 0.807931
0.298836 0.890368 0.807931
0.298836 0.890368 0.807931
0.348287 0.901563 0.826176
0.571119 0.945127 0.891176
0.887989 0.986226 0.970652
1.000000 1.000000 1.000000
0.997070 0.997070 0.997070
0.298836 0.890368 0.807931
0.298836 0.890368 0.807931
0.298836 0.890368 0.807931
0.298836 0.890368 0.807931
0.298836 0.890368 0.807931
0.446605 0.922311 0.855523
0.783018 0.972953 0.945965
0.972245 0.994640 0.989036
1.000000 1.000000 1.000000
