Sources/Resources/LUT/gfx-eterna-55-3d-lut-v100/33Grid/F-Log2/FLog2_to_WDR_33grid_V.1.00.cube
#title:FLog2_to_WDR
#FUJIFILM Corporation
#Gamma:F-Log2 to Wide Dynamic Range curve
#Gamut:F-Gamut to ITU-R BT.709
#Version:1.00
LUT_3D_SIZE 33
0.000000 0.000000 0.000000
0.000000 0.000000 0.000000
0.000000 0.000000 0.000000
0.000000 0.000000 0.000000
0.023341 0.002793 0.002793
0.054463 0.006516 0.006516
0.094534 0.011311 0.011311
0.133747 0.016003 0.016003
0.174724 0.020905 0.020905
0.220541 0.026387 0.026387
0.270440 0.032358 0.032358
0.326000 0.039005 0.039005
0.392236 0.044736 0.044736
0.466861 0.050349 0.050349
0.539293 0.055050 0.055050
0.607629 0.058847 0.058847
0.671419 0.061864 0.061864
0.731057 0.064246 0.064246
0.786249 0.066088 0.066088
0.837169 0.067492 0.067492
0.841515 0.067599 0.067599
0.841515 0.067599 0.067599
0.841515 0.067599 0.067599
0.841515 0.067599 0.067599
0.841515 0.067599 0.067599
0.841515 0.067599 0.067599
0.841515 0.067599 0.067599
0.841515 0.067599 0.067599
0.841515 0.067599 0.067599
0.841515 0.067599 0.067599
0.841515 0.067599 0.067599
0.841515 0.067599 0.067599
0.841515 0.067599 0.067599
0.000000 0.000000 0.000000
0.000000 0.000000 0.000000
0.000000 0.000000 0.000000
0.000000 0.000000 0.000000
0.023341 0.002793 0.002793
0.054463 0.006516 0.006516
0.094534 0.011311 0.011311
0.133747 0.016003 0.016003
0.174724 0.020905 0.020905
0.220541 0.026387 0.026387
0.270440 0.032358 0.032358
0.326000 0.039005 0.039005
0.392236 0.044736 0.044736
0.466861 0.050349 0.050349
0.539293 0.055050 0.055050
0.607629 0.058847 0.058847
0.671419 0.061864 0.061864
0.731057 0.064246 0.064246
0.786249 0.066088 0.066088
0.837169 0.067492 0.067492
0.841515 0.067599 0.067599
0.841515 0.067599 0.067599
0.841515 0.067599 0.067599
0.841515 0.067599 0.067599
0.841515 0.067599 0.067599
0.841515 0.067599 0.067599
0.841515 0.067599 0.067599
0.841515 0.067599 0.067599
0.841515 0.067599 0.067599
0.841515 0.067599 0.067599
0.841515 0.067599 0.067599
0.841515 0.067599 0.067599
0.841515 0.067599 0.067599
0.000000 0.000000 0.000000
0.000000 0.000000 0.000000
0.000000 0.000000 0.000000
0.000000 0.000000 0.000000
0.023341 0.002793 0.002793
0.054463 0.006516 0.006516
0.094534 0.011311 0.011311
0.133747 0.016003 0.016003
0.174724 0.020905 0.020905
0.220541 0.026387 0.026387
0.270440 0.032358 0.032358
0.326000 0.039005 0.039005
0.392236 0.044736 0.044736
0.466861 0.050349 0.050349
0.539293 0.055050 0.055050
0.607629 0.058847 0.058847
0.671419 0.061864 0.061864
0.731057 0.064246 0.064246
0.786249 0.066088 0.066088
0.837169 0.067492 0.067492
0.841515 0.067599 0.067599
0.841515 0.067599 0.067599
0.841515 0.067599 0.067599
0.841515 0.067599 0.067599
0.841515 0.067599 0.067599
0.841515 0.067599 0.067599
0.841515 0.067599 0.067599
0.841515 0.067599 0.067599
0.841515 0.067599 0.067599
0.841515 0.067599 0.067599
0.841515 0.067599 0.067599
0.841515 0.067599 0.067599
0.841515 0.067599 0.067599
0.000000 0.000000 0.000000
0.000000 0.000000 0.000000
0.000000 0.000000 0.000000
0.000000 0.000000 0.000000
0.023341 0.002793 0.002793
0.054463 0.006516 0.006516
0.094534 0.011311 0.011311
0.133747 0.016003 0.016003
0.174724 0.020905 0.020905
0.220541 0.026387 0.026387
0.270440 0.032358 0.032358
0.326000 0.039005 0.039005
0.392236 0.044736 0.044736
0.466861 0.050349 0.050349
0.539293 0.055050 0.055050
0.607629 0.058847 0.058847
0.671419 0.061864 0.061864
0.731057 0.064246 0.064246
0.786249 0.066088 0.066088
0.837169 0.067492 0.067492
0.841515 0.067599 0.067599
0.841515 0.067599 0.067599
0.841515 0.067599 0.067599
0.841515 0.067599 0.067599
0.841515 0.067599 0.067599
0.841515 0.067599 0.067599
0.841515 0.067599 0.067599
0.841515 0.067599 0.067599
0.841515 0.067599 0.067599
0.841515 0.067599 0.067599
0.841515 0.067599 0.067599
0.841515 0.067599 0.067599
0.841515 0.067599 0.067599
0.003741 0.017760 0.003741
0.003741 0.017760 0.003741
0.003741 0.017760 0.003741
0.003741 0.017760 0.003741
0.018410 0.017612 0.005134
0.048984 0.018732 0.008309
0.089900 0.020033 0.012521
0.129629 0.020134 0.016389
0.170624 0.020415 0.020415
0.217209 0.025989 0.025989
0.267688 0.032028 0.032028
0.323708 0.038731 0.038731
0.390167 0.044569 0.044569
0.465074 0.050224 0.050224
0.537710 0.054955 0.054955
0.606196 0.058774 0.058774
0.670099 0.061807 0.061807
0.729825 0.064201 0.064201
0.785087 0.066053 0.066053
0.836065 0.067465 0.067465
0.841515 0.067599 0.067599
0.841515 0.067599 0.067599
0.841515 0.067599 0.067599
0.841515 0.067599 0.067599
0.841515 0.067599 0.067599
0.841515 0.067599 0.067599
0.841515 0.067599 0.067599
0.841515 0.067599 0.067599
0.841515 0.067599 0.067599
0.841515 0.067599 0.067599
0.841515 0.067599 0.067599
0.841515 0.067599 0.067599
0.841515 0.067599 0.067599
0.008728 0.041441 0.008728
0.008728 0.041441 0.008728
0.008728 0.041441 0.008728
0.008728 0.041441 0.008728
0.012384 0.039975 0.008804
0.042958 0.041095 0.011979
0.085494 0.042589 0.016385
0.127541 0.042967 0.020530
0.169687 0.041877 0.024406
0.215527 0.038902 0.028282
0.264388 0.033540 0.031996
0.320625 0.038362 0.038362
0.387394 0.044343 0.044343
0.462683 0.050056 0.050056
0.535593 0.054827 0.054827
0.604281 0.058675 0.058675
0.668335 0.061730 0.061730
0.728180 0.064140 0.064140
0.783536 0.066006 0.066006
0.834590 0.067428 0.067428
0.841515 0.067599 0.067599
0.841515 0.067599 0.067599
0.841515 0.067599 0.067599
0.841515 0.067599 0.067599
0.841515 0.067599 0.067599
0.841515 0.067599 0.067599
0.841515 0.067599 0.067599
0.841515 0.067599 0.067599
0.841515 0.067599 0.067599
0.841515 0.067599 0.067599
0.841515 0.067599 0.067599
0.841515 0.067599 0.067599
0.841515 0.067599 0.067599
0.015420 0.073211 0.015420
0.015420 0.073211 0.015420
0.015420 0.073211 0.015420
0.015420 0.073211 0.015420
0.015013 0.071278 0.015013
0.034922 0.070912 0.016872
0.078423 0.072521 0.021393
0.124249 0.073352 0.025991
0.168617 0.072527 0.030133
0.216019 0.069739 0.034195
0.266012 0.064512 0.038045
0.321356 0.055548 0.041158
0.383670 0.044039 0.044039
0.459479 0.049830 0.049830
0.532761 0.054655 0.054655
0.601719 0.058543 0.058543
0.665978 0.061626 0.061626
0.725982 0.064059 0.064059
0.781465 0.065942 0.065942
0.832620 0.067378 0.067378
0.841515 0.067599 0.067599
0.841515 0.067599 0.067599
0.841515 0.067599 0.067599
0.841515 0.067599 0.067599
0.841515 0.067599 0.067599
0.841515 0.067599 0.067599
0.841515 0.067599 0.067599
0.841515 0.067599 0.067599
0.841515 0.067599 0.067599
0.841515 0.067599 0.067599
0.841515 0.067599 0.067599
0.841515 0.067599 0.067599
0.841515 0.067599 0.067599
0.022948 0.108955 0.022948
0.022948 0.108955 0.022948
0.022948 0.108955 0.022948
0.022948 0.108955 0.022948
0.022631 0.107450 0.022631
0.023433 0.105567 0.022351
0.066907 0.107921 0.027011
0.118276 0.110300 0.032440
0.166344 0.110933 0.037218
0.216763 0.109387 0.041240
0.269931 0.104636 0.044407
0.327490 0.095245 0.047076
0.390767 0.081119 0.049374
0.459172 0.060994 0.051153
0.529023 0.054426 0.054426
0.598343 0.058366 0.058366
0.662874 0.061489 0.061489
0.723089 0.063951 0.063951
0.778739 0.065857 0.065857
0.830030 0.067312 0.067312
0.841515 0.067599 0.067599
0.841515 0.067599 0.067599
0.841515 0.067599 0.067599
0.841515 0.067599 0.067599
0.841515 0.067599 0.067599
0.841515 0.067599 0.067599
0.841515 0.067599 0.067599
0.841515 0.067599 0.067599
0.841515 0.067599 0.067599
0.841515 0.067599 0.067599
0.841515 0.067599 0.067599
0.841515 0.067599 0.067599
0.841515 0.067599 0.067599
0.031431 0.149231 0.031431
0.031431 0.149231 0.031431
0.031431 0.149231 0.031431
0.031431 0.149231 0.031431
0.031179 0.148036 0.031179
0.030841 0.146431 0.030841
0.048141 0.146262 0.032485
0.104238 0.150034 0.038638
0.159396 0.152787 0.043272
0.214707 0.153399 0.047168
0.271648 0.151553 0.050562
0.332950 0.146401 0.053566
0.399868 0.136231 0.056102
0.471473 0.118004 0.057897
0.537334 0.093674 0.058758
0.596948 0.067517 0.059141
0.658418 0.061290 0.061290
0.718940 0.063795 0.063795
0.774832 0.065735 0.065735
0.826318 0.067216 0.067216
0.841515 0.067599 0.067599
0.841515 0.067599 0.067599
0.841515 0.067599 0.067599
0.841515 0.067599 0.067599
0.841515 0.067599 0.067599
0.841515 0.067599 0.067599
0.841515 0.067599 0.067599
0.841515 0.067599 0.067599
0.841515 0.067599 0.067599
0.841515 0.067599 0.067599
0.841515 0.067599 0.067599
0.841515 0.067599 0.067599
0.841515 0.067599 0.067599
0.039939 0.190638 0.039939
0.039939 0.190638 0.039939
0.039939 0.190638 0.039939
0.039939 0.190638 0.039939
0.039775 0.189627 0.039775
0.039556 0.188274 0.039556
0.039241 0.186344 0.039241
0.078091 0.189165 0.042559
0.144586 0.194254 0.047831
0.206809 0.196767 0.051997
0.268372 0.196928 0.055456
0.333518 0.194419 0.058474
0.404267 0.188250 0.061086
0.480523 0.176879 0.063204
0.551481 0.160602 0.064568
0.615252 0.138993 0.065255
0.671117 0.111442 0.065310
0.721099 0.082945 0.065123
0.769861 0.065577 0.065577
0.821597 0.067092 0.067092
0.841515 0.067599 0.067599
0.841515 0.067599 0.067599
0.841515 0.067599 0.067599
0.841515 0.067599 0.067599
0.841515 0.067599 0.067599
0.841515 0.067599 0.067599
0.841515 0.067599 0.067599
0.841515 0.067599 0.067599
0.841515 0.067599 0.067599
0.841515 0.067599 0.067599
0.841515 0.067599 0.067599
0.841515 0.067599 0.067599
0.841515 0.067599 0.067599
0.047320 0.239829 0.047320
0.047320 0.239829 0.047320
0.047320 0.239829 0.047320
0.047320 0.239829 0.047320
0.047202 0.238985 0.047202
0.047045 0.237855 0.047045
0.046820 0.236247 0.046820
0.046525 0.234154 0.046525
0.112480 0.240037 0.051441
0.189094 0.245236 0.056269
0.258118 0.247379 0.059787
0.328535 0.247012 0.062669
0.403727 0.243642 0.065064
0.484300 0.236339 0.066964
0.559558 0.225618 0.068221
0.628243 0.211898 0.069005
0.690278 0.195388 0.069466
0.746156 0.175897 0.069702
0.795465 0.153090 0.069759
0.837902 0.125882 0.069619
0.853743 0.097999 0.069037
0.842980 0.071164 0.067793
0.841515 0.067599 0.067599
0.841515 0.067599 0.067599
0.841515 0.067599 0.067599
0.841515 0.067599 0.067599
0.841515 0.067599 0.067599
0.841515 0.067599 0.067599
0.841515 0.067599 0.067599
0.841515 0.067599 0.067599
0.841515 0.067599 0.067599
0.841515 0.067599 0.067599
0.841515 0.067599 0.067599
0.054241 0.294547 0.054241
0.054241 0.294547 0.054241
0.054241 0.294547 0.054241
0.054241 0.294547 0.054241
0.054159 0.293831 0.054159
0.054049 0.292876 0.054049
0.053892 0.291517 0.053892
0.053687 0.289752 0.053687
0.055680 0.287714 0.053574
0.154252 0.296750 0.059475
0.237430 0.301474 0.063260
0.315857 0.303138 0.065944
0.396857 0.301975 0.067948
0.482287 0.297474 0.069356
0.561605 0.290115 0.070132
0.634047 0.280481 0.070488
0.699885 0.269019 0.070587
0.759956 0.255961 0.070547
0.814230 0.241613 0.070447
0.863061 0.226141 0.070339
0.893668 0.209467 0.070353
0.887694 0.191383 0.070545
0.881251 0.172497 0.070582
0.874244 0.152620 0.070437
0.866412 0.131165 0.070064
0.858605 0.110515 0.069490
0.851240 0.091652 0.068777
0.844335 0.074478 0.067967
0.842764 0.070638 0.067765
0.842764 0.070638 0.067765
0.842764 0.070638 0.067765
0.842764 0.070638 0.067765
0.842764 0.070638 0.067765
0.060562 0.357026 0.060562
0.060562 0.357026 0.060562
0.060562 0.357026 0.060562
0.060562 0.357026 0.060562
0.060508 0.356417 0.060508
0.060436 0.355602 0.060436
0.060333 0.354445 0.060333
0.060199 0.352944 0.060199
0.060020 0.350956 0.060020
0.079633 0.350750 0.060850
0.197525 0.360809 0.065794
0.291007 0.365127 0.068330
0.380927 0.366118 0.069803
0.472851 0.363924 0.070498
0.556960 0.359032 0.070549
0.633310 0.352124 0.070209
0.702601 0.343718 0.069654
0.765938 0.334133 0.068996
0.823426 0.323725 0.068316
0.875542 0.312743 0.067665
0.921227 0.301417 0.067111
0.917860 0.289312 0.067748
0.914467 0.277389 0.068314
0.911079 0.265738 0.068809
0.907713 0.254405 0.069233
0.904389 0.243437 0.069590
0.901125 0.232877 0.069883
0.897935 0.222744 0.070117
0.897190 0.220403 0.070165
0.897190 0.220403 0.070165
0.897190 0.220403 0.070165
0.897190 0.220403 0.070165
0.897190 0.220403 0.070165
0.065743 0.427064 0.065743
0.065743 0.427064 0.065743
0.065743 0.427064 0.065743
0.065743 0.427064 0.065743
0.065711 0.426539 0.065711
0.065669 0.425838 0.065669
0.065609 0.424844 0.065609
0.065530 0.423554 0.065530
0.065424 0.421848 0.065424
0.065276 0.419486 0.065276
0.110399 0.421888 0.066713
0.245769 0.432180 0.069737
0.351641 0.435873 0.070561
0.453214 0.435888 0.070327
0.543632 0.433028 0.069432
0.624652 0.428166 0.068189
0.697712 0.421892 0.066783
0.764300 0.414573 0.065319
0.824701 0.406569 0.063880
0.879902 0.398020 0.062051
0.931701 0.388699 0.058327
0.943760 0.379719 0.058959
0.940237 0.371192 0.061215
0.937172 0.362929 0.062935
0.935167 0.354768 0.063578
0.933239 0.347048 0.064161
0.931400 0.339791 0.064687
0.929654 0.333002 0.065160
0.929255 0.331458 0.065265
0.929255 0.331458 0.065265
0.929255 0.331458 0.065265
0.929255 0.331458 0.065265
0.929255 0.331458 0.065265
0.068948 0.495078 0.068948
0.068948 0.495078 0.068948
0.068948 0.495078 0.068948
0.068948 0.495078 0.068948
0.068932 0.494614 0.068932
0.068911 0.493995 0.068911
0.068880 0.493117 0.068880
0.068840 0.491979 0.068840
0.068786 0.490476 0.068786
0.068710 0.488396 0.068710
0.068607 0.485628 0.068607
0.170423 0.493545 0.070203
0.308636 0.501695 0.070421
0.424119 0.504007 0.069132
0.522406 0.502854 0.067193
0.608749 0.499520 0.064974
0.685876 0.494722 0.062504
0.758009 0.488584 0.055739
0.823957 0.481444 0.049441
0.884250 0.473673 0.043643
0.939091 0.465592 0.038376
0.972156 0.457670 0.035934
0.969807 0.450469 0.038234
0.967531 0.443642 0.040383
0.965341 0.437208 0.042380
0.963250 0.431184 0.044225
0.961269 0.425577 0.045920
0.959404 0.420382 0.047472
0.958978 0.419208 0.047820
0.958978 0.419208 0.047820
0.958978 0.419208 0.047820
0.958978 0.419208 0.047820
0.958978 0.419208 0.047820
0.070405 0.559142 0.070405
0.070405 0.559142 0.070405
0.070405 0.559142 0.070405
0.070405 0.559142 0.070405
0.070400 0.558723 0.070400
0.070394 0.558164 0.070394
0.070385 0.557372 0.070385
0.070372 0.556345 0.070372
0.070355 0.554989 0.070355
0.070331 0.553114 0.070331
0.070296 0.550622 0.070296
0.070246 0.547268 0.070246
0.248423 0.561502 0.069965
0.385971 0.566819 0.067453
0.494361 0.567318 0.064374
0.587406 0.565615 0.057982
0.670851 0.562085 0.048786
0.746984 0.556907 0.040136
0.816323 0.550659 0.032118
0.879583 0.543739 0.024742
0.937061 0.536476 0.018025
0.989210 0.529101 0.011945
0.991038 0.522670 0.013709
0.989458 0.516650 0.015874
0.987945 0.510999 0.017887
0.986506 0.505725 0.019749
0.985148 0.500835 0.021461
0.983874 0.496319 0.023028
0.983584 0.495301 0.023380
0.983584 0.495301 0.023380
0.983584 0.495301 0.023380
0.983584 0.495301 0.023380
0.983584 0.495301 0.023380
0.070459 0.619248 0.070459
0.070459 0.619248 0.070459
0.070459 0.619248 0.070459
0.070459 0.619248 0.070459
0.070462 0.618864 0.070462
0.070467 0.618351 0.070467
0.070473 0.617623 0.070473
0.070482 0.616681 0.070482
0.070492 0.615437 0.070492
0.070505 0.613717 0.070505
0.070522 0.611433 0.070522
0.070541 0.608361 0.070541
0.154984 0.613509 0.069870
0.337831 0.624456 0.065747
0.459652 0.627506 0.058693
0.560355 0.627825 0.046419
0.649104 0.625289 0.035084
0.729343 0.620922 0.024546
0.802031 0.615383 0.014842
0.868126 0.609110 0.005942
0.927047 0.602545 0.000000
0.977412 0.596318 0.000000
1.000000 0.590376 0.000000
1.000000 0.584761 0.000000
1.000000 0.579487 0.000000
1.000000 0.574563 0.000000
1.000000 0.569995 0.000000
1.000000 0.565776 0.000000
1.000000 0.564825 0.000000
1.000000 0.564825 0.000000
1.000000 0.564825 0.000000
1.000000 0.564825 0.000000
1.000000 0.564825 0.000000
0.069417 0.675123 0.069417
0.069417 0.675123 0.069417
0.069417 0.675123 0.069417
0.069417 0.675123 0.069417
0.069427 0.674766 0.069427
0.069440 0.674288 0.069440
0.069459 0.673611 0.069459
0.069482 0.672734 0.069482
0.069513 0.671577 0.069513
0.069556 0.669978 0.069556
0.069610 0.667854 0.069610
0.069682 0.665001 0.069682
0.069773 0.661166 0.069773
0.277180 0.676455 0.064470
0.417664 0.683813 0.050563
0.527482 0.685711 0.035508
0.622082 0.684166 0.021949
0.706627 0.680540 0.009512
0.782254 0.675476 0.000000
0.847775 0.669430 0.000000
0.905825 0.663571 0.000000
0.957424 0.657953 0.000000
1.000000 0.652602 0.000000
1.000000 0.647554 0.000000
1.000000 0.642821 0.000000
1.000000 0.638410 0.000000
1.000000 0.634324 0.000000
1.000000 0.630555 0.000000
1.000000 0.629706 0.000000
1.000000 0.629706 0.000000
1.000000 0.629706 0.000000
1.000000 0.629706 0.000000
1.000000 0.629706 0.000000
0.067555 0.726772 0.067555
0.067555 0.726772 0.067555
0.067555 0.726772 0.067555
0.067555 0.726772 0.067555
0.067570 0.726435 0.067570
0.067589 0.725986 0.067589
0.067617 0.725349 0.067617
0.067653 0.724524 0.067653
0.067700 0.723436 0.067700
0.067765 0.721932 0.067765
0.067850 0.719935 0.067850
0.067961 0.717254 0.067961
0.068108 0.713652 0.068108
0.195548 0.721887 0.064221
0.368632 0.735392 0.043882
0.489796 0.739218 0.025656
0.590974 0.738723 0.009750
0.679774 0.735088 0.000000
0.756892 0.729421 0.000000
0.824603 0.723856 0.000000
0.884319 0.718471 0.000000
0.937223 0.713314 0.000000
0.984301 0.708408 0.000000
1.000000 0.703786 0.000000
1.000000 0.699458 0.000000
1.000000 0.695428 0.000000
1.000000 0.691699 0.000000
1.000000 0.688264 0.000000
1.000000 0.687490 0.000000
1.000000 0.687490 0.000000
1.000000 0.687490 0.000000
1.000000 0.687490 0.000000
1.000000 0.687490 0.000000
0.065104 0.774312 0.065104
0.065104 0.774312 0.065104
0.065104 0.774312 0.065104
0.065104 0.774312 0.065104
0.065123 0.773992 0.065123
0.065148 0.773566 0.065148
0.065183 0.772961 0.065183
0.065229 0.772178 0.065229
0.065289 0.771145 0.065289
0.065371 0.769717 0.065371
0.065479 0.767823 0.065479
0.065623 0.765280 0.065623
0.065812 0.761866 0.065812
0.066056 0.757382 0.066056
0.312009 0.781997 0.039189
0.448042 0.788359 0.017153
0.556902 0.788714 0.000000
0.650906 0.783392 0.000000
0.731284 0.778105 0.000000
0.801339 0.772917 0.000000
0.862814 0.767903 0.000000
0.917082 0.763105 0.000000
0.965246 0.758546 0.000000
1.000000 0.754254 0.000000
1.000000 0.750237 0.000000
1.000000 0.746502 0.000000
1.000000 0.743048 0.000000
1.000000 0.739868 0.000000
1.000000 0.739152 0.000000
1.000000 0.739152 0.000000
1.000000 0.739152 0.000000
1.000000 0.739152 0.000000
1.000000 0.739152 0.000000
0.061292 0.818540 0.061292
0.061292 0.818540 0.061292
0.061292 0.818540 0.061292
0.061292 0.818540 0.061292
0.061357 0.818204 0.061357
0.061444 0.817756 0.061444
0.061567 0.817120 0.061567
0.061726 0.816297 0.061726
0.061935 0.815211 0.061935
0.062223 0.813711 0.062223
0.062604 0.811722 0.062604
0.062867 0.809225 0.062867
0.063092 0.805963 0.063092
0.063381 0.801681 0.063381
0.245636 0.823094 0.037211
0.402757 0.833129 0.010227
0.522342 0.831972 0.000000
0.621818 0.826953 0.000000
0.705727 0.821970 0.000000
0.778264 0.817085 0.000000
0.841575 0.812366 0.000000
0.897254 0.807854 0.000000
0.946531 0.803570 0.000000
0.990184 0.799540 0.000000
1.000000 0.795770 0.000000
1.000000 0.792267 0.000000
1.000000 0.789029 0.000000
1.000000 0.786050 0.000000
1.000000 0.785380 0.000000
1.000000 0.785380 0.000000
1.000000 0.785380 0.000000
1.000000 0.785380 0.000000
1.000000 0.785380 0.000000
0.052357 0.862445 0.052357
0.052357 0.862445 0.052357
0.052357 0.862445 0.052357
0.052357 0.862445 0.052357
0.052426 0.862119 0.052426
0.052519 0.861684 0.052519
0.052650 0.861068 0.052650
0.052819 0.860270 0.052819
0.053042 0.859218 0.053042
0.053349 0.857766 0.053349
0.053754 0.855839 0.053754
0.054296 0.853253 0.054296
0.055018 0.849787 0.055018
0.055957 0.845240 0.055957
0.161946 0.857256 0.039507
0.354092 0.873610 0.005053
0.487091 0.870997 0.000000
0.592717 0.866225 0.000000
0.680432 0.861490 0.000000
0.755580 0.856850 0.000000
0.820792 0.852372 0.000000
0.877913 0.848092 0.000000
0.928321 0.844030 0.000000
0.972878 0.840211 0.000000
1.000000 0.836641 0.000000
1.000000 0.833325 0.000000
1.000000 0.830261 0.000000
1.000000 0.827443 0.000000
1.000000 0.826809 0.000000
1.000000 0.826809 0.000000
1.000000 0.826809 0.000000
1.000000 0.826809 0.000000
1.000000 0.826809 0.000000
0.043466 0.902625 0.043466
0.043466 0.902625 0.043466
0.043466 0.902625 0.043466
0.043466 0.902625 0.043466
0.043539 0.902308 0.043539
0.043636 0.901885 0.043636
0.043773 0.901285 0.043773
0.043951 0.900509 0.043951
0.044185 0.899485 0.044185
0.044507 0.898071 0.044507
0.044933 0.896196 0.044933
0.045503 0.893681 0.045503
0.046262 0.890309 0.046262
0.047251 0.885887 0.047251
0.048340 0.880972 0.048340
0.301920 0.909757 0.001830
0.451323 0.906088 0.000000
0.563857 0.901520 0.000000
0.655643 0.896990 0.000000
0.733511 0.892552 0.000000
0.800669 0.888271 0.000000
0.859250 0.884182 0.000000
0.910793 0.880302 0.000000
0.956253 0.876656 0.000000
0.996493 0.873249 0.000000
1.000000 0.870085 0.000000
1.000000 0.867163 0.000000
1.000000 0.864477 0.000000
1.000000 0.863872 0.000000
1.000000 0.863872 0.000000
1.000000 0.863872 0.000000
1.000000 0.863872 0.000000
1.000000 0.863872 0.000000
0.034768 0.939345 0.034768
0.034768 0.939345 0.034768
0.034768 0.939345 0.034768
0.034768 0.939345 0.034768
0.034844 0.939035 0.034844
0.034945 0.938622 0.034945
0.035088 0.938036 0.035088
0.035272 0.937278 0.035272
0.035515 0.936278 0.035515
0.035850 0.934897 0.035850
0.036294 0.933066 0.036294
0.036886 0.930610 0.036886
0.037676 0.927317 0.037676
0.038706 0.923001 0.038706
0.039841 0.918204 0.039841
0.245203 0.941590 0.000828
0.415006 0.937668 0.000000
0.535341 0.933270 0.000000
0.631473 0.928910 0.000000
0.712159 0.924641 0.000000
0.781297 0.920524 0.000000
0.841348 0.916593 0.000000
0.894023 0.912865 0.000000
0.940376 0.909362 0.000000
0.981337 0.906090 0.000000
1.000000 0.903052 0.000000
1.000000 0.900248 0.000000
1.000000 0.897670 0.000000
1.000000 0.897090 0.000000
1.000000 0.897090 0.000000
1.000000 0.897090 0.000000
1.000000 0.897090 0.000000
1.000000 0.897090 0.000000
0.026393 0.972772 0.026393
0.026393 0.972772 0.026393
0.026393 0.972772 0.026393
0.026393 0.972772 0.026393
0.026471 0.972469 0.026471
0.026575 0.972064 0.026575
0.026722 0.971490 0.026722
0.026913 0.970747 0.026913
0.027164 0.969767 0.027164
0.027509 0.968414 0.027509
0.027967 0.966620 0.027967
0.028578 0.964214 0.028578
0.029394 0.960989 0.029394
0.030458 0.956762 0.030458
0.031632 0.952064 0.031632
0.181485 0.968769 0.002620
0.378144 0.966028 0.000000
0.507324 0.961774 0.000000
0.608072 0.957557 0.000000
0.691656 0.953430 0.000000
0.762794 0.949451 0.000000
0.824309 0.945652 0.000000
0.878102 0.942051 0.000000
0.925334 0.938668 0.000000
0.967000 0.935510 0.000000
1.000000 0.932577 0.000000
1.000000 0.929871 0.000000
1.000000 0.927384 0.000000
1.000000 0.926825 0.000000
1.000000 0.926825 0.000000
1.000000 0.926825 0.000000
1.000000 0.926825 0.000000
1.000000 0.926825 0.000000
0.023652 0.983359 0.023652
0.023652 0.983359 0.023652
0.023652 0.983359 0.023652
0.023652 0.983359 0.023652
0.023652 0.983359 0.023652
0.023652 0.983359 0.023652
0.023652 0.983359 0.023652
0.023652 0.983359 0.023652
0.023652 0.983359 0.023652
0.023652 0.983359 0.023652
0.023652 0.983359 0.023652
0.023652 0.983359 0.023652
0.023652 0.983359 0.023652
0.023652 0.983359 0.023652
0.023807 0.982765 0.023807
0.103054 0.990016 0.008847
0.340647 0.991457 0.000000
0.479928 0.987324 0.000000
0.585556 0.983229 0.000000
0.672101 0.979222 0.000000
0.745240 0.975359 0.000000
0.808203 0.971672 0.000000
0.863093 0.968178 0.000000
0.911179 0.964897 0.000000
0.953528 0.961833 0.000000
0.990924 0.958990 0.000000
1.000000 0.956366 0.000000
1.000000 0.953955 0.000000
1.000000 0.953413 0.000000
1.000000 0.953413 0.000000
1.000000 0.953413 0.000000
1.000000 0.953413 0.000000
1.000000 0.953413 0.000000
0.023652 0.983359 0.023652
0.023652 0.983359 0.023652
0.023652 0.983359 0.023652
0.023652 0.983359 0.023652
0.023652 0.983359 0.023652
0.023652 0.983359 0.023652
0.023652 0.983359 0.023652
0.023652 0.983359 0.023652
0.023652 0.983359 0.023652
0.023652 0.983359 0.023652
0.023652 0.983359 0.023652
0.023652 0.983359 0.023652
0.023652 0.983359 0.023652
0.023652 0.983359 0.023652
0.023652 0.983359 0.023652
0.023652 0.983359 0.023652
0.302304 1.000000 0.000000
0.453238 1.000000 0.000000
0.564006 1.000000 0.000000
0.653555 1.000000 0.000000
0.728684 0.998541 0.000000
0.793067 0.994950 0.000000
0.849024 0.991547 0.000000
0.897936 0.988352 0.000000
0.940943 0.985369 0.000000
