Sources/Resources/LUT/gfx-eterna-55-3d-lut-v100/33Grid/F-Log2/FLog2_to_ASTIA_33grid_V.1.00.cube
#title:FLog2_to_ASTIA
#model:GFX ETERNA 55
#FUJIFILM Corporation
#Gamma:F-Log2 to ASTIA
#Gamut:F-Gamut to ITU-R BT.709
#Version:1.00
LUT_3D_SIZE 33
0.000000 0.000000 0.000000
0.000000 0.000000 0.000000
0.000000 0.000000 0.000000
0.000977 0.001313 0.000000
0.016813 0.001624 0.000000
0.037339 0.002494 0.000582
0.058260 0.001692 0.001250
0.086217 0.002733 0.000000
0.118865 0.004333 0.000016
0.171457 0.003817 0.001797
0.228741 0.004867 0.000340
0.297168 0.004999 0.000082
0.369310 0.005048 0.000000
0.447906 0.003285 0.000000
0.546053 0.001079 0.001399
0.650844 0.000376 0.012859
0.756219 0.000308 0.036657
0.869214 0.000030 0.084371
0.980641 0.000735 0.165410
1.000000 0.000000 0.292230
0.999960 0.000628 0.380843
0.998984 0.000000 0.378137
1.000000 0.000299 0.372945
1.000000 0.000299 0.372945
1.000000 0.000299 0.372945
1.000000 0.000299 0.372945
1.000000 0.000299 0.372945
1.000000 0.000299 0.372945
1.000000 0.000299 0.372945
1.000000 0.000299 0.372945
1.000000 0.000299 0.372945
1.000000 0.000299 0.372945
1.000000 0.000299 0.372945
0.000000 0.000000 0.000000
0.000000 0.000000 0.000000
0.000000 0.000000 0.000000
0.000000 0.000000 0.000000
0.016813 0.001624 0.000000
0.034995 0.002215 0.000000
0.054545 0.002109 0.000273
0.083871 0.002117 0.000411
0.116520 0.003717 0.000769
0.157967 0.004457 0.000000
0.218965 0.005088 0.000000
0.291108 0.004802 0.000000
0.369310 0.005048 0.000000
0.466481 0.002202 0.000000
0.575772 0.000000 0.002289
0.681147 0.000689 0.017434
0.791214 0.000171 0.048375
0.904792 0.000191 0.110157
0.999990 0.000000 0.208055
1.000000 0.000343 0.347520
0.998984 0.000000 0.378137
1.000000 0.000000 0.376406
1.000000 0.000299 0.372945
1.000000 0.000299 0.372945
1.000000 0.000299 0.372945
1.000000 0.000299 0.372945
1.000000 0.000299 0.372945
1.000000 0.000299 0.372945
1.000000 0.000299 0.372945
1.000000 0.000299 0.372945
1.000000 0.000299 0.372945
1.000000 0.000299 0.372945
1.000000 0.000299 0.372945
0.000000 0.000000 0.000000
0.000000 0.000000 0.000000
0.000000 0.000000 0.000000
0.000000 0.000000 0.000000
0.014467 0.001009 0.000000
0.030303 0.001322 0.000000
0.050830 0.002528 0.000000
0.078788 0.003233 0.000000
0.111829 0.002823 0.000547
0.155621 0.003841 0.000374
0.215251 0.005171 0.000000
0.297168 0.004999 0.000082
0.386515 0.004663 0.000000
0.487009 0.003072 0.000371
0.598645 0.000227 0.004910
0.709104 0.000051 0.024492
0.826207 0.000000 0.061825
0.939394 0.000000 0.133234
0.999396 0.000185 0.247546
0.999960 0.000628 0.380843
0.998984 0.000000 0.378137
1.000000 0.000299 0.372945
1.000000 0.000299 0.372945
1.000000 0.000299 0.372945
1.000000 0.000299 0.372945
1.000000 0.000299 0.372945
1.000000 0.000299 0.372945
1.000000 0.000299 0.372945
1.000000 0.000299 0.372945
1.000000 0.000299 0.372945
1.000000 0.000299 0.372945
1.000000 0.000299 0.372945
1.000000 0.000299 0.372945
0.000000 0.000000 0.000000
0.000000 0.000000 0.000000
0.000000 0.000000 0.000000
0.000000 0.000000 0.000000
0.014467 0.001009 0.000000
0.028934 0.002019 0.000000
0.048485 0.001576 0.001780
0.076441 0.002618 0.000187
0.109483 0.002208 0.001301
0.157967 0.004457 0.000000
0.228741 0.004867 0.000340
0.309682 0.003720 0.000000
0.400005 0.004359 0.000000
0.506952 0.001292 0.000062
0.620540 0.000063 0.008285
0.737061 0.000000 0.029820
0.856117 0.000000 0.077757
0.975949 0.000514 0.161727
0.999780 0.000000 0.300129
0.999960 0.000628 0.380843
1.000000 0.000000 0.376406
1.000000 0.000299 0.372945
1.000000 0.000299 0.372945
1.000000 0.000299 0.372945
1.000000 0.000299 0.372945
1.000000 0.000299 0.372945
1.000000 0.000299 0.372945
1.000000 0.000299 0.372945
1.000000 0.000299 0.372945
1.000000 0.000299 0.372945
1.000000 0.000299 0.372945
1.000000 0.000299 0.372945
1.000000 0.000299 0.372945
0.000575 0.014654 0.000136
0.000575 0.014654 0.000136
0.000575 0.014654 0.000136
0.000575 0.014654 0.000136
0.011719 0.013735 0.001337
0.026579 0.013070 0.000051
0.046522 0.011290 0.000000
0.075848 0.011299 0.000000
0.114759 0.006425 0.000016
0.161481 0.011045 0.000000
0.237540 0.004005 0.000000
0.322779 0.005089 0.000972
0.414472 0.005033 0.000629
0.525133 0.001882 0.000731
0.641462 0.000000 0.008953
0.762280 0.000168 0.038609
0.882313 0.000056 0.092715
1.000000 0.000000 0.194965
0.999186 0.000000 0.344812
0.998984 0.000000 0.378137
1.000000 0.000000 0.376406
1.000000 0.000299 0.372945
1.000000 0.000299 0.372945
1.000000 0.000299 0.372945
1.000000 0.000299 0.372945
1.000000 0.000299 0.372945
1.000000 0.000299 0.372945
1.000000 0.000299 0.372945
1.000000 0.000299 0.372945
1.000000 0.000299 0.372945
1.000000 0.000299 0.372945
1.000000 0.000299 0.372945
1.000000 0.000299 0.372945
0.000172 0.028332 0.000000
0.000172 0.028332 0.000000
0.000172 0.028332 0.000000
0.000000 0.027019 0.000051
0.004863 0.029226 0.000000
0.025784 0.028421 0.000187
0.047095 0.025944 0.000000
0.074076 0.025337 0.000769
0.117870 0.026354 0.000598
0.167138 0.024583 0.000425
0.246128 0.021146 0.000000
0.332153 0.018882 0.000000
0.430893 0.008331 0.000543
0.549768 0.000997 0.000645
0.667072 0.000000 0.008114
0.787890 0.000000 0.041230
0.912223 0.000026 0.108649
0.999205 0.000000 0.223851
0.999770 0.000337 0.357149
0.998984 0.000000 0.378137
1.000000 0.000000 0.376406
1.000000 0.000299 0.372945
1.000000 0.000299 0.372945
1.000000 0.000299 0.372945
1.000000 0.000299 0.372945
1.000000 0.000299 0.372945
1.000000 0.000299 0.372945
1.000000 0.000299 0.372945
1.000000 0.000299 0.372945
1.000000 0.000299 0.372945
1.000000 0.000299 0.372945
1.000000 0.000299 0.372945
1.000000 0.000299 0.372945
0.000000 0.046669 0.000000
0.000000 0.041672 0.000187
0.000000 0.041672 0.000187
0.000000 0.046669 0.000000
0.003676 0.046250 0.000633
0.021273 0.044192 0.000000
0.045124 0.046653 0.001215
0.076210 0.044290 0.000374
0.120396 0.043633 0.000000
0.174357 0.042420 0.001007
0.254323 0.040295 0.000000
0.344455 0.035939 0.000000
0.448864 0.027596 0.000000
0.564809 0.016996 0.000000
0.686623 0.000253 0.005321
0.811156 0.000000 0.042875
0.917306 0.000000 0.104434
0.999013 0.000000 0.198426
0.999971 0.000000 0.327285
1.000000 0.000299 0.372945
0.999377 0.000000 0.370239
0.999377 0.000000 0.370239
0.999377 0.000000 0.370239
1.000000 0.000299 0.372945
1.000000 0.000299 0.372945
1.000000 0.000299 0.372945
1.000000 0.000299 0.372945
1.000000 0.000299 0.372945
1.000000 0.000299 0.372945
1.000000 0.000299 0.372945
1.000000 0.000299 0.372945
1.000000 0.000299 0.372945
1.000000 0.000299 0.372945
0.000000 0.070004 0.000000
0.000000 0.070004 0.000000
0.000000 0.070004 0.000000
0.000000 0.070004 0.000000
0.000000 0.070004 0.000000
0.019100 0.071571 0.001130
0.042366 0.071383 0.001044
0.074037 0.072006 0.000425
0.113531 0.070119 0.000785
0.173946 0.067765 0.000082
0.257233 0.066896 0.000269
0.352057 0.063434 0.000680
0.461941 0.052637 0.000000
0.586293 0.042512 0.000000
0.693248 0.028114 0.000000
0.797858 0.007723 0.026325
0.903232 0.000597 0.086460
1.000000 0.000000 0.171269
0.999780 0.000432 0.296668
1.000000 0.000000 0.365047
1.000000 0.000000 0.365047
0.999770 0.000000 0.360610
1.000000 0.000000 0.365047
1.000000 0.000000 0.365047
0.999377 0.000330 0.366776
0.999377 0.000330 0.366776
0.999377 0.000000 0.370239
1.000000 0.000299 0.372945
1.000000 0.000299 0.372945
1.000000 0.000299 0.372945
1.000000 0.000299 0.372945
1.000000 0.000299 0.372945
1.000000 0.000299 0.372945
0.000000 0.105004 0.000000
0.000000 0.105004 0.000000
0.000496 0.107656 0.001181
0.000496 0.107656 0.001181
0.000496 0.107656 0.001181
0.010855 0.110757 0.000871
0.034906 0.106884 0.000562
0.065601 0.106195 0.000700
0.111740 0.107829 0.000000
0.174892 0.103743 0.000800
0.258573 0.101200 0.000013
0.358873 0.095285 0.000000
0.463472 0.091602 0.000302
0.572381 0.079491 0.000000
0.683051 0.064676 0.000000
0.786290 0.049350 0.005078
0.886401 0.028356 0.056204
0.994332 0.000000 0.134262
0.999981 0.000483 0.261614
1.000000 0.000343 0.347520
1.000000 0.000000 0.350980
1.000000 0.000000 0.350980
0.998793 0.000000 0.354441
0.998793 0.000000 0.354441
0.999770 0.000337 0.357149
0.999770 0.000000 0.360610
0.999770 0.000000 0.360610
1.000000 0.000000 0.365047
0.999377 0.000330 0.366776
0.999377 0.000330 0.366776
0.999377 0.000000 0.370239
0.999377 0.000000 0.370239
1.000000 0.000299 0.372945
0.000457 0.154324 0.000836
0.000256 0.161332 0.000000
0.000000 0.163005 0.000527
0.000000 0.163005 0.000527
0.000000 0.163005 0.000527
0.000000 0.163005 0.000527
0.022737 0.164827 0.000000
0.056170 0.162743 0.000000
0.104464 0.159658 0.000405
0.165461 0.160291 0.000000
0.251879 0.156016 0.000867
0.351203 0.148789 0.000302
0.452873 0.142176 0.000000
0.561972 0.134727 0.000000
0.669905 0.121304 0.000000
0.770799 0.106709 0.000000
0.870324 0.086425 0.030657
0.974933 0.057296 0.103301
0.999972 0.021224 0.214806
0.999578 0.000045 0.333453
0.999578 0.000000 0.335183
1.000000 0.000014 0.339622
1.000000 0.000000 0.341352
0.999186 0.000039 0.343083
0.999186 0.000000 0.344812
1.000000 0.000343 0.347520
1.000000 0.000000 0.350980
0.998793 0.000000 0.354441
0.999770 0.000337 0.357149
0.999770 0.000337 0.357149
0.999770 0.000000 0.360610
1.000000 0.000000 0.365047
1.000000 0.000000 0.365047
0.000000 0.238004 0.000000
0.000187 0.242666 0.000680
0.000771 0.245652 0.000902
0.000771 0.245652 0.000902
0.000771 0.245652 0.000902
0.000771 0.245652 0.000902
0.003701 0.249254 0.000371
0.038505 0.246472 0.000507
0.083082 0.243807 0.000113
0.149366 0.236652 0.000164
0.239307 0.227299 0.000883
0.335500 0.223476 0.000000
0.442647 0.213739 0.000000
0.550769 0.205312 0.000000
0.654594 0.193982 0.000000
0.753335 0.183768 0.000000
0.853252 0.167524 0.000500
0.951800 0.139542 0.066000
0.999329 0.097315 0.167343
0.999941 0.039758 0.299339
0.999961 0.016088 0.301241
0.999578 0.004414 0.310958
1.000000 0.000000 0.315926
0.999971 0.000052 0.323825
0.999578 0.000382 0.331722
0.999578 0.000000 0.335183
1.000000 0.000014 0.339622
1.000000 0.000000 0.341352
0.999186 0.000000 0.344812
1.000000 0.000343 0.347520
1.000000 0.000343 0.347520
1.000000 0.000000 0.350980
0.998793 0.000000 0.354441
0.000000 0.351355 0.000129
0.000000 0.354342 0.000351
0.000000 0.361011 0.000796
0.000675 0.362324 0.000044
0.000000 0.366008 0.000265
0.000000 0.366008 0.000265
0.000483 0.357327 0.000574
0.016913 0.348958 0.000574
0.064037 0.339901 0.000711
0.132273 0.335372 0.000000
0.218893 0.324427 0.000000
0.320563 0.317479 0.000160
0.427316 0.309751 0.000000
0.533487 0.299036 0.000000
0.638872 0.291669 0.000636
0.738004 0.279445 0.000602
0.833231 0.262641 0.000121
0.931780 0.244406 0.015437
0.999834 0.203722 0.114965
0.999662 0.151193 0.240261
0.999692 0.110814 0.268207
1.000000 0.079808 0.263496
0.999146 0.060151 0.273519
0.999941 0.042783 0.283765
0.999951 0.029771 0.290773
0.999961 0.016088 0.301241
1.000000 0.005727 0.310204
1.000000 0.000000 0.315926
0.999971 0.000000 0.325556
0.999578 0.000045 0.333453
0.999578 0.000000 0.335183
1.000000 0.000014 0.339622
0.999186 0.000039 0.343083
0.000000 0.482680 0.000000
0.000000 0.491361 0.000000
0.000000 0.499008 0.000520
0.000000 0.502693 0.000742
0.000000 0.493035 0.000075
0.000000 0.482680 0.000000
0.000000 0.471013 0.000000
0.000395 0.462332 0.000000
0.035792 0.450870 0.000247
0.103444 0.443020 0.000296
0.194755 0.433305 0.000000
0.303269 0.422869 0.000000
0.406309 0.415223 0.000105
0.517170 0.405403 0.000000
0.624900 0.398651 0.000394
0.720319 0.386845 0.000000
0.813784 0.372413 0.000000
0.906665 0.354995 0.000152
0.998568 0.326855 0.049633
1.000000 0.283959 0.172137
0.999010 0.232902 0.223864
1.000000 0.190862 0.231574
0.998686 0.152906 0.225442
1.000000 0.133534 0.226813
0.999692 0.116191 0.240519
0.999511 0.097847 0.249789
0.999720 0.077157 0.261542
0.999146 0.060151 0.273519
1.000000 0.040773 0.284520
0.999367 0.026112 0.294012
1.000000 0.014078 0.301996
0.999578 0.004414 0.310958
1.000000 0.000000 0.315926
0.000000 0.634018 0.000019
0.000000 0.642698 0.000000
0.000000 0.639014 0.000000
0.000000 0.629022 0.000551
0.000000 0.617354 0.000636
0.000000 0.605687 0.000723
0.000000 0.592345 0.000000
0.000881 0.581655 0.000894
0.006559 0.572195 0.000449
0.076366 0.559962 0.000278
0.168068 0.548238 0.000019
0.276585 0.537802 0.000431
0.388422 0.529295 0.000000
0.498699 0.516487 0.000000
0.609169 0.508341 0.000000
0.702241 0.495920 0.000000
0.795313 0.483497 0.000000
0.888194 0.466081 0.000000
0.984599 0.443583 0.000000
0.998884 0.407764 0.103344
0.999688 0.366295 0.177703
0.999526 0.323944 0.190605
0.999756 0.281599 0.193879
0.999976 0.251259 0.195336
0.999996 0.226580 0.202430
0.999040 0.200924 0.208548
0.999643 0.178896 0.217593
0.998686 0.152906 0.225442
1.000000 0.132861 0.230274
1.000000 0.114182 0.241273
0.998926 0.093853 0.254758
0.999720 0.077157 0.261542
0.999146 0.060151 0.273519
0.000000 0.762021 0.000805
0.000000 0.755350 0.000359
0.000000 0.745693 0.000000
0.000000 0.737013 0.000000
0.000000 0.729029 0.000308
0.000180 0.718675 0.000000
0.000000 0.709018 0.000000
0.000000 0.697015 0.000789
0.000000 0.687357 0.000121
0.040882 0.676093 0.000789
0.134929 0.664984 0.000000
0.245792 0.655163 0.000000
0.363105 0.643530 0.000066
0.479050 0.632593 0.000699
0.587960 0.620484 0.000132
0.682985 0.610351 0.000097
0.776449 0.595920 0.000593
0.861901 0.579002 0.000644
0.956935 0.557203 0.000695
0.998987 0.530537 0.036281
0.999590 0.491368 0.133583
0.999429 0.448346 0.149945
0.999265 0.407339 0.155926
0.999104 0.365997 0.163637
0.999708 0.344641 0.169223
1.000000 0.323285 0.174808
1.000000 0.298941 0.180172
0.999958 0.276273 0.186512
0.999585 0.252933 0.196313
0.998818 0.232610 0.200168
0.999815 0.208908 0.208239
0.999834 0.184230 0.215333
0.999461 0.161896 0.219941
0.000456 0.856335 0.001094
0.000000 0.848688 0.000000
0.000000 0.840705 0.000000
0.000000 0.834034 0.000000
0.000677 0.826331 0.000820
0.000000 0.817370 0.000152
0.000000 0.807016 0.000000
0.000000 0.799033 0.000000
0.000000 0.790352 0.000101
0.002085 0.779300 0.000000
0.088703 0.768356 0.000000
0.207386 0.756025 0.000563
0.330763 0.744924 0.000000
0.449446 0.732593 0.000321
0.563438 0.719368 0.000730
0.662179 0.709154 0.000000
0.753298 0.694443 0.000000
0.839725 0.678502 0.000488
0.928891 0.661503 0.000000
1.000000 0.636906 0.000000
0.999109 0.608802 0.078410
1.000000 0.573724 0.110262
0.999168 0.529388 0.127379
0.999017 0.476378 0.135176
0.998644 0.454382 0.138055
1.000000 0.433331 0.148079
0.999065 0.415017 0.151179
0.999669 0.393326 0.158496
0.998903 0.373340 0.160621
1.000000 0.352288 0.170645
0.999718 0.331629 0.176230
0.998951 0.311643 0.178356
0.998971 0.286628 0.187179
0.000000 0.943700 0.000000
0.000000 0.937029 0.000000
0.000000 0.930022 0.000801
0.000000 0.923352 0.000355
0.000014 0.916681 0.000000
0.000607 0.908001 0.000219
0.000000 0.899041 0.000000
0.000000 0.888350 0.000613
0.000000 0.880368 0.000922
0.000000 0.871687 0.001231
0.035058 0.860561 0.000000
0.152371 0.848927 0.000577
0.286891 0.836908 0.000902
0.412027 0.823436 0.000000
0.532472 0.808399 0.000437
0.635714 0.794081 0.000403
0.726440 0.781381 0.000000
0.814429 0.769740 0.000000
0.903202 0.754414 0.000000
0.996868 0.733312 0.000000
0.999424 0.709540 0.030023
0.999444 0.678475 0.069997
0.999866 0.636759 0.095235
0.999321 0.584751 0.107468
0.998948 0.562082 0.113808
0.999551 0.541398 0.115934
0.999762 0.521717 0.122497
0.998603 0.502731 0.129058
0.998815 0.483721 0.132160
1.000000 0.464680 0.141430
0.999237 0.445029 0.141825
0.999840 0.423001 0.150872
1.000000 0.403992 0.153973
0.000000 1.000000 0.000285
0.000000 1.000000 0.000285
0.000000 1.000000 0.000285
0.000000 1.000000 0.000285
0.000000 1.000000 0.000285
0.000000 0.995029 0.000815
0.000000 0.985372 0.000148
0.000000 0.978702 0.000000
0.000000 0.967034 0.000000
0.000175 0.956343 0.000852
0.000000 0.946686 0.000183
0.085044 0.936439 0.000679
0.227193 0.917249 0.000781
0.364260 0.899175 0.000000
0.492527 0.882299 0.000000
0.602222 0.866169 0.000000
0.699008 0.853330 0.000468
0.789735 0.840628 0.000000
0.874985 0.830381 0.000000
0.968641 0.820946 0.000000
0.999548 0.801919 0.000000
0.999960 0.770862 0.029816
0.998620 0.730172 0.062954
0.999827 0.685444 0.084508
0.998488 0.649123 0.095148
0.998889 0.635110 0.097719
0.999291 0.620761 0.102020
0.999109 0.604097 0.102636
0.998927 0.586424 0.108444
1.000000 0.568391 0.112524
0.998958 0.549743 0.117356
1.000000 0.531373 0.123164
1.000000 0.512363 0.126265
0.000000 1.000000 0.000285
0.000000 1.000000 0.000285
0.000000 1.000000 0.000285
0.000000 1.000000 0.000285
0.000000 1.000000 0.000285
0.000000 1.000000 0.000285
0.000000 1.000000 0.000285
0.000000 1.000000 0.000285
0.000000 1.000000 0.000285
0.000000 1.000000 0.000285
0.000000 1.000000 0.000285
0.013044 0.999722 0.000730
0.148731 0.994013 0.000000
0.303002 0.975217 0.000317
0.441831 0.954435 0.000196
0.564037 0.937362 0.000000
0.667278 0.923044 0.000000
0.760350 0.910288 0.000312
0.846969 0.899679 0.000000
0.937304 0.888652 0.000000
0.998895 0.880268 0.000379
0.998723 0.852272 0.000000
0.999336 0.814544 0.029250
0.999758 0.772155 0.057949
0.999011 0.725137 0.079280
0.999022 0.712799 0.082829
1.000000 0.700098 0.084646
0.999434 0.686446 0.088944
0.998860 0.671455 0.090539
0.999263 0.657779 0.091380
0.998687 0.642452 0.094703
0.999482 0.626093 0.099757
0.999886 0.612080 0.102327
0.000000 1.000000 0.000285
0.000000 1.000000 0.000285
0.000000 1.000000 0.000285
0.000000 1.000000 0.000285
0.000000 1.000000 0.000285
0.000000 1.000000 0.000285
0.000000 1.000000 0.000285
0.000000 1.000000 0.000285
0.000000 1.000000 0.000285
0.000000 1.000000 0.000285
0.000000 1.000000 0.000285
0.000000 1.000000 0.000285
0.052145 0.999846 0.000335
0.214612 1.000000 0.000710
0.368673 1.000000 0.000000
0.509242 0.999923 0.000348
0.623426 0.991695 0.000226
0.719630 0.975868 0.000723
0.808403 0.960878 0.000000
0.892484 0.944658 0.000000
0.979889 0.930029 0.000000
0.996711 0.919651 0.000345
0.999671 0.888251 0.000070
0.999307 0.848873 0.032452
0.999730 0.806821 0.059422
0.998380 0.782503 0.068246
0.999758 0.769803 0.070062
0.999768 0.757127 0.075340
0.999778 0.745124 0.077156
0.998811 0.732145 0.077997
1.000000 0.718772 0.083274
0.999223 0.705791 0.084112
0.999626 0.692115 0.084953
0.000000 1.000000 0.000285
0.000000 1.000000 0.000285
0.000000 1.000000 0.000285
0.000000 1.000000 0.000285
0.000000 1.000000 0.000285
0.000000 1.000000 0.000285
0.000000 1.000000 0.000285
0.000000 1.000000 0.000285
0.000000 1.000000 0.000285
0.000000 1.000000 0.000285
0.000000 1.000000 0.000285
0.000000 1.000000 0.000285
0.000000 1.000000 0.000285
0.093592 1.000000 0.000917
0.261143 0.999823 0.000539
0.415203 0.999701 0.000000
0.552059 0.999964 0.000000
0.661933 1.000000 0.000000
0.757343 1.000000 0.000157
0.840046 0.996168 0.000121
0.926866 0.978553 0.000172
0.991588 0.967099 0.000754
0.994144 0.949376 0.000000
0.999450 0.917584 0.003805
0.998694 0.879208 0.040625
0.999307 0.843832 0.058410
0.998925 0.833839 0.059473
0.998935 0.821836 0.061290
0.998552 0.811507 0.064083
0.999538 0.800480 0.066874
0.998572 0.787500 0.067715
0.999950 0.774800 0.069532
0.999566 0.764806 0.070593
0.000000 1.000000 0.000285
0.000000 1.000000 0.000285
0.000000 1.000000 0.000285
0.000000 1.000000 0.000285
0.000000 1.000000 0.000285
0.000000 1.000000 0.000285
0.000000 1.000000 0.000285
0.000000 1.000000 0.000285
0.000000 1.000000 0.000285
0.000000 1.000000 0.000285
0.000000 1.000000 0.000285
0.000000 1.000000 0.000285
0.000000 1.000000 0.000285
0.088901 0.999353 0.000695
0.210897 1.000000 0.001465
0.344430 0.999289 0.000000
0.475225 0.999020 0.000000
0.594875 0.999669 0.000000
0.692629 0.999809 0.000000
0.782953 1.000000 0.001046
0.866240 0.999581 0.000000
0.954803 0.999231 0.017442
0.989213 0.997453 0.022016
0.991971 0.976084 0.004883
0.994931 0.944012 0.008069
0.998282 0.903544 0.044889
0.999076 0.887185 0.049945
0.999671 0.877833 0.053716
0.998895 0.869178 0.057485
0.998905 0.857174 0.059300
0.999498 0.848494 0.059609
0.999117 0.838500 0.060672
0.999126 0.826833 0.060759
0.046084 0.999649 0.000114
0.046084 0.999649 0.000114
0.046084 0.999649 0.000114
0.046084 0.999649 0.000114
0.046084 0.999649 0.000114
0.046084 0.999649 0.000114
0.044716 1.000000 0.000114
0.031226 1.000000 0.001398
0.019103 0.999919 0.000953
0.006983 0.999525 0.000508
0.000000 1.000000 0.000285
0.000922 0.999329 0.000285
0.043739 0.999369 0.000000
0.108452 0.999584 0.000000
0.198775 0.999888 0.001019
0.305328 0.999166 0.000000
0.416573 0.999004 0.000000
0.528793 0.999816 0.001015
0.630262 0.999875 0.000141
0.721955 0.999817 0.000000
0.809934 0.999843 0.000208
0.891459 0.999665 0.010022
0.974153 1.000000 0.047972
0.988036 0.999450 0.040520
0.990190 0.998430 0.022993
0.993150 0.968374 0.015797
0.995514 0.940949 0.039441
0.996501 0.929923 0.042235
0.998464 0.920544 0.042544
1.000000 0.912169 0.047289
0.999650 0.901839 0.050081
0.999268 0.892182 0.049414
0.998492 0.884198 0.049723
0.046084 0.999649 0.000114
0.046084 0.999649 0.000114
0.046084 0.999649 0.000114
0.046084 0.999649 0.000114
0.046084 0.999649 0.000114
0.046084 0.999649 0.000114
0.046084 0.999649 0.000114
0.046084 0.999649 0.000114
0.046084 0.999649 0.000114
0.046084 0.999649 0.000114
0.046084 0.999649 0.000114
0.048431 0.999928 0.001091
0.094961 0.999551 0.000917
0.149899 0.999986 0.000215
0.214612 1.000000 0.000710
0.290468 0.999831 0.000675
0.374734 1.000000 0.000110
0.472487 1.000000 0.000000
0.571610 0.999858 0.000000
0.659589 0.999883 0.000277
0.747567 0.999908 0.000688
0.827139 0.999457 0.000000
0.911594 0.999521 0.026488
0.986858 0.999430 0.069405
0.985882 0.999462 0.063239
0.988036 0.999450 0.040520
0.992345 0.994384 0.021040
0.991961 0.985735 0.015180
0.993924 0.975348 0.020679
0.994518 0.964988 0.029642
0.996481 0.955610 0.029949
0.994729 0.945305 0.036202
0.996693 0.934583 0.043434
0.046084 0.999649 0.000114
0.046084 0.999649 0.000114
0.046084 0.999649 0.000114
0.046084 0.999649 0.000114
0.046084 0.999649 0.000114
0.046084 0.999649 0.000114
0.046084 0.999649 0.000114
0.046084 0.999649 0.000114
0.046084 0.999649 0.000114
0.046084 0.999649 0.000114
0.046084 0.999649 0.000114
0.046084 0.999649 0.000114
0.075411 0.999657 0.000250
0.131718 0.999395 0.000000
0.200145 0.999526 0.000000
0.274633 0.999855 0.000000
0.356551 0.999683 0.000000
0.440815 0.999791 0.000606
0.528793 0.999816 0.001015
0.612080 0.999283 0.000000
0.692629 0.999809 0.000000
0.770833 1.000000 0.000000
0.850988 0.999903 0.012148
0.932705 0.999681 0.047390
0.986465 0.999760 0.077305
0.986465 0.999760 0.077305
0.988227 0.999740 0.064215
0.989989 1.000000 0.049394
0.990381 0.999729 0.041496
0.989405 0.999425 0.037059
0.990775 1.000000 0.028407
0.991560 0.997732 0.022993
0.992153 0.990059 0.018110
0.046084 0.999649 0.000114
0.046084 0.999649 0.000114
0.046084 0.999649 0.000114
0.046084 0.999649 0.000114
0.046084 0.999649 0.000114
0.046084 0.999649 0.000114
0.046084 0.999649 0.000114
0.046084 0.999649 0.000114
0.046084 0.999649 0.000114
0.046084 0.999649 0.000114
0.046084 0.999649 0.000114
0.046084 0.999649 0.000114
0.055860 0.999764 0.000000
0.107083 0.999945 0.001363
0.170818 0.999182 0.000883
0.243938 1.000000 0.000848
0.323510 0.999758 0.000059
0.405429 0.999586 0.000246
0.493407 0.999611 0.000655
0.577670 1.000000 0.000090
0.655874 0.999965 0.001032
0.729386 0.999318 0.000019
0.804849 0.999614 0.006153
0.874839 0.999340 0.029591
0.953817 0.999505 0.070024
0.986073 0.999754 0.086933
0.986465 0.999424 0.079035
0.986465 0.999760 0.077305
0.987835 1.000000 0.072113
0.986858 0.999430 0.069405
0.988227 0.999740 0.064215
0.988227 1.000000 0.062484
0.988620 0.999748 0.054586
0.046084 0.999649 0.000114
0.046084 0.999649 0.000114
0.046084 0.999649 0.000114
0.046084 0.999649 0.000114
0.046084 0.999649 0.000114
0.046084 0.999649 0.000114
0.046084 0.999649 0.000114
0.046084 0.999649 0.000114
0.046084 0.999649 0.000114
0.046084 0.999649 0.000114
0.046084 0.999649 0.000114
0.046084 0.999649 0.000114
0.046084 0.999649 0.000114
0.087531 1.000000 0.000695
0.143838 0.999789 0.000000
0.214612 1.000000 0.000710
0.291838 0.999470 0.000000
0.372387 0.999995 0.000000
0.460365 1.000000 0.000000
0.544630 1.000000 0.000706
0.626547 0.999956 0.000895
0.702404 0.999588 0.000859
0.774547 0.999637 0.000000
0.844536 1.000000 0.019825
0.922538 1.000000 0.054090
