Sources/Resources/LUT/gfx-eterna-55-3d-lut-v100/33Grid/F-Log2/FLog2_to_CLASSIC-Neg._33grid_V.1.00.cube
#title:FLog2_to_CLASSIC-Neg.
#model:GFX ETERNA 55
#FUJIFILM Corporation
#Gamma:F-Log2 to CLASSIC Neg.
#Gamut:F-Gamut to ITU-R BT.709
#Version:1.00
LUT_3D_SIZE 5
0.000000 0.000000 0.000000
0.097552 0.006811 0.000324
0.757750 0.046666 0.000000
0.937210 0.055898 0.046676
0.937210 0.055898 0.046676
0.002267 0.090256 0.017594
0.082223 0.100135 0.014012
0.853474 0.137519 0.000227
0.936991 0.085904 0.046950
0.937210 0.055898 0.046676
0.034242 0.839426 0.307933
0.029207 0.789263 0.271048
0.752818 0.765835 0.181364
0.956485 0.594265 0.179394
0.950159 0.454823 0.125891
0.048179 0.942940 0.629266
0.048179 0.942940 0.629266
0.048179 0.941932 0.634456
0.957665 0.995109 0.476613
0.967480 0.957629 0.429704
0.048179 0.942940 0.629266
0.048179 0.942940 0.629266
0.048179 0.942605 0.630995
0.698420 0.980468 0.555207
0.957081 0.992795 0.472931
0.005658 0.005473 0.042645
0.120225 0.011270 0.020695
0.845920 0.051688 0.000000
0.937210 0.055898 0.046676
0.937210 0.055898 0.046676
0.007485 0.136583 0.159422
0.107997 0.121739 0.109290
0.879276 0.136893 0.030004
0.937594 0.066228 0.043883
0.937210 0.055898 0.046676
0.046104 0.848607 0.657863
0.037000 0.785794 0.456926
0.773947 0.737956 0.226664
0.954177 0.550678 0.161457
0.948829 0.411876 0.110660
0.053436 0.942599 0.771438
0.052469 0.941717 0.709981
0.049348 0.941185 0.669511
0.956496 0.994176 0.450211
0.968666 0.942957 0.416477
0.054412 0.942231 0.779335
0.051099 0.941070 0.716902
0.051301 0.942130 0.676656
0.716602 0.981396 0.554145
0.957081 0.992795 0.472931
0.066941 0.081351 0.305004
0.195984 0.080187 0.263797
0.942359 0.141551 0.405941
0.951130 0.186781 0.347071
0.947654 0.154696 0.238703
0.123509 0.372642 0.798333
0.204883 0.330880 0.757110
0.947106 0.273143 0.598242
0.954805 0.223285 0.397886
0.946868 0.157035 0.245848
0.063229 0.874682 1.000000
0.060330 0.836414 1.000000
0.843215 0.793853 0.785121
0.972414 0.635589 0.593008
0.960660 0.470174 0.387653
0.063564 0.943011 0.999738
0.061420 0.942111 0.967169
0.058107 0.941287 0.903005
0.973078 0.987736 0.705445
0.980183 0.929083 0.594766
0.065911 0.943290 1.000000
0.061028 0.942104 0.976797
0.059477 0.941597 0.897813
0.732207 0.982044 0.766871
0.963706 0.993099 0.608180
0.280116 0.347643 0.893215
0.436676 0.397114 0.904605
0.982821 0.518517 0.911535
0.976065 0.438844 0.799829
0.969689 0.362779 0.719938
0.348635 0.686277 1.000000
0.367611 0.671517 1.000000
0.958042 0.687018 0.948403
0.979518 0.504681 0.854379
0.972590 0.394324 0.755488
0.062475 0.843700 0.999981
0.062886 0.818355 1.000000
0.695740 0.825491 1.000000
0.987520 0.746421 0.907863
0.982533 0.648005 0.819492
0.066302 0.941616 0.999738
0.066302 0.941616 0.999738
0.067279 0.942593 1.000000
0.976764 0.971236 0.969195
0.991279 0.926679 0.903558
0.066302 0.941616 0.999738
0.066302 0.941616 0.999738
0.066302 0.941616 0.999738
0.630900 0.976951 0.998840
0.985553 0.995820 0.896651
0.427087 0.621180 1.000000
0.415349 0.630779 0.999484
0.987558 0.692359 0.946276
0.986822 0.639724 0.936548
0.986822 0.639724 0.936548
0.354504 0.681477 1.000000
0.375242 0.664345 1.000000
0.937101 0.709476 0.956215
0.986822 0.639724 0.936548
0.986822 0.639724 0.936548
0.062675 0.836693 1.000000
0.097499 0.810914 0.999845
0.686367 0.812034 1.000000
0.990229 0.769946 0.959519
0.988888 0.736986 0.952856
0.066302 0.941616 0.999738
0.066302 0.941616 0.999738
0.067481 0.935922 1.000000
0.968952 0.956702 0.995992
0.995377 0.920459 0.984804
0.066302 0.941616 0.999738
0.066302 0.941616 0.999738
0.066302 0.941616 0.999738
0.537062 0.969721 0.999493
1.000000 1.000000 1.000000
