Sources/Resources/LUT/gfx-eterna-55-3d-lut-v100/33Grid/F-Log2/FLog2_to_WDR_33grid_V.1.00.cube
#title:FLog2_to_WDR
#FUJIFILM Corporation
#Gamma:F-Log2 to Wide Dynamic Range curve
#Gamut:F-Gamut to ITU-R BT.709
#Version:1.00
LUT_3D_SIZE 5
0.000000 0.000000 0.000000
0.174724 0.020905 0.020905
0.671419 0.061864 0.061864
0.841515 0.067599 0.067599
0.841515 0.067599 0.067599
0.031431 0.149231 0.031431
0.159396 0.152787 0.043272
0.658418 0.061290 0.061290
0.841515 0.067599 0.067599
0.841515 0.067599 0.067599
0.070459 0.619248 0.070459
0.070492 0.615437 0.070492
0.649104 0.625289 0.035084
1.000000 0.579487 0.000000
1.000000 0.564825 0.000000
0.026393 0.972772 0.026393
0.027164 0.969767 0.027164
0.378144 0.966028 0.000000
0.967000 0.935510 0.000000
1.000000 0.926825 0.000000
0.023652 0.983359 0.023652
0.023652 0.983359 0.023652
0.250942 1.000000 0.000000
0.926014 1.000000 0.000000
1.000000 1.000000 0.000000
0.006099 0.006099 0.123791
0.175715 0.026331 0.142661
0.678867 0.063914 0.177282
0.849453 0.068580 0.164265
0.848910 0.068518 0.157527
0.036968 0.154143 0.147039
0.156583 0.156583 0.156583
0.665064 0.063240 0.166931
0.848534 0.068475 0.152873
0.847941 0.068406 0.145546
0.070424 0.619680 0.086085
0.070468 0.615752 0.083454
0.646856 0.624930 0.035501
1.000000 0.579192 0.000000
1.000000 0.564522 0.000000
0.026445 0.972571 0.026445
0.027215 0.969565 0.027215
0.374173 0.965858 0.000000
0.965519 0.935334 0.000000
1.000000 0.926647 0.000000
0.023652 0.983359 0.023652
0.023652 0.983359 0.023652
0.245111 1.000000 0.000000
0.924461 1.000000 0.000000
1.000000 1.000000 0.000000
0.023788 0.023788 0.482864
0.139754 0.037646 0.496342
0.692362 0.068652 0.586073
0.881718 0.070584 0.602286
0.881612 0.070584 0.600712
0.049528 0.164518 0.521533
0.094642 0.156714 0.526149
0.678706 0.068346 0.581820
0.881542 0.070583 0.599666
0.881435 0.070583 0.598084
0.066806 0.637047 0.611355
0.067003 0.633230 0.610328
0.627717 0.627717 0.627717
1.000000 0.576488 0.623330
1.000000 0.561745 0.621374
0.000000 0.989666 0.596773
0.000000 0.987198 0.596152
0.335737 0.964303 0.590441
0.951849 0.933722 0.582956
1.000000 0.925018 0.580856
0.000000 1.000000 0.585114
0.000000 1.000000 0.584480
0.184812 1.000000 0.578648
0.910106 1.000000 0.571002
1.000000 1.000000 0.568856
0.035151 0.035151 0.713502
0.043230 0.036106 0.714210
0.688228 0.070068 0.852954
0.899495 0.070009 0.881854
0.899431 0.070014 0.880798
0.055175 0.164210 0.768980
0.053530 0.150705 0.762589
0.674173 0.069903 0.848881
0.899389 0.070017 0.880097
0.899326 0.070021 0.879038
0.063052 0.642558 0.907436
0.063329 0.638745 0.906291
0.602789 0.623301 0.962625
1.000000 0.572971 0.958227
1.000000 0.558131 0.957000
0.000000 0.987707 0.941772
0.000000 0.985234 0.941392
0.278808 0.962287 0.937914
0.932186 0.932186 0.932186
1.000000 0.922907 0.932123
0.000000 1.000000 0.934688
0.000000 1.000000 0.934306
0.068598 1.000000 0.930798
0.891160 1.000000 0.926232
1.000000 1.000000 0.924958
0.035625 0.035625 0.723125
0.035625 0.035625 0.723125
0.683311 0.070070 0.866510
0.900617 0.069924 0.900617
0.900617 0.069924 0.900617
0.055139 0.161756 0.779922
0.053471 0.148038 0.773638
0.669240 0.069913 0.864072
0.900617 0.069924 0.900617
0.900617 0.069924 0.900617
0.062422 0.642579 0.938279
0.062917 0.638703 0.937227
0.594628 0.622404 1.000000
1.000000 0.571991 1.000000
1.000000 0.557123 1.000000
0.000000 0.987163 1.000000
0.000000 0.984688 1.000000
0.261025 0.961727 1.000000
0.928768 0.931052 1.000000
1.000000 0.922321 1.000000
0.000000 1.000000 1.000000
0.000000 1.000000 1.000000
0.025980 1.000000 1.000000
0.885822 1.000000 1.000000
1.000000 1.000000 1.000000
