Sources/Resources/LUT/gfx-eterna-55-3d-lut-v100/33Grid/F-Log2/FLog2_to_ETERNA-BB_33grid_V.1.00.cube
#title:FLog2_to_ETERNA-BB
#model:GFX ETERNA 55
#FUJIFILM Corporation
#Gamma:F-Log2 to ETERNA BLEACH BYPASS
#Gamut:F-Gamut to ITU-R BT.709
#Version:1.00
LUT_3D_SIZE 33
0.000000 0.000000 0.000000
0.000000 0.000000 0.000000
0.000000 0.000000 0.000000
0.002347 0.000279 0.000977
0.014073 0.002683 0.000667
0.035578 0.004194 0.005019
0.051021 0.005507 0.009149
0.067441 0.008134 0.012522
0.081516 0.010145 0.016653
0.101650 0.012689 0.019273
0.123738 0.017187 0.023849
0.151303 0.018557 0.030151
0.194894 0.024565 0.039078
0.243963 0.028121 0.046273
0.311021 0.027605 0.052938
0.379449 0.026392 0.059601
0.446890 0.035870 0.065202
0.507888 0.034486 0.075106
0.560854 0.052941 0.089581
0.600328 0.071028 0.107074
0.614583 0.088359 0.117507
0.619267 0.099577 0.124567
0.622971 0.110153 0.128919
0.622971 0.110153 0.128919
0.622971 0.110153 0.128919
0.622971 0.110153 0.128919
0.622971 0.110153 0.128919
0.622971 0.110153 0.128919
0.622971 0.110153 0.128919
0.622971 0.110153 0.128919
0.622971 0.110153 0.128919
0.622971 0.110153 0.128919
0.622971 0.110153 0.128919
0.000000 0.000000 0.000000
0.000000 0.000000 0.000000
0.000000 0.000000 0.000000
0.000000 0.000000 0.000000
0.014073 0.002683 0.000667
0.034209 0.004892 0.005019
0.050045 0.004531 0.008173
0.065096 0.007855 0.011546
0.080539 0.009168 0.015676
0.097352 0.010456 0.016343
0.120023 0.017268 0.024601
0.149933 0.019255 0.030151
0.194894 0.024565 0.039078
0.257061 0.029826 0.045965
0.327834 0.028557 0.055337
0.399192 0.030946 0.061468
0.466442 0.035092 0.069332
0.526071 0.034068 0.080965
0.575511 0.057604 0.095665
0.612832 0.080072 0.113379
0.616145 0.092322 0.118707
0.620826 0.103876 0.124036
0.622971 0.110153 0.128919
0.622971 0.110153 0.128919
0.622971 0.110153 0.128919
0.622971 0.110153 0.128919
0.622971 0.110153 0.128919
0.622971 0.110153 0.128919
0.622971 0.110153 0.128919
0.622971 0.110153 0.128919
0.622971 0.110153 0.128919
0.622971 0.110153 0.128919
0.622971 0.110153 0.128919
0.000000 0.000000 0.000000
0.000000 0.000000 0.000000
0.000000 0.000000 0.000000
0.000000 0.000000 0.000000
0.011729 0.002404 0.000000
0.030493 0.004973 0.005774
0.047699 0.004252 0.007196
0.061381 0.008273 0.010569
0.079170 0.009865 0.015676
0.095982 0.010482 0.019804
0.118463 0.013305 0.023402
0.151303 0.018557 0.030151
0.205647 0.025322 0.041254
0.271528 0.030163 0.049117
0.344455 0.025185 0.054803
0.416004 0.031899 0.063868
0.483647 0.034370 0.070755
0.542290 0.043702 0.083055
0.588993 0.067959 0.101215
0.613607 0.087047 0.118262
0.616337 0.096647 0.121637
0.622971 0.110153 0.128919
0.622971 0.110153 0.128919
0.622971 0.110153 0.128919
0.622971 0.110153 0.128919
0.622971 0.110153 0.128919
0.622971 0.110153 0.128919
0.622971 0.110153 0.128919
0.622971 0.110153 0.128919
0.622971 0.110153 0.128919
0.622971 0.110153 0.128919
0.622971 0.110153 0.128919
0.622971 0.110153 0.128919
0.000000 0.000000 0.000000
0.000000 0.000000 0.000000
0.000000 0.000000 0.000000
0.000000 0.000000 0.000000
0.011729 0.002404 0.000000
0.026196 0.002741 0.002845
0.044960 0.005311 0.008925
0.060012 0.008970 0.010569
0.076824 0.009586 0.014699
0.097352 0.010456 0.016343
0.123738 0.017187 0.023849
0.159709 0.019034 0.031352
0.214052 0.026133 0.040722
0.282672 0.028909 0.052047
0.356577 0.025243 0.056981
0.432424 0.035198 0.063782
0.499482 0.034346 0.072176
0.558508 0.052327 0.090337
0.602282 0.073318 0.107297
0.614583 0.088359 0.117507
0.618873 0.101587 0.123812
0.622971 0.110153 0.128919
0.622971 0.110153 0.128919
0.622971 0.110153 0.128919
0.622971 0.110153 0.128919
0.622971 0.110153 0.128919
0.622971 0.110153 0.128919
0.622971 0.110153 0.128919
0.622971 0.110153 0.128919
0.622971 0.110153 0.128919
0.622971 0.110153 0.128919
0.622971 0.110153 0.128919
0.622971 0.110153 0.128919
0.001943 0.013620 0.001868
0.001943 0.013620 0.001868
0.001943 0.013620 0.001868
0.001943 0.013620 0.001868
0.012695 0.014039 0.005774
0.028139 0.016026 0.006442
0.048273 0.018233 0.010793
0.064110 0.018209 0.012215
0.081899 0.020138 0.015590
0.101641 0.024020 0.020919
0.129206 0.025392 0.027222
0.168498 0.028495 0.036680
0.226557 0.035848 0.043567
0.297722 0.032905 0.051962
0.372603 0.029879 0.059601
0.446890 0.035870 0.065202
0.514343 0.032673 0.076083
0.571405 0.059695 0.095665
0.612832 0.080072 0.113379
0.616728 0.094973 0.120660
0.618873 0.101587 0.123812
0.622971 0.110153 0.128919
0.622971 0.110153 0.128919
0.622971 0.110153 0.128919
0.622971 0.110153 0.128919
0.622971 0.110153 0.128919
0.622971 0.110153 0.128919
0.622971 0.110153 0.128919
0.622971 0.110153 0.128919
0.622971 0.110153 0.128919
0.622971 0.110153 0.128919
0.622971 0.110153 0.128919
0.622971 0.110153 0.128919
0.005448 0.030868 0.006663
0.005448 0.030868 0.006663
0.005448 0.030868 0.006663
0.007209 0.028160 0.007418
0.012484 0.031706 0.009593
0.033597 0.034890 0.014922
0.052755 0.037130 0.013107
0.066828 0.039141 0.017234
0.087548 0.043999 0.023540
0.105729 0.044590 0.024207
0.137985 0.046521 0.032465
0.179624 0.050239 0.041169
0.240621 0.049526 0.047609
0.318431 0.049766 0.056449
0.396242 0.050343 0.063558
0.467600 0.051724 0.074882
0.537387 0.059801 0.090113
0.585468 0.072702 0.103168
0.614583 0.088359 0.117507
0.616145 0.092322 0.118707
0.618873 0.101587 0.123812
0.622971 0.110153 0.128919
0.622971 0.110153 0.128919
0.622971 0.110153 0.128919
0.622971 0.110153 0.128919
0.622971 0.110153 0.128919
0.622971 0.110153 0.128919
0.622971 0.110153 0.128919
0.622971 0.110153 0.128919
0.622971 0.110153 0.128919
0.622971 0.110153 0.128919
0.622971 0.110153 0.128919
0.622971 0.110153 0.128919
0.010512 0.051742 0.014390
0.012274 0.049035 0.015145
0.012274 0.049035 0.015145
0.010512 0.051742 0.014390
0.018527 0.053892 0.016567
0.033968 0.055542 0.018966
0.056058 0.059704 0.025269
0.072477 0.062665 0.026914
0.092027 0.062896 0.025851
0.114900 0.063372 0.031933
0.144418 0.067369 0.036731
0.189188 0.068020 0.044457
0.255854 0.069178 0.052098
0.333665 0.069418 0.060938
0.413821 0.069938 0.070755
0.486738 0.074946 0.085008
0.546751 0.082908 0.100770
0.588380 0.097286 0.114578
0.623554 0.113140 0.129140
0.625507 0.115429 0.129362
0.625699 0.119754 0.132292
0.626676 0.121067 0.131540
0.625116 0.117103 0.130339
0.623554 0.113140 0.129140
0.622971 0.110153 0.128919
0.622971 0.110153 0.128919
0.622971 0.110153 0.128919
0.622971 0.110153 0.128919
0.622971 0.110153 0.128919
0.622971 0.110153 0.128919
0.622971 0.110153 0.128919
0.622971 0.110153 0.128919
0.622971 0.110153 0.128919
0.014408 0.067315 0.018211
0.016754 0.067595 0.019187
0.016754 0.067595 0.019187
0.016754 0.067595 0.019187
0.016754 0.067595 0.019187
0.037473 0.072790 0.023762
0.059954 0.075277 0.029090
0.075980 0.079241 0.035172
0.094162 0.080169 0.034109
0.118012 0.082294 0.037708
0.151636 0.084199 0.042503
0.200705 0.088090 0.047968
0.270110 0.087181 0.059070
0.348897 0.088734 0.067156
0.420254 0.090450 0.076750
0.486135 0.093950 0.091535
0.546338 0.106571 0.108496
0.593242 0.124494 0.124479
0.630372 0.141630 0.144457
0.635646 0.145175 0.146633
0.635646 0.145175 0.146633
0.635646 0.145175 0.146633
0.633110 0.140235 0.144457
0.631548 0.136608 0.141527
0.629403 0.129994 0.138375
0.627844 0.126368 0.135446
0.626676 0.121067 0.131540
0.625507 0.115429 0.129362
0.623554 0.113140 0.129140
0.622971 0.110153 0.128919
0.622971 0.110153 0.128919
0.622971 0.110153 0.128919
0.622971 0.110153 0.128919
0.023187 0.088108 0.025183
0.023187 0.088108 0.025183
0.025141 0.089726 0.028868
0.025141 0.089726 0.028868
0.025141 0.089726 0.028868
0.041168 0.094025 0.033219
0.063648 0.096849 0.036816
0.080462 0.097129 0.042676
0.097858 0.101740 0.041836
0.123076 0.103505 0.043703
0.156308 0.107419 0.047746
0.210854 0.107849 0.056672
0.275173 0.109063 0.061605
0.346923 0.108435 0.073684
0.419258 0.111464 0.082524
0.486700 0.118927 0.098508
0.547486 0.133862 0.119153
0.597320 0.154043 0.141527
0.637379 0.175116 0.159241
0.647145 0.184882 0.169007
0.645000 0.178605 0.164124
0.644024 0.177965 0.161418
0.644617 0.169956 0.158265
0.641889 0.161028 0.151429
0.638959 0.157762 0.150230
0.635053 0.153519 0.148055
0.635646 0.145175 0.146633
0.633110 0.140235 0.144457
0.629595 0.134655 0.139574
0.627450 0.128041 0.136422
0.625891 0.124079 0.135222
0.625116 0.117103 0.130339
0.623554 0.113140 0.129140
0.031766 0.114563 0.037793
0.031373 0.116573 0.037038
0.030004 0.116934 0.038769
0.030004 0.116934 0.038769
0.030004 0.116934 0.038769
0.042709 0.119979 0.041169
0.067143 0.124419 0.048450
0.084933 0.126348 0.051825
0.103114 0.126603 0.054222
0.127546 0.132051 0.056313
0.160196 0.133652 0.056672
0.212002 0.136148 0.062137
0.275345 0.136051 0.067825
0.345333 0.137793 0.080878
0.416691 0.138502 0.095665
0.490777 0.149483 0.110364
0.554102 0.168687 0.136644
0.607842 0.193447 0.159465
0.648676 0.221159 0.183794
0.667240 0.230398 0.190320
0.661582 0.218205 0.182286
0.657485 0.208966 0.180640
0.656709 0.201991 0.175757
0.650850 0.195796 0.171630
0.649681 0.190158 0.169452
0.646953 0.180558 0.166077
0.644809 0.174281 0.161195
0.642272 0.169676 0.157288
0.640912 0.160051 0.150452
0.637006 0.155137 0.151738
0.634470 0.150197 0.149563
0.634087 0.141212 0.145434
0.631548 0.136608 0.141527
0.047956 0.156173 0.055199
0.046586 0.156871 0.055199
0.046193 0.158880 0.054445
0.046193 0.158880 0.054445
0.046193 0.158880 0.054445
0.046193 0.158880 0.054445
0.070626 0.163320 0.061727
0.091739 0.166506 0.067056
0.110896 0.168072 0.068699
0.133769 0.169222 0.071320
0.164073 0.169199 0.077625
0.213141 0.174434 0.076168
0.277853 0.173640 0.081855
0.348426 0.177696 0.098595
0.422129 0.180029 0.107435
0.497383 0.194966 0.132961
0.564613 0.219086 0.157958
0.619914 0.247472 0.183707
0.669738 0.278646 0.209457
0.696699 0.298350 0.225750
0.685967 0.275940 0.215095
0.679141 0.258109 0.204884
0.673674 0.250240 0.199777
0.670362 0.237989 0.194449
0.667240 0.230398 0.190320
0.661582 0.218205 0.182286
0.656699 0.212314 0.182593
0.656709 0.201991 0.175757
0.650850 0.195796 0.171630
0.648122 0.186195 0.168254
0.646953 0.180558 0.166077
0.644225 0.171629 0.159241
0.640128 0.163400 0.152406
0.065685 0.224408 0.077093
0.069592 0.227979 0.082732
0.067437 0.232697 0.081222
0.070760 0.233952 0.083175
0.071736 0.235264 0.082422
0.071736 0.235264 0.082422
0.078582 0.231441 0.084151
0.103216 0.229883 0.087527
0.123160 0.227431 0.090680
0.147403 0.227547 0.095032
0.175753 0.225906 0.097652
0.220128 0.228230 0.106356
0.285425 0.231766 0.105343
0.355998 0.236159 0.120352
0.436345 0.240667 0.134827
0.514922 0.257197 0.160578
0.586059 0.284886 0.191212
0.652887 0.321675 0.220559
0.705056 0.353801 0.243824
0.744320 0.388881 0.268598
0.726752 0.358964 0.254566
0.712899 0.328292 0.243242
0.701773 0.308229 0.230101
0.694555 0.291736 0.222598
0.689088 0.284202 0.215762
0.685192 0.268629 0.211941
0.680117 0.259085 0.205860
0.673674 0.250240 0.199777
0.668016 0.237710 0.193472
0.662942 0.227831 0.189122
0.659237 0.217253 0.184770
0.656901 0.205980 0.180419
0.651826 0.197108 0.170874
0.106058 0.331432 0.122563
0.109180 0.339023 0.126691
0.110348 0.344995 0.127137
0.113278 0.347925 0.130067
0.109764 0.341673 0.128644
0.106058 0.331432 0.122563
0.102354 0.320855 0.118211
0.126012 0.317984 0.122339
0.146740 0.311848 0.125269
0.168636 0.311349 0.130376
0.200309 0.310629 0.136681
0.244102 0.310637 0.141699
0.303529 0.315613 0.157239
0.376841 0.320964 0.160132
0.458939 0.332751 0.183930
0.542208 0.350175 0.209903
0.623512 0.376641 0.237297
0.693662 0.414685 0.268598
0.748178 0.446755 0.294570
0.793310 0.478380 0.313176
0.779257 0.454715 0.300567
0.761497 0.420137 0.285336
0.739831 0.381652 0.266199
0.732218 0.366833 0.259672
0.723631 0.351374 0.250438
0.716997 0.337531 0.244886
0.710170 0.319365 0.236406
0.701773 0.308229 0.230101
0.694555 0.291736 0.222598
0.688896 0.279542 0.214561
0.682262 0.265699 0.209011
0.677188 0.256156 0.202931
0.671529 0.243290 0.198355
0.169275 0.471247 0.187700
0.177087 0.479395 0.193781
0.171813 0.475850 0.191606
0.168107 0.465610 0.185523
0.162058 0.454754 0.180195
0.156006 0.443561 0.176597
0.152693 0.431646 0.169539
0.162670 0.424755 0.170293
0.180661 0.420013 0.173223
0.202366 0.414853 0.177129
0.233452 0.411146 0.183211
0.276853 0.412158 0.192668
0.339997 0.416714 0.209184
0.409783 0.423783 0.229605
0.490122 0.440294 0.242265
0.580426 0.459564 0.265976
0.668959 0.491193 0.299230
0.738727 0.519580 0.329864
0.788360 0.547438 0.347492
0.832324 0.573090 0.365652
0.827059 0.558886 0.358371
0.811847 0.519933 0.333290
0.792919 0.480391 0.312422
0.779257 0.454715 0.300567
0.771061 0.436909 0.293816
0.761888 0.418463 0.284359
0.749978 0.401076 0.276632
0.739831 0.381652 0.266199
0.729289 0.364240 0.255012
0.723631 0.351374 0.250438
0.715044 0.335578 0.242933
0.710170 0.319365 0.236406
0.701773 0.308229 0.230101
0.238161 0.611924 0.259227
0.234063 0.603021 0.255852
0.229965 0.594118 0.252476
0.226261 0.583541 0.248125
0.220210 0.572686 0.242797
0.214552 0.560155 0.236492
0.208501 0.549299 0.231163
0.207926 0.535990 0.224106
0.227869 0.533202 0.228989
0.248598 0.527064 0.231918
0.278317 0.524055 0.237999
0.320348 0.525763 0.247457
0.382122 0.531018 0.263974
0.453862 0.540712 0.282887
0.536544 0.555149 0.308637
0.623326 0.579835 0.330840
0.704439 0.601976 0.355305
0.773432 0.623387 0.381055
0.824636 0.644215 0.396508
0.867239 0.661250 0.402639
0.874870 0.654415 0.400686
0.859457 0.619443 0.389895
0.838576 0.578620 0.363614
0.823555 0.543319 0.344922
0.816336 0.527162 0.335688
0.806772 0.510054 0.328937
0.798970 0.490910 0.319481
0.791167 0.471766 0.310023
0.780233 0.455691 0.301543
0.773014 0.438862 0.295769
0.762080 0.423124 0.285558
0.754861 0.406631 0.278055
0.744320 0.388881 0.268598
0.284211 0.708480 0.309441
0.280697 0.702563 0.306289
0.276208 0.695670 0.302160
0.274455 0.687719 0.296300
0.270357 0.678480 0.294656
0.264498 0.672285 0.290528
0.259424 0.662740 0.284444
0.255719 0.652164 0.280093
0.269018 0.647201 0.279341
0.290724 0.642040 0.283247
0.319072 0.639728 0.289327
0.364818 0.641018 0.299762
0.424639 0.644320 0.314324
0.497356 0.654318 0.337676
0.574764 0.665547 0.359520
0.658032 0.683980 0.380301
0.737193 0.704840 0.399352
0.803062 0.720342 0.412320
0.851537 0.731569 0.424399
0.890629 0.742016 0.430840
0.904119 0.741712 0.431286
0.897303 0.711205 0.426352
0.883651 0.673862 0.414582
0.863162 0.631029 0.389056
0.857312 0.613838 0.381550
0.848725 0.598042 0.374047
0.839744 0.584257 0.365788
0.830573 0.565475 0.358062
0.824723 0.549292 0.345366
0.818481 0.533440 0.340571
0.809893 0.518316 0.329605
0.804436 0.499452 0.321125
0.794872 0.482344 0.314375
0.321099 0.775258 0.348554
0.317587 0.769342 0.345403
0.314657 0.766412 0.342473
0.313095 0.762449 0.341273
0.309582 0.756868 0.336390
0.305091 0.749976 0.332262
0.302948 0.743025 0.330840
0.301780 0.737725 0.326934
0.299635 0.731447 0.322051
0.323292 0.728240 0.327910
0.353596 0.728553 0.332484
0.398949 0.731518 0.343895
0.457401 0.735852 0.356727
0.526009 0.748951 0.374886
0.602441 0.760211 0.390562
0.681802 0.774402 0.409168
0.754127 0.788091 0.423113
0.817462 0.798316 0.435637
0.864767 0.804243 0.443808
0.898583 0.810807 0.449803
0.923804 0.812909 0.449942
0.916393 0.789739 0.451621
0.909385 0.755243 0.442028
0.896518 0.714553 0.428305
0.888716 0.694737 0.422309
0.885794 0.681149 0.414273
0.880136 0.668282 0.409699
0.874287 0.651764 0.398733
0.865306 0.637306 0.393938
0.856719 0.621511 0.386433
0.851846 0.605968 0.376445
0.845604 0.590117 0.371648
0.835063 0.572703 0.360460
0.344125 0.823031 0.376258
0.342566 0.819069 0.375058
0.340612 0.816778 0.374835
0.341397 0.813431 0.372883
0.337883 0.807515 0.369732
0.335346 0.802911 0.365825
0.331440 0.799005 0.361919
0.331248 0.794008 0.362449
0.327734 0.788429 0.357567
0.346308 0.786673 0.360718
0.373481 0.790391 0.364540
0.416096 0.795758 0.370757
0.472393 0.804475 0.383813
0.539441 0.814282 0.397313
0.612159 0.826297 0.410282
0.688197 0.839231 0.426933
0.761307 0.849572 0.438925
0.822687 0.857509 0.451226
0.870386 0.861761 0.458421
0.903035 0.862690 0.462243
0.932945 0.865348 0.464332
0.932372 0.849686 0.469386
0.927116 0.824151 0.460461
0.921084 0.790297 0.453574
0.912506 0.763169 0.444426
0.910170 0.751560 0.441804
0.905489 0.739670 0.438207
0.899438 0.727806 0.438071
0.896518 0.714217 0.430034
0.894575 0.700932 0.426437
0.886571 0.688124 0.419156
0.883651 0.673862 0.414582
0.877015 0.660693 0.405569
0.366576 0.856151 0.403824
0.364623 0.854198 0.401871
0.364040 0.851548 0.399918
0.362087 0.849595 0.397965
0.360134 0.847642 0.396012
0.357204 0.844712 0.393082
0.354666 0.839773 0.390907
0.354083 0.837122 0.388954
0.351544 0.832518 0.385047
0.357999 0.831041 0.384293
0.382825 0.834480 0.387137
0.421725 0.839930 0.394109
0.478022 0.848981 0.405433
0.541355 0.859543 0.416226
0.610751 0.869631 0.430704
0.684836 0.881284 0.441942
0.756576 0.892323 0.453934
0.819719 0.898223 0.463526
0.865073 0.902532 0.468015
0.902805 0.902681 0.471083
0.929785 0.901738 0.473703
0.941524 0.892474 0.473481
0.938019 0.874219 0.473874
0.934716 0.849629 0.472093
0.926924 0.818482 0.464452
0.925173 0.809522 0.463785
0.922444 0.800259 0.458681
0.920692 0.791634 0.456281
0.918356 0.780024 0.453661
0.916019 0.769086 0.447578
0.911338 0.757196 0.443981
0.909002 0.745251 0.443090
0.901974 0.733754 0.435055
0.386107 0.874674 0.428546
0.382786 0.873754 0.424862
0.380440 0.873476 0.423886
0.379463 0.872835 0.421180
0.377117 0.872893 0.418473
0.375163 0.870939 0.416519
0.374187 0.870299 0.413813
0.369889 0.868066 0.410883
0.370674 0.864382 0.410660
0.369114 0.860754 0.407730
0.390617 0.862938 0.408621
0.424433 0.869503 0.414616
0.476432 0.876659 0.421282
0.535074 0.885655 0.435312
0.603100 0.897112 0.446329
0.672102 0.910216 0.454859
0.742865 0.919606 0.469335
0.806007 0.926180 0.475469
0.855469 0.928396 0.479957
0.893202 0.928209 0.484755
0.921551 0.926905 0.485644
0.944232 0.923730 0.485337
0.943265 0.910749 0.486176
0.942501 0.891435 0.484840
0.938413 0.870529 0.483282
0.934517 0.855291 0.477732
0.933740 0.847981 0.474578
0.931988 0.839692 0.470449
0.930237 0.831405 0.466320
0.927116 0.822807 0.467382
0.923994 0.815216 0.463254
0.924981 0.804862 0.462587
0.921275 0.794621 0.456503
0.438872 0.892071 0.483269
0.436919 0.890118 0.481316
0.431249 0.889255 0.474925
0.426951 0.887358 0.470266
0.422652 0.885463 0.465606
0.414640 0.883649 0.461700
0.408972 0.883122 0.453578
0.404672 0.881226 0.448918
0.397051 0.878409 0.440574
0.390407 0.876234 0.434937
0.395098 0.878137 0.429969
0.420507 0.884899 0.431304
0.465076 0.892219 0.439477
0.518635 0.903002 0.449071
0.576885 0.915352 0.455425
0.645304 0.924799 0.467195
0.713721 0.934917 0.475503
0.781947 0.940039 0.484343
0.836684 0.945464 0.492738
0.879108 0.946507 0.496028
0.909803 0.945146 0.499625
0.934830 0.942585 0.498562
0.944807 0.936031 0.497586
0.946185 0.922994 0.501132
0.944635 0.907363 0.500019
0.942501 0.890091 0.491762
0.941332 0.884789 0.487855
0.938794 0.880186 0.483949
0.938019 0.872539 0.482527
0.935874 0.865925 0.479375
0.934707 0.859952 0.478930
0.933931 0.852304 0.477507
0.933549 0.843320 0.473379
0.492813 0.905454 0.529871
0.488122 0.904896 0.527918
0.485192 0.902302 0.523257
0.478154 0.901464 0.520327
0.472487 0.900602 0.513937
0.468187 0.898706 0.509278
0.463496 0.898820 0.503864
0.455875 0.895667 0.497250
0.448837 0.895166 0.492589
0.442193 0.893327 0.485222
0.437895 0.891430 0.480563
0.456660 0.895009 0.481452
0.480118 0.899817 0.480836
0.516280 0.908342 0.479156
0.562216 0.916308 0.480406
0.619097 0.930028 0.483302
0.682824 0.940260 0.486194
0.750849 0.952053 0.495481
0.813016 0.956978 0.504099
0.861108 0.959555 0.510316
0.897863 0.958727 0.512405
0.922498 0.958177 0.510590
0.946549 0.954641 0.508550
0.948120 0.946601 0.511567
0.947153 0.933620 0.512405
0.946578 0.919303 0.510539
0.943457 0.911713 0.506410
0.943265 0.907724 0.501750
0.941706 0.903762 0.500551
0.943275 0.897065 0.496644
0.942107 0.891765 0.492738
0.941915 0.887440 0.489808
0.939379 0.882836 0.485902
0.518414 0.912171 0.556633
0.518414 0.912171 0.556633
0.518414 0.912171 0.556633
0.518414 0.912171 0.556633
0.518414 0.912171 0.556633
0.518414 0.912171 0.556633
0.516069 0.912228 0.553926
0.509424 0.910051 0.548289
0.502779 0.908213 0.540922
0.495743 0.908048 0.534531
0.491836 0.904141 0.530624
0.491836 0.905149 0.525434
0.508649 0.907447 0.520910
0.532106 0.912254 0.520293
0.565923 0.920164 0.519367
0.610883 0.926819 0.521371
0.662488 0.936657 0.523821
0.720154 0.947365 0.523032
0.778213 0.955390 0.526458
0.834319 0.961462 0.527928
0.878694 0.966138 0.524519
0.909975 0.968773 0.523148
0.932264 0.967943 0.520356
0.950255 0.963201 0.523286
0.949479 0.954882 0.525325
0.949488 0.943215 0.525410
0.949107 0.933894 0.523012
0.946568 0.929290 0.519105
0.947353 0.925942 0.517152
0.945794 0.922652 0.512493
0.945602 0.917991 0.511293
0.945410 0.914002 0.506633
0.945218 0.909677 0.503703
0.518414 0.912171 0.556633
0.518414 0.912171 0.556633
0.518414 0.912171 0.556633
0.518414 0.912171 0.556633
0.518414 0.912171 0.556633
0.518414 0.912171 0.556633
0.518414 0.912171 0.556633
0.518414 0.912171 0.556633
0.518414 0.912171 0.556633
0.518414 0.912171 0.556633
0.518414 0.912171 0.556633
0.518414 0.912171 0.556633
0.535811 0.916446 0.557524
0.557898 0.921279 0.560366
0.578033 0.924832 0.557797
0.609896 0.930116 0.558379
0.647427 0.937607 0.558430
0.694735 0.945213 0.557950
0.750447 0.952623 0.562128
0.802839 0.958778 0.564357
0.850538 0.964710 0.562898
0.890615 0.967490 0.554829
0.919549 0.971189 0.545558
0.941838 0.972376 0.532382
0.950637 0.970170 0.537796
0.952208 0.962466 0.539082
0.949479 0.952529 0.537438
0.951241 0.950494 0.534730
0.948703 0.945555 0.532555
0.949488 0.942207 0.530602
0.947928 0.938915 0.525941
0.947345 0.936601 0.522258
0.947153 0.931940 0.521058
0.518414 0.912171 0.556633
0.518414 0.912171 0.556633
0.518414 0.912171 0.556633
0.518414 0.912171 0.556633
0.518414 0.912171 0.556633
0.518414 0.912171 0.556633
0.518414 0.912171 0.556633
0.518414 0.912171 0.556633
0.518414 0.912171 0.556633
0.518414 0.912171 0.556633
0.518414 0.912171 0.556633
0.518414 0.912171 0.556633
0.528773 0.915273 0.556324
0.548516 0.919490 0.559921
0.576271 0.925858 0.565694
0.606765 0.930160 0.574930
0.641558 0.938038 0.580173
0.684757 0.946056 0.588343
0.731088 0.951005 0.595539
0.778788 0.956265 0.597543
0.826093 0.962863 0.602253
0.866756 0.967958 0.597867
0.901165 0.968866 0.588597
0.928731 0.973934 0.575868
0.951413 0.973448 0.561716
0.951805 0.973454 0.552086
0.950245 0.969156 0.552618
0.951422 0.964133 0.549688
0.951814 0.962796 0.546980
0.952599 0.959448 0.545027
0.949670 0.956519 0.542098
0.949086 0.954203 0.538414
0.949871 0.951192 0.534730
0.518414 0.912171 0.556633
0.518414 0.912171 0.556633
0.518414 0.912171 0.556633
0.518414 0.912171 0.556633
0.518414 0.912171 0.556633
0.518414 0.912171 0.556633
0.518414 0.912171 0.556633
0.518414 0.912171 0.556633
0.518414 0.912171 0.556633
0.518414 0.912171 0.556633
0.518414 0.912171 0.556633
0.518414 0.912171 0.556633
0.521736 0.914098 0.555125
0.540502 0.917004 0.559477
0.565913 0.922757 0.566004
0.592691 0.928148 0.570801
0.630222 0.934295 0.577773
0.668730 0.941756 0.583991
0.713300 0.949076 0.592164
0.760606 0.955001 0.600336
0.805566 0.960312 0.609261
0.849551 0.964982 0.615481
0.886499 0.968815 0.618769
0.915039 0.972843 0.617398
0.938305 0.974335 0.608660
0.954926 0.975332 0.585634
0.951413 0.973784 0.559984
0.951413 0.973784 0.559984
0.952782 0.973423 0.558253
0.954151 0.972726 0.558253
0.952198 0.970773 0.556300
0.951614 0.968122 0.554347
0.951030 0.965808 0.550665
0.518414 0.912171 0.556633
0.518414 0.912171 0.556633
0.518414 0.912171 0.556633
0.518414 0.912171 0.556633
0.518414 0.912171 0.556633
0.518414 0.912171 0.556633
0.518414 0.912171 0.556633
0.518414 0.912171 0.556633
0.518414 0.912171 0.556633
0.518414 0.912171 0.556633
0.518414 0.912171 0.556633
0.518414 0.912171 0.556633
0.518414 0.912171 0.556633
0.534834 0.915133 0.558277
0.554576 0.919687 0.560144
0.580963 0.926418 0.567648
0.614779 0.932646 0.575375
0.650942 0.939490 0.582347
0.693164 0.946868 0.587812
0.739102 0.952819 0.599445
0.787777 0.958384 0.605887
0.832739 0.963694 0.614812
0.872032 0.968141 0.617347
0.904287 0.971416 0.618684
