Sources/Resources/LUT/gfx-eterna-55-3d-lut-v100/33Grid/F-Log2/FLog2_to_PRO-Neg.Std_33grid_V.1.00.cube
#title:FLog2_to_PRO-Neg.Std
#model:GFX ETERNA 55
#FUJIFILM Corporation
#Gamma:F-Log2 to PRO Neg.Std
#Gamut:F-Gamut to ITU-R BT.709
#Version:1.00
LUT_3D_SIZE 33
0.000000 0.000000 0.000000
0.000000 0.000000 0.000000
0.000000 0.000000 0.000000
0.003323 0.001592 0.000222
0.018767 0.002906 0.004352
0.038901 0.005113 0.008704
0.056298 0.008716 0.013056
0.077801 0.010227 0.017405
0.102627 0.012994 0.023711
0.134490 0.016598 0.032945
0.171438 0.019086 0.043156
0.216791 0.022385 0.052836
0.267229 0.024235 0.065223
0.328418 0.026839 0.079785
0.410528 0.027967 0.098477
0.514926 0.026922 0.121298
0.627731 0.025009 0.152239
0.744643 0.019658 0.190102
0.845518 0.017307 0.246023
0.925474 0.014079 0.309931
0.929380 0.009919 0.355367
0.929380 0.010255 0.353638
0.929380 0.010591 0.351906
0.929380 0.010591 0.351906
0.929380 0.010591 0.351906
0.929380 0.010591 0.351906
0.929380 0.010591 0.351906
0.929380 0.010591 0.351906
0.929380 0.010591 0.351906
0.929380 0.010591 0.351906
0.929380 0.010591 0.351906
0.929380 0.010591 0.351906
0.929380 0.010591 0.351906
0.000000 0.000000 0.000000
0.000000 0.000000 0.000000
0.000000 0.000000 0.000000
0.000000 0.000000 0.000000
0.018767 0.002906 0.004352
0.035184 0.005532 0.007727
0.053951 0.008101 0.013808
0.074086 0.010309 0.018160
0.100282 0.012378 0.024465
0.128822 0.015062 0.030015
0.166747 0.018863 0.039474
0.213469 0.020794 0.052612
0.267229 0.024235 0.065223
0.344254 0.026479 0.082937
0.436138 0.027049 0.104559
0.538775 0.028040 0.130087
0.663118 0.022861 0.164712
0.781006 0.017480 0.208742
0.882858 0.015769 0.267371
0.928403 0.011967 0.338816
0.929380 0.009919 0.355367
0.929380 0.010255 0.353638
0.929380 0.010591 0.351906
0.929380 0.010591 0.351906
0.929380 0.010591 0.351906
0.929380 0.010591 0.351906
0.929380 0.010591 0.351906
0.929380 0.010591 0.351906
0.929380 0.010591 0.351906
0.929380 0.010591 0.351906
0.929380 0.010591 0.351906
0.929380 0.010591 0.351906
0.929380 0.010591 0.351906
0.000000 0.000000 0.000000
0.000000 0.000000 0.000000
0.000000 0.000000 0.000000
0.000000 0.000000 0.000000
0.015050 0.003324 0.003375
0.032840 0.005253 0.006751
0.050629 0.007182 0.010126
0.073110 0.009333 0.017184
0.097936 0.012100 0.023489
0.126478 0.014447 0.030770
0.164400 0.018248 0.040226
0.216791 0.022385 0.052836
0.283065 0.023874 0.068375
0.361066 0.027095 0.087067
0.457643 0.028560 0.108910
0.569078 0.028016 0.136391
0.698504 0.021723 0.171991
0.809546 0.018148 0.224676
0.916483 0.013977 0.291203
0.929380 0.009919 0.355367
0.929380 0.010255 0.353638
0.929380 0.010591 0.351906
0.929380 0.010591 0.351906
0.929380 0.010591 0.351906
0.929380 0.010591 0.351906
0.929380 0.010591 0.351906
0.929380 0.010591 0.351906
0.929380 0.010591 0.351906
0.929380 0.010591 0.351906
0.929380 0.010591 0.351906
0.929380 0.010591 0.351906
0.929380 0.010591 0.351906
0.929380 0.010591 0.351906
0.000000 0.000000 0.000000
0.000000 0.000000 0.000000
0.000000 0.000000 0.000000
0.000000 0.000000 0.000000
0.015050 0.003324 0.003375
0.028149 0.004694 0.004798
0.048283 0.006566 0.010878
0.069394 0.009750 0.016207
0.095590 0.011820 0.022512
0.128822 0.015062 0.030015
0.171438 0.019086 0.043156
0.222852 0.022248 0.054790
0.292448 0.024991 0.072282
0.375533 0.027432 0.090218
0.479540 0.028061 0.114016
0.599774 0.025647 0.145181
0.731545 0.018961 0.185220
0.840827 0.016749 0.244070
0.925474 0.013071 0.315121
0.929380 0.009919 0.355367
0.929380 0.010255 0.353638
0.929380 0.010591 0.351906
0.929380 0.010591 0.351906
0.929380 0.010591 0.351906
0.929380 0.010591 0.351906
0.929380 0.010591 0.351906
0.929380 0.010591 0.351906
0.929380 0.010591 0.351906
0.929380 0.010591 0.351906
0.929380 0.010591 0.351906
0.929380 0.010591 0.351906
0.929380 0.010591 0.351906
0.929380 0.010591 0.351906
0.002528 0.016942 0.000360
0.002528 0.016942 0.000360
0.002528 0.016942 0.000360
0.002528 0.016942 0.000360
0.014648 0.017001 0.002535
0.031068 0.019291 0.007639
0.050226 0.020522 0.011015
0.072123 0.020695 0.012660
0.098319 0.022428 0.020695
0.132527 0.026984 0.027446
0.179642 0.027577 0.037879
0.234188 0.026661 0.053727
0.304176 0.027394 0.071972
0.390000 0.027434 0.095101
0.501436 0.027562 0.119121
0.627731 0.025009 0.152239
0.757740 0.020021 0.196714
0.872106 0.016022 0.260004
0.928403 0.011967 0.338816
0.929380 0.009919 0.355367
0.929380 0.010255 0.353638
0.929380 0.010591 0.351906
0.929380 0.010591 0.351906
0.929380 0.010591 0.351906
0.929380 0.010591 0.351906
0.929380 0.010591 0.351906
0.929380 0.010591 0.351906
0.929380 0.010591 0.351906
0.929380 0.010591 0.351906
0.929380 0.010591 0.351906
0.929380 0.010591 0.351906
0.929380 0.010591 0.351906
0.929380 0.010591 0.351906
0.005448 0.032212 0.000000
0.005448 0.032212 0.000000
0.005448 0.032212 0.000000
0.005839 0.030202 0.000496
0.011116 0.034420 0.000000
0.034965 0.035873 0.006271
0.051778 0.037497 0.005207
0.075627 0.038951 0.012266
0.107490 0.043227 0.018038
0.141116 0.044123 0.028027
0.189208 0.045357 0.041169
0.249027 0.049331 0.052269
0.322146 0.047332 0.067808
0.418138 0.045474 0.091160
0.525870 0.033682 0.117750
0.659403 0.024287 0.158543
0.785697 0.018374 0.208964
0.898301 0.015738 0.278422
0.927033 0.011993 0.342277
0.929380 0.009919 0.355367
0.929380 0.010255 0.353638
0.929380 0.010591 0.351906
0.929380 0.010591 0.351906
0.929380 0.010591 0.351906
0.929380 0.010591 0.351906
0.929380 0.010591 0.351906
0.929380 0.010591 0.351906
0.929380 0.010591 0.351906
0.929380 0.010591 0.351906
0.929380 0.010591 0.351906
0.929380 0.010591 0.351906
0.929380 0.010591 0.351906
0.929380 0.010591 0.351906
0.007583 0.051166 0.000000
0.006997 0.048178 0.000000
0.006997 0.048178 0.000000
0.007583 0.051166 0.000000
0.012667 0.050049 0.000324
0.032408 0.054267 0.003922
0.054496 0.059101 0.006765
0.082060 0.060136 0.014801
0.111971 0.062796 0.016891
0.147942 0.064307 0.026125
0.201701 0.068420 0.035272
0.262307 0.067701 0.051343
0.340701 0.070256 0.063868
0.443146 0.066586 0.088196
0.559083 0.062947 0.111239
0.693793 0.047860 0.152562
0.792725 0.032896 0.201426
0.884227 0.016080 0.262179
0.927427 0.013007 0.327458
0.929380 0.010591 0.351906
0.928010 0.011961 0.348446
0.928010 0.011961 0.348446
0.928010 0.011961 0.348446
0.929380 0.010591 0.351906
0.929380 0.010591 0.351906
0.929380 0.010591 0.351906
0.929380 0.010591 0.351906
0.929380 0.010591 0.351906
0.929380 0.010591 0.351906
0.929380 0.010591 0.351906
0.929380 0.010591 0.351906
0.929380 0.010591 0.351906
0.929380 0.010591 0.351906
0.011277 0.074081 0.000153
0.011277 0.074081 0.000153
0.011277 0.074081 0.000153
0.011277 0.074081 0.000153
0.011277 0.074081 0.000153
0.028674 0.078693 0.000000
0.054869 0.081433 0.002157
0.083018 0.085792 0.008684
0.112928 0.087778 0.014234
0.154960 0.089487 0.023692
0.209695 0.094576 0.033816
0.276946 0.098386 0.043411
0.362185 0.096445 0.061125
0.466192 0.097746 0.081460
0.575089 0.092935 0.103304
0.686333 0.086722 0.134778
0.785850 0.076426 0.175210
0.873828 0.065360 0.232727
0.928191 0.037027 0.304565
0.927033 0.011993 0.342277
0.927033 0.011993 0.342277
0.928010 0.013306 0.341524
0.927033 0.011993 0.342277
0.927033 0.011993 0.342277
0.927033 0.011321 0.345738
0.927033 0.011321 0.345738
0.928010 0.011961 0.348446
0.928010 0.011961 0.348446
0.929380 0.010591 0.351906
0.929380 0.010591 0.351906
0.929380 0.010591 0.351906
0.929380 0.010591 0.351906
0.929380 0.010591 0.351906
0.014772 0.104004 0.000000
0.014772 0.104004 0.000000
0.015356 0.106991 0.000000
0.015356 0.106991 0.000000
0.015356 0.106991 0.000000
0.029430 0.109674 0.000562
0.054256 0.113785 0.000000
0.081819 0.115828 0.002789
0.117399 0.120021 0.007808
0.162752 0.122987 0.019218
0.216511 0.127436 0.026636
0.288845 0.129121 0.042397
0.370563 0.133940 0.051684
0.463232 0.131499 0.069621
0.573108 0.128336 0.088980
0.678090 0.129269 0.117214
0.776427 0.125338 0.153656
0.868513 0.114533 0.199058
0.935381 0.097596 0.265091
0.935391 0.076519 0.313630
0.933639 0.066550 0.318152
0.935008 0.065516 0.319883
0.932863 0.057558 0.323653
0.933849 0.046196 0.328176
0.931121 0.035251 0.331722
0.930346 0.026259 0.337223
0.927618 0.015651 0.339040
0.927033 0.011993 0.342277
0.927033 0.011321 0.345738
0.927033 0.011321 0.345738
0.928010 0.011961 0.348446
0.928010 0.011961 0.348446
0.929380 0.010591 0.351906
0.020208 0.147883 0.000000
0.020794 0.150870 0.000000
0.020400 0.152544 0.000527
0.020400 0.152544 0.000527
0.020400 0.152544 0.000527
0.020400 0.152544 0.000527
0.046203 0.157967 0.000000
0.079828 0.160544 0.000493
0.118144 0.164352 0.000320
0.164083 0.171311 0.006762
0.222925 0.173971 0.018616
0.293306 0.174040 0.030695
0.370724 0.176291 0.038780
0.465348 0.177146 0.051750
0.567008 0.177497 0.074570
0.671991 0.178429 0.102804
0.769936 0.177516 0.133301
0.860844 0.172742 0.176441
0.940416 0.161201 0.232758
0.942187 0.136744 0.285512
0.937899 0.121165 0.291321
0.939076 0.114462 0.297042
0.939670 0.105110 0.300812
0.937918 0.095478 0.303606
0.935774 0.086848 0.310836
0.935783 0.074172 0.316113
0.933639 0.066550 0.318152
0.933256 0.055885 0.322677
0.930134 0.046278 0.328928
0.930538 0.031592 0.334961
0.930155 0.020928 0.339484
0.927033 0.011993 0.342277
0.927033 0.011993 0.342277
0.021722 0.210182 0.000098
0.023282 0.214482 0.000000
0.023865 0.217469 0.000000
0.023865 0.217469 0.000000
0.023865 0.217469 0.000000
0.023865 0.217469 0.000000
0.032855 0.221267 0.000000
0.072541 0.224377 0.000000
0.110857 0.228184 0.000000
0.161105 0.227389 0.000000
0.219756 0.227070 0.001946
0.292090 0.229764 0.012515
0.373223 0.231931 0.019847
0.463737 0.233872 0.038007
0.563053 0.234614 0.056391
0.666274 0.238255 0.083871
0.762849 0.238376 0.112637
0.853757 0.234274 0.152316
0.942714 0.225529 0.203887
0.947022 0.205341 0.262277
0.942934 0.184770 0.258989
0.945682 0.170028 0.267727
0.943931 0.160060 0.272250
0.940809 0.150789 0.276772
0.942187 0.137080 0.283781
0.939459 0.125463 0.290788
0.938684 0.116809 0.294559
0.939670 0.105110 0.300812
0.936941 0.093829 0.306089
0.936166 0.084837 0.311590
0.934806 0.072859 0.316866
0.933448 0.061218 0.320415
0.932481 0.047229 0.326445
0.023797 0.299139 0.000000
0.023989 0.303799 0.000387
0.025942 0.306088 0.000609
0.022417 0.311504 0.000000
0.022026 0.313178 0.000078
0.022026 0.313178 0.000078
0.023595 0.305809 0.000000
0.054684 0.303110 0.000524
0.102585 0.302036 0.000351
0.155176 0.301856 0.000402
0.216567 0.300478 0.000676
0.289293 0.303514 0.000000
0.372580 0.302309 0.001806
0.460750 0.303969 0.018988
0.559673 0.307059 0.034887
0.659963 0.307098 0.062898
0.754194 0.307276 0.088958
0.845687 0.307168 0.123669
0.935617 0.299736 0.174484
0.953215 0.287594 0.225113
0.951281 0.259619 0.237175
0.949348 0.235003 0.231934
0.947012 0.221713 0.237965
0.946045 0.207388 0.245726
0.946638 0.197027 0.254688
0.942934 0.184770 0.258989
0.945682 0.170364 0.265996
0.943931 0.160060 0.272250
0.942962 0.145400 0.281743
0.942581 0.135070 0.284536
0.938875 0.122141 0.292297
0.938884 0.109129 0.299304
0.937525 0.097488 0.302850
0.016461 0.420972 0.000000
0.016260 0.427642 0.000000
0.016059 0.434313 0.000196
0.016250 0.439309 0.000000
0.015867 0.429653 0.000000
0.016461 0.420972 0.000000
0.019602 0.405900 0.000145
0.024495 0.400124 0.000000
0.078848 0.397572 0.000000
0.139263 0.394882 0.000024
0.208475 0.391329 0.000000
0.286095 0.388254 0.000262
0.369382 0.387385 0.000449
0.459121 0.385038 0.000000
0.554721 0.386871 0.013827
0.653058 0.385629 0.036425
0.748658 0.385445 0.060753
0.840151 0.384665 0.098925
0.922653 0.379750 0.139136
0.959408 0.369178 0.191410
0.958058 0.342172 0.214078
0.956125 0.315876 0.217488
0.952239 0.289643 0.208562
0.954010 0.275604 0.207671
0.950305 0.262339 0.217164
0.952076 0.246620 0.224925
0.949740 0.232994 0.232687
0.947012 0.221713 0.237965
0.947415 0.206354 0.247457
0.946055 0.194376 0.252735
0.944695 0.181390 0.263202
0.943729 0.167739 0.267504
0.941977 0.157098 0.275488
0.015760 0.557656 0.000000
0.016535 0.565639 0.000000
0.017713 0.559945 0.000003
0.016938 0.551962 0.000313
0.016948 0.540295 0.000398
0.015589 0.529325 0.000485
0.015599 0.517657 0.000571
0.017560 0.508280 0.000880
0.056862 0.501732 0.000039
0.119038 0.496670 0.000090
0.192359 0.491026 0.000000
0.272717 0.486555 0.000329
0.357374 0.484989 0.000516
0.448876 0.480271 0.000000
0.547022 0.478401 0.000000
0.646537 0.474490 0.007160
0.741161 0.472657 0.033974
0.831092 0.469259 0.064023
0.911832 0.466716 0.105212
0.964817 0.455115 0.154469
0.966004 0.432041 0.184505
0.962511 0.400774 0.191906
0.959993 0.371828 0.193363
0.958249 0.351200 0.192780
0.957676 0.336210 0.194375
0.955732 0.321582 0.197699
0.955158 0.306256 0.201024
0.952239 0.289643 0.208562
0.953034 0.274628 0.206695
0.951675 0.261642 0.217164
0.952076 0.246620 0.224925
0.949740 0.232994 0.232687
0.947012 0.221713 0.237965
0.012321 0.695734 0.000257
0.012521 0.689064 0.000000
0.014878 0.677676 0.000874
0.014494 0.668018 0.000206
0.012743 0.658723 0.001269
0.015491 0.645997 0.000000
0.014131 0.635027 0.000000
0.014533 0.621350 0.000551
0.015128 0.613005 0.000000
0.087864 0.604038 0.000155
0.167244 0.598590 0.000000
0.251316 0.594038 0.000000
0.341843 0.588008 0.000000
0.437058 0.582536 0.000237
0.535990 0.577318 0.000000
0.634529 0.573438 0.000305
0.732092 0.568581 0.000715
0.820071 0.562222 0.034005
0.898667 0.554073 0.066848
0.967094 0.545130 0.113313
0.968472 0.524028 0.158389
0.968693 0.491671 0.170230
0.966569 0.460715 0.172442
0.963074 0.430456 0.174653
0.962501 0.415130 0.177976
0.959581 0.399188 0.182055
0.961744 0.382804 0.183648
0.958431 0.368537 0.188703
0.957858 0.353210 0.192028
0.957283 0.338221 0.193621
0.957293 0.325545 0.198898
0.954373 0.310276 0.199514
0.953799 0.294614 0.204570
0.007732 0.804505 0.000461
0.010089 0.793453 0.000000
0.010289 0.786447 0.001078
0.008144 0.779161 0.001387
0.008739 0.770816 0.000000
0.009724 0.760127 0.001027
0.009734 0.748795 0.000000
0.011114 0.736430 0.000000
0.011707 0.727749 0.000000
0.039674 0.716788 0.000000
0.125115 0.711538 0.000000
0.218379 0.703777 0.000907
0.314964 0.697944 0.000339
0.416051 0.688008 0.000526
0.516745 0.680083 0.000000
0.618415 0.673134 0.000372
0.714024 0.666325 0.000000
0.802597 0.657670 0.000000
0.883931 0.648126 0.032392
0.962918 0.636287 0.074640
0.971525 0.620682 0.123848
0.971354 0.588655 0.143587
0.970991 0.552975 0.156934
0.967506 0.510712 0.160961
0.968301 0.494689 0.164286
0.964989 0.481094 0.165879
0.965784 0.465743 0.165742
0.963841 0.451114 0.169067
0.966004 0.434058 0.174121
0.962693 0.420126 0.177445
0.960747 0.405161 0.182500
0.959781 0.391846 0.185070
0.959599 0.374846 0.187417
0.003355 0.894939 0.000305
0.003557 0.888268 0.000000
0.002389 0.882295 0.000000
0.003959 0.874591 0.000699
0.004553 0.865911 0.001009
0.003385 0.859936 0.000563
0.008479 0.847491 0.000000
0.006728 0.838531 0.000000
0.004974 0.829235 0.000288
0.005961 0.818880 0.000000
0.069898 0.811111 0.000426
0.168830 0.805558 0.000836
0.274214 0.798526 0.000492
0.380969 0.790798 0.000148
0.489485 0.780698 0.000000
0.594285 0.770345 0.000000
0.693610 0.763116 0.000000
0.783943 0.751754 0.000899
0.868217 0.740531 0.000417
0.945837 0.730732 0.035746
0.972626 0.716055 0.083890
0.974014 0.685638 0.116941
0.973067 0.645628 0.136989
0.971737 0.598648 0.142523
0.971364 0.576315 0.147133
0.971765 0.561966 0.151433
0.970216 0.546335 0.150321
0.967879 0.533045 0.156351
0.968674 0.517021 0.159675
0.966731 0.502056 0.164731
0.968895 0.486344 0.162863
0.965582 0.472413 0.166188
0.963639 0.457449 0.171242
0.000000 0.976691 0.000457
0.000000 0.971696 0.000989
0.000000 0.965024 0.000543
0.000000 0.957040 0.000852
0.000000 0.950371 0.000406
0.000186 0.944677 0.000938
0.000000 0.937029 0.000000
0.001765 0.925641 0.000577
0.002359 0.917298 0.000000
0.001584 0.908978 0.001196
0.003940 0.897925 0.000526
0.100133 0.893767 0.000938
0.215686 0.885176 0.000000
0.331823 0.879236 0.000000
0.448352 0.871288 0.000043
0.559213 0.861468 0.000000
0.664991 0.852426 0.000110
0.760017 0.842294 0.000074
0.844682 0.829061 0.000348
0.924849 0.818249 0.008519
0.970796 0.805474 0.056577
0.972768 0.777709 0.091582
0.974166 0.737305 0.116067
0.974397 0.692944 0.129722
0.973449 0.655621 0.135925
0.972483 0.642305 0.138497
0.972885 0.628627 0.139336
0.972310 0.613302 0.142661
0.972714 0.599625 0.143500
0.970186 0.582346 0.144871
0.971566 0.568973 0.150148
0.970991 0.553983 0.151743
0.970024 0.540667 0.154313
0.000000 1.000000 0.000285
0.000000 1.000000 0.000285
0.000000 1.000000 0.000285
0.000000 1.000000 0.000285
0.000000 1.000000 0.000285
0.000000 1.000000 0.000285
0.000000 1.000000 0.000285
0.000000 1.000000 0.000285
0.000000 0.999050 0.000000
0.000000 0.988359 0.000372
0.000157 0.979678 0.000679
0.003489 0.969603 0.000989
0.139177 0.963893 0.000028
0.267434 0.958347 0.000574
0.393347 0.952523 0.000145
0.512613 0.943514 0.000000
0.627191 0.933276 0.000000
0.730622 0.923619 0.001066
0.819978 0.911616 0.000000
0.900930 0.898801 0.000000
0.968975 0.882554 0.032812
0.971532 0.856766 0.073230
0.973122 0.820351 0.102375
0.973936 0.778305 0.119715
0.975927 0.731908 0.130664
0.974378 0.716614 0.127820
0.974388 0.704611 0.129637
0.974397 0.691936 0.134914
0.975192 0.676584 0.134778
0.974225 0.663604 0.135618
0.974628 0.649591 0.138188
0.972684 0.635299 0.139781
0.969764 0.620366 0.138668
0.000000 1.000000 0.000285
0.000000 1.000000 0.000285
0.000000 1.000000 0.000285
0.000000 1.000000 0.000285
0.000000 1.000000 0.000285
0.000000 1.000000 0.000285
0.000000 1.000000 0.000285
0.000000 1.000000 0.000285
0.000000 1.000000 0.000285
0.000000 1.000000 0.000285
0.000000 1.000000 0.000285
0.000000 1.000000 0.000285
0.032594 0.999953 0.000000
0.179224 0.999995 0.000352
0.317449 0.999561 0.000000
0.446875 0.999988 0.000828
0.573955 1.000000 0.000844
0.686186 0.989619 0.000501
0.781997 0.975803 0.000243
0.863341 0.960977 0.000294
0.937255 0.944636 0.010505
0.968352 0.922876 0.049551
0.971110 0.891425 0.084332
0.973092 0.854345 0.107309
0.973907 0.812298 0.124648
0.973926 0.787956 0.130011
0.973936 0.776288 0.130098
0.973946 0.764957 0.128453
0.975717 0.750245 0.131024
0.973774 0.736625 0.129156
0.974176 0.722949 0.129997
0.974186 0.711281 0.130082
0.974196 0.699278 0.131899
0.000000 1.000000 0.000285
0.000000 1.000000 0.000285
0.000000 1.000000 0.000285
0.000000 1.000000 0.000285
0.000000 1.000000 0.000285
0.000000 1.000000 0.000285
0.000000 1.000000 0.000285
0.000000 1.000000 0.000285
0.000000 1.000000 0.000285
0.000000 1.000000 0.000285
0.000000 1.000000 0.000285
0.000000 1.000000 0.000285
0.000000 1.000000 0.000285
0.055860 0.999764 0.000000
0.206206 0.999724 0.000000
0.352836 0.999766 0.000196
0.491060 0.999332 0.000000
0.618141 0.999480 0.000000
0.724301 1.000000 0.000773
0.813648 0.999761 0.000000
0.893029 0.994314 0.000000
0.962837 0.977039 0.024980
0.967739 0.952203 0.062914
0.969520 0.920783 0.091526
0.971502 0.883030 0.117965
0.972115 0.848998 0.128829
0.973102 0.838308 0.129891
0.972719 0.828650 0.129223
0.974098 0.816622 0.127577
0.973716 0.806293 0.130371
0.973725 0.795297 0.126996
0.973735 0.783294 0.128812
0.974138 0.770290 0.126192
0.000127 1.000000 0.074832
0.000520 0.999899 0.066933
0.000000 0.999595 0.062496
0.000000 1.000000 0.059035
0.000000 0.999937 0.051136
0.000000 0.999302 0.038801
0.000000 0.998973 0.030902
0.000000 1.000000 0.023981
0.000000 0.999684 0.011645
0.000000 0.999689 0.002016
0.000000 1.000000 0.000285
0.000000 1.000000 0.000285
0.000000 1.000000 0.000285
0.058206 1.000000 0.000559
0.161043 0.999404 0.000000
0.282062 0.999355 0.000000
0.405429 0.999586 0.000246
0.532508 0.999734 0.000263
0.653528 0.999686 0.000056
0.757343 1.000000 0.000157
0.840630 0.999490 0.000000
0.916095 0.999450 0.006476
0.964770 0.999302 0.042337
0.968304 0.976507 0.073348
0.970085 0.944415 0.105422
0.972067 0.907671 0.126669
0.972862 0.891648 0.129993
0.972087 0.884000 0.128571
0.973073 0.873309 0.129632
0.972690 0.863316 0.130695
0.972307 0.853659 0.130028
0.971924 0.844002 0.129360
0.972910 0.833648 0.128691
0.032967 0.999768 0.111000
0.032967 0.999768 0.111000
0.032967 0.999768 0.111000
0.032967 0.999768 0.111000
0.032967 0.999768 0.111000
0.032967 0.999768 0.111000
0.029252 0.999850 0.111754
0.010095 0.999964 0.101457
0.000000 0.999214 0.089652
0.000000 0.999918 0.080023
0.000000 0.999925 0.070396
0.000000 0.999595 0.062496
0.019487 0.999831 0.051804
0.082247 0.999772 0.041695
0.158496 1.000000 0.028570
0.250583 1.000000 0.018598
0.356159 0.999677 0.009070
0.467796 0.999521 0.000000
0.581385 0.999973 0.000000
0.688914 0.999892 0.000414
0.781977 0.999138 0.000070
0.862526 0.999664 0.000257
0.934466 0.999998 0.032571
0.965938 0.999898 0.070469
0.965545 0.998548 0.087020
0.969089 0.964758 0.114657
0.971062 0.941023 0.128894
0.971655 0.932007 0.130933
0.970880 0.924359 0.129512
0.971473 0.915342 0.131551
0.970699 0.908032 0.128398
0.970315 0.898038 0.129461
0.972278 0.888996 0.128039
0.032967 0.999768 0.111000
0.032967 0.999768 0.111000
0.032967 0.999768 0.111000
0.032967 0.999768 0.111000
0.032967 0.999768 0.111000
0.032967 0.999768 0.111000
0.032967 0.999768 0.111000
0.032967 0.999768 0.111000
0.032967 0.999768 0.111000
0.032967 0.999768 0.111000
0.032967 0.999768 0.111000
0.032967 0.999768 0.111000
0.080475 0.999694 0.115266
0.129352 1.000000 0.112610
0.179991 1.000000 0.100325
0.242750 1.000000 0.088484
0.322715 0.999650 0.079797
0.417148 0.999206 0.074262
0.516269 0.999657 0.068949
0.619108 0.999690 0.064614
0.720576 1.000000 0.062007
0.805232 0.999861 0.055273
0.882067 0.999125 0.063137
0.951078 0.999219 0.078677
0.963783 0.999574 0.094918
0.966713 0.999816 0.111691
0.966723 0.986132 0.122160
0.968686 0.977090 0.120738
0.970256 0.969050 0.123753
0.971827 0.961347 0.125039
0.971052 0.953027 0.127078
0.970276 0.945379 0.125655
0.969894 0.935051 0.128449
0.032967 0.999768 0.111000
0.032967 0.999768 0.111000
0.032967 0.999768 0.111000
0.032967 0.999768 0.111000
0.032967 0.999768 0.111000
0.032967 0.999768 0.111000
0.032967 0.999768 0.111000
0.032967 0.999768 0.111000
0.032967 0.999768 0.111000
0.032967 0.999768 0.111000
0.032967 0.999768 0.111000
0.032967 0.999768 0.111000
0.060924 1.000000 0.112868
0.112147 0.999983 0.116379
0.168454 0.999721 0.115676
0.233167 0.999598 0.117903
0.310976 1.000000 0.125012
0.391526 0.999356 0.132121
0.476766 0.999432 0.139453
0.566114 0.999431 0.136403
0.659177 0.999685 0.130867
0.748523 1.000000 0.126086
0.829465 0.999546 0.121837
0.902191 0.999557 0.136621
0.960843 0.999910 0.135164
0.961629 1.000000 0.114176
0.964951 0.999498 0.126511
0.964951 0.998826 0.129972
0.965928 1.000000 0.127488
0.967298 0.999777 0.127488
0.966713 0.997127 0.125535
0.966915 0.991129 0.121629
0.968878 0.981750 0.121938
0.032967 0.999768 0.111000
0.032967 0.999768 0.111000
0.032967 0.999768 0.111000
0.032967 0.999768 0.111000
0.032967 0.999768 0.111000
0.032967 0.999768 0.111000
0.032967 0.999768 0.111000
0.032967 0.999768 0.111000
0.032967 0.999768 0.111000
0.032967 0.999768 0.111000
0.032967 0.999768 0.111000
0.032967 0.999768 0.111000
0.045089 0.999826 0.113175
0.090249 0.999811 0.114733
0.142842 0.999966 0.113055
0.204816 1.000000 0.118741
0.278328 0.999247 0.121191
0.357508 0.999462 0.126570
0.440403 0.999257 0.132926
0.529358 0.999252 0.139504
0.616944 0.999607 0.147813
0.702184 0.999346 0.156874
0.781363 0.999225 0.163985
0.852721 0.999935 0.178770
0.918018 0.999438 0.198523
0.963965 0.999435 0.180825
0.962213 0.999549 0.133433
0.963581 0.999860 0.128241
0.963581 0.999187 0.131703
0.965928 0.999803 0.130949
0.964558 0.999829 0.134410
0.965928 0.999803 0.130949
0.964951 0.999162 0.128241
0.032967 0.999768 0.111000
0.032967 0.999768 0.111000
0.032967 0.999768 0.111000
0.032967 0.999768 0.111000
0.032967 0.999768 0.111000
0.032967 0.999768 0.111000
0.032967 0.999768 0.111000
0.032967 0.999768 0.111000
0.032967 0.999768 0.111000
0.032967 0.999768 0.111000
0.032967 0.999768 0.111000
0.032967 0.999768 0.111000
0.032967 0.999768 0.111000
0.070700 0.999917 0.114066
0.124267 1.000000 0.118554
0.178229 0.999499 0.116875
0.249002 0.999575 0.119324
0.324466 0.999871 0.125457
0.407362 0.999668 0.131813
0.492602 0.999744 0.139144
0.581558 0.999401 0.147453
0.670513 0.999731 0.152301
0.751061 0.998913 0.159410
0.826134 0.999876 0.171711
